; Batch Name:                           pp1016-QC
; Batch Description:                    
; Round                                 1.900 x 0.145
; Create Date:                          3/24/2026 11:19:17 AM
; Created with Version:                 5.5.49.0
; Machine Strategy:                     MachineStrategy_3
; Process Strategy:                     1.901 Diam
; Piece Summary: 
;   Stick=1
;     Stick_1_1_pp1016
G20 ; Imperial Units

G58
 T1
 G43 H1
G90
 M25 ; Torch Head Retract
 #29001 = 140
; Stick=1
;N9101
; Load Sequence
; Manual-Load Sequence
G90
 M63
 G00 Y0.0 A0.0
 G01 Z0.95000 F140 ; Testing Torch/Part Z-axis Setup
 M10
 M00 ; double check that it all looks good
 G00 Z1.15000 ; 


; Stick_1_1_pp1016
N93001
; Name:  pp1016
; Description: 1 1/2 sch 40
; Piece Type: Coped
; Material Diameter: 1.9000"   Wall Thickness: 0.1450"
; End-1 Joint Angle: 90.000  Join Diameter: 1.9000"
; Rotational Offset: 0   Length: 55.0000"
; End-2 Joint Angle: 90.000  Join Diameter: 1.9000"
 #300 = "pp1016" ; Assign Piece Name
#126=0 ; Init Bend Notch Counter
G90
 G00 Z[0.95000 + 0.08100]
 /M15
 G04 P0.01
 G00 Z0.95000
G91 
 ;End1 - Start
 G01 X-0.001 F140   ; Pierce Step
 G01 X-0.00000 F140 ; E1 Toe Step
 G01 G93.1 F140
 A3.21429 X-0.00201
 A3.21429 X-0.00596
 A3.21429 X-0.00971
 A3.21429 X-0.01314
 A3.21429 X-0.01616
 A3.21429 X-0.01874
 A3.21429 X-0.02084
 A3.21429 X-0.02248
 A3.21429 X-0.02368
 A3.21429 X-0.02447
 A3.21429 X-0.02489
 A3.21429 X-0.02496
 A3.21429 X-0.02473
 A3.21429 X-0.02423
 A3.21429 X-0.02348
 A3.21429 X-0.02251
 A3.21429 X-0.02136
 A3.21429 X-0.02003
 A3.21429 X-0.01854
 A3.21429 X-0.01693
 A3.21429 X-0.01520
 A3.21429 X-0.01337
 A3.21429 X-0.01145
 A3.21429 X-0.00947
 A3.21429 X-0.00742
 A3.21429 X-0.00533
 A3.21429 X-0.00321
 A3.21429 X-0.00107
 A3.21429 X0.00107
 A3.21429 X0.00321
 A3.21429 X0.00533
 A3.21429 X0.00742
 A3.21429 X0.00947
 A3.21429 X0.01145
 A3.21429 X0.01337
 A3.21429 X0.01520
 A3.21429 X0.01693
 A3.21429 X0.01854
 A3.21429 X0.02003
 A3.21429 X0.02136
 A3.21429 X0.02251
 A3.21429 X0.02348
 A3.21429 X0.02423
 A3.21429 X0.02473
 A3.21429 X0.02496
 A3.21429 X0.02489
 A3.21429 X0.02447
 A3.21429 X0.02368
 A3.21429 X0.02248
 A3.21429 X0.02084
 A3.21429 X0.01874
 A3.21429 X0.01616
 A3.21429 X0.01314
 A3.21429 X0.00971
 A3.21429 X0.00596
 A3.21429 X0.00201
 A3.21429 X-0.00202
 A3.21429 X-0.00598
 A3.21429 X-0.00973
 A3.21429 X-0.01316
 A3.21429 X-0.01618
 A3.21429 X-0.01875
 A3.21429 X-0.02086
 A3.21429 X-0.02250
 A3.21429 X-0.02370
 A3.21429 X-0.02449
 A3.21429 X-0.02490
 A3.21429 X-0.02498
 A3.21429 X-0.02475
 A3.21429 X-0.02424
 A3.21429 X-0.02349
 A3.21429 X-0.02253
 A3.21429 X-0.02137
 A3.21429 X-0.02004
 A3.21429 X-0.01855
 A3.21429 X-0.01694
 A3.21429 X-0.01521
 A3.21429 X-0.01337
 A3.21429 X-0.01146
 A3.21429 X-0.00947
 A3.21429 X-0.00742
 A3.21429 X-0.00533
 A3.21429 X-0.00321
 A3.21429 X-0.00107
 A3.21429 X0.00107
 A3.21429 X0.00321
 A3.21429 X0.00533
 A3.21429 X0.00742
 A3.21429 X0.00947
 A3.21429 X0.01146
 A3.21429 X0.01337
 A3.21429 X0.01521
 A3.21429 X0.01694
 A3.21429 X0.01855
 A3.21429 X0.02004
 A3.21429 X0.02137
 A3.21429 X0.02253
 A3.21429 X0.02349
 A3.21429 X0.02424
 A3.21429 X0.02475
 A3.21429 X0.02498
 A3.21429 X0.02490
 A3.21429 X0.02449
 A3.21429 X0.02370
 A3.21429 X0.02250
 A3.21429 X0.02086
 A3.21429 X0.01875
 A3.21429 X0.01618
 A3.21429 X0.01316
 A3.21429 X0.00973
 A3.21429 X0.00598
 A3.21429 X0.00202
 G94
 ;End1 - End

 G04 P0.01
M16
G91
 IF 50001
 G00 X0.00100 Z0.200; Reverse Pierce Step and Rapid Clearance Move
 G00 X-0.00100
 G00 X[-53.99209 + 0.00000]
 G00 A0.00000
 G00 X[0.145 * -0.4 * #126] ; Bend Notch Comp
G90
 G00 Y0.0 Z[0.95000 + 0.081]
/M15
 G04 P0.01
 G00 Z0.95000
G91
 G04 P0.01
 G01 X0.001 F140 ; Pierce Step
 G01 G93.1 F140
 ;End2 - Start
 A-3.21429 X0.00202
 A-3.21429 X0.00598
 A-3.21429 X0.00973
 A-3.21429 X0.01316
 A-3.21429 X0.01618
 A-3.21429 X0.01875
 A-3.21429 X0.02086
 A-3.21429 X0.02250
 A-3.21429 X0.02370
 A-3.21429 X0.02449
 A-3.21429 X0.02490
 A-3.21429 X0.02498
 A-3.21429 X0.02475
 A-3.21429 X0.02424
 A-3.21429 X0.02349
 A-3.21429 X0.02253
 A-3.21429 X0.02137
 A-3.21429 X0.02004
 A-3.21429 X0.01855
 A-3.21429 X0.01694
 A-3.21429 X0.01521
 A-3.21429 X0.01337
 A-3.21429 X0.01146
 A-3.21429 X0.00947
 A-3.21429 X0.00742
 A-3.21429 X0.00533
 A-3.21429 X0.00321
 A-3.21429 X0.00107
 A-3.21429 X-0.00107
 A-3.21429 X-0.00321
 A-3.21429 X-0.00533
 A-3.21429 X-0.00742
 A-3.21429 X-0.00947
 A-3.21429 X-0.01146
 A-3.21429 X-0.01337
 A-3.21429 X-0.01521
 A-3.21429 X-0.01694
 A-3.21429 X-0.01855
 A-3.21429 X-0.02004
 A-3.21429 X-0.02137
 A-3.21429 X-0.02253
 A-3.21429 X-0.02349
 A-3.21429 X-0.02424
 A-3.21429 X-0.02475
 A-3.21429 X-0.02498
 A-3.21429 X-0.02490
 A-3.21429 X-0.02449
 A-3.21429 X-0.02370
 A-3.21429 X-0.02250
 A-3.21429 X-0.02086
 A-3.21429 X-0.01875
 A-3.21429 X-0.01618
 A-3.21429 X-0.01316
 A-3.21429 X-0.00973
 A-3.21429 X-0.00598
 A-3.21429 X-0.00202
 A-3.21429 X0.00201
 A-3.21429 X0.00596
 A-3.21429 X0.00971
 A-3.21429 X0.01314
 A-3.21429 X0.01616
 A-3.21429 X0.01874
 A-3.21429 X0.02084
 A-3.21429 X0.02248
 A-3.21429 X0.02368
 A-3.21429 X0.02447
 A-3.21429 X0.02489
 A-3.21429 X0.02496
 A-3.21429 X0.02473
 A-3.21429 X0.02423
 A-3.21429 X0.02348
 A-3.21429 X0.02251
 A-3.21429 X0.02136
 A-3.21429 X0.02003
 A-3.21429 X0.01854
 A-3.21429 X0.01693
 A-3.21429 X0.01520
 A-3.21429 X0.01337
 A-3.21429 X0.01145
 A-3.21429 X0.00947
 A-3.21429 X0.00742
 A-3.21429 X0.00533
 A-3.21429 X0.00321
 A-3.21429 X0.00107
 A-3.21429 X-0.00107
 A-3.21429 X-0.00321
 A-3.21429 X-0.00533
 A-3.21429 X-0.00742
 A-3.21429 X-0.00947
 A-3.21429 X-0.01145
 A-3.21429 X-0.01337
 A-3.21429 X-0.01520
 A-3.21429 X-0.01693
 A-3.21429 X-0.01854
 A-3.21429 X-0.02003
 A-3.21429 X-0.02136
 A-3.21429 X-0.02251
 A-3.21429 X-0.02348
 A-3.21429 X-0.02423
 A-3.21429 X-0.02473
 A-3.21429 X-0.02496
 A-3.21429 X-0.02489
 A-3.21429 X-0.02447
 A-3.21429 X-0.02368
 A-3.21429 X-0.02248
 A-3.21429 X-0.02084
 A-3.21429 X-0.01874
 A-3.21429 X-0.01616
 A-3.21429 X-0.01314
 A-3.21429 X-0.00971
 A-3.21429 X-0.00596
 A-3.21429 X-0.00201
 G94
 ;End2 - End
 G01 X-0.00000 F140 ; E2 Toe Step



;N9109
; Quick Code Material Advance
G91
 G01 X-0.00100; Pierce Step
M16
 IF 50001
 M25 ; Raises Torch
 G00 X-0.30000 ; Quick Code Advance

 M30 ;End Of Program

