; Batch Name:                           2472 batch
; Batch Description:                    
; Round                                 1.050 x 0.133
; Create Date:                          5/4/2026 12:39:53 PM
; Created with Version:                 5.5.49.0
; Machine Strategy:                     MachineStrategy_3
; Process Strategy:                     1.901 Diam
; This batch includes the tube load routine
; Piece Summary: 
;   Stick=1
;     Stick_1_1_ms2023
;     Stick_1_2_ms2024
;     Stick_1_3_ms2022
;     Stick_1_4_ms2022
;   Stick=2
;     Stick_2_1_ms2025
;     Stick_2_2_ms2025
;     Stick_2_3_ms2019 
;     Stick_2_4_ms2020
;     Stick_2_5_ms2015
;     Stick_2_6_ms2015
;   Stick=3
;     Stick_3_1_ms2015
;     Stick_3_2_ms2016
;     Stick_3_3_ms2016
;     Stick_3_4_ms2016
G20 ; Imperial Units

G58
 T1
 G43 H1
G90
 M25 ; Torch Head Retract
 #29001 = 140
; Stick=1
;N9101
; Load Sequence
; Auto-Load Sequence
 M79
G90 
 G53 X-36.62  ; Load Position in Machine Coordinates
 G00 A0.00 ; Load Position-A
 M82 G04 P1.0
 M201 "Please Confirm the Material is Oriented Correctly. \n and then \n Press Cycle-Start."
G91 
 G01 X-6.0 F200.0; LoadStep-1
 M75
 G04 P1.0
 M69
 G01 X-7.0 F200.0; LoadStep-2
 M63
 G01 X-6.0 F200.0; LoadStep-3
 M10
G90;
 G00 A0.0
 G00 Y0.0 ; Burn Position
G91;


; Stick_1_1_ms2023
N93001
; Name:  ms2023
; Description: 1 sch 40
; Piece Type: Coped
; Material Diameter: 1.0500"   Wall Thickness: 0.1330"
; End-1 Joint Angle: 58.120  Join Diameter: 1.9000"
; Rotational Offset: 180   Length: 59.1875"
; End-2 Joint Angle: 58.120  Join Diameter: 1.9000"
 #300 = "ms2023" ; Assign Piece Name
#126=0 ; Init Bend Notch Counter
G90
 G00 Z[0.52500 + 0.08100]
 /M15
 G04 P0.01
 G00 Z0.52500
G91 
 ;End1 - Start
 G01 X-0.001 F140   ; Pierce Step
 G01 X-0.24381 F140 ; E1 Toe Step
 G01 G93.1 F140
 A5.62500 X0.02691
 A5.62500 X0.02458
 A5.62500 X0.02212
 A5.62500 X0.01961
 A5.62500 X0.01714
 A5.62500 X0.01477
 A5.62500 X0.01255
 A5.62500 X0.01050
 A5.62500 X0.00865
 A5.62500 X0.00700
 A5.62500 X0.00555
 A5.62500 X0.00427
 A5.62500 X0.00315
 A5.62500 X0.00216
 A5.62500 X0.00126
 A5.62500 X0.00041
 A5.62500 X-0.00041
 A5.62500 X-0.00126
 A5.62500 X-0.00216
 A5.62500 X-0.00315
 A5.62500 X-0.00427
 A5.62500 X-0.00555
 A5.62500 X-0.00700
 A5.62500 X-0.00865
 A5.62500 X-0.01050
 A5.62500 X-0.01255
 A5.62500 X-0.01477
 A5.62500 X-0.01714
 A5.62500 X-0.01961
 A5.62500 X-0.02212
 A5.62500 X-0.02458
 A5.62500 X-0.02691
 A5.62500 X-0.02902
 A5.62500 X-0.03081
 A5.62500 X-0.03220
 A5.62500 X-0.03311
 A5.62500 X-0.03348
 A5.62500 X-0.03326
 A5.62500 X-0.03243
 A5.62500 X-0.03099
 A5.62500 X-0.02896
 A5.62500 X-0.02636
 A5.62500 X-0.02324
 A5.62500 X-0.01967
 A5.62500 X-0.01571
 A5.62500 X-0.01145
 A5.62500 X-0.00696
 A5.62500 X-0.00233
 A5.62500 X0.00234
 A5.62500 X0.00696
 A5.62500 X0.01145
 A5.62500 X0.01571
 A5.62500 X0.01967
 A5.62500 X0.02324
 A5.62500 X0.02636
 A5.62500 X0.02896
 A5.62500 X0.03099
 A5.62500 X0.03243
 A5.62500 X0.03326
 A5.62500 X0.03348
 A5.62500 X0.03311
 A5.62500 X0.03220
 A5.62500 X0.03081
 A5.62500 X0.02902
 G94
 ;End1 - End

 G04 P0.01
M16
G91
 IF 50001
 G00 X0.00100 Z0.200; Reverse Pierce Step and Rapid Clearance Move
 G00 X-0.00100
 G00 X[-57.04828 + 0.00000]
 G00 A180.00000
 G00 X[0.133 * -0.4 * #126] ; Bend Notch Comp
G90
 G00 Y0.0 Z[0.52500 + 0.081]
/M15
 G04 P0.01
 G00 Z0.52500
G91
 G04 P0.01
 G01 X0.001 F140 ; Pierce Step
 G01 G93.1 F140
 ;End2 - Start
 A-5.62500 X0.02902
 A-5.62500 X0.03081
 A-5.62500 X0.03220
 A-5.62500 X0.03311
 A-5.62500 X0.03348
 A-5.62500 X0.03326
 A-5.62500 X0.03243
 A-5.62500 X0.03099
 A-5.62500 X0.02896
 A-5.62500 X0.02636
 A-5.62500 X0.02324
 A-5.62500 X0.01967
 A-5.62500 X0.01571
 A-5.62500 X0.01145
 A-5.62500 X0.00696
 A-5.62500 X0.00233
 A-5.62500 X-0.00234
 A-5.62500 X-0.00696
 A-5.62500 X-0.01145
 A-5.62500 X-0.01571
 A-5.62500 X-0.01967
 A-5.62500 X-0.02324
 A-5.62500 X-0.02636
 A-5.62500 X-0.02896
 A-5.62500 X-0.03099
 A-5.62500 X-0.03243
 A-5.62500 X-0.03326
 A-5.62500 X-0.03348
 A-5.62500 X-0.03311
 A-5.62500 X-0.03220
 A-5.62500 X-0.03081
 A-5.62500 X-0.02902
 A-5.62500 X-0.02691
 A-5.62500 X-0.02458
 A-5.62500 X-0.02212
 A-5.62500 X-0.01961
 A-5.62500 X-0.01714
 A-5.62500 X-0.01477
 A-5.62500 X-0.01255
 A-5.62500 X-0.01050
 A-5.62500 X-0.00865
 A-5.62500 X-0.00700
 A-5.62500 X-0.00555
 A-5.62500 X-0.00427
 A-5.62500 X-0.00315
 A-5.62500 X-0.00216
 A-5.62500 X-0.00126
 A-5.62500 X-0.00041
 A-5.62500 X0.00041
 A-5.62500 X0.00126
 A-5.62500 X0.00216
 A-5.62500 X0.00315
 A-5.62500 X0.00427
 A-5.62500 X0.00555
 A-5.62500 X0.00700
 A-5.62500 X0.00865
 A-5.62500 X0.01050
 A-5.62500 X0.01255
 A-5.62500 X0.01477
 A-5.62500 X0.01714
 A-5.62500 X0.01961
 A-5.62500 X0.02212
 A-5.62500 X0.02458
 A-5.62500 X0.02691
 G94
 ;End2 - End
 G01 X-0.24381 F140 ; E2 Toe Step



;N9102
;Between Piece Section
 G91 
 G01 X-0.100 F140
 M16 
 M200 "Mark Your Piece\n'%s'\nThen Press Cycle Start" #300
 ;G00 X-0.050
 ;G01 X-0.050 F140 ;Commented in all known cases
 G01 X-0.100 F140

; Stick_1_2_ms2024
N93002
; Name:  ms2024
; Description: 1 sch 40
; Piece Type: Coped
; Material Diameter: 1.0500"   Wall Thickness: 0.1330"
; End-1 Joint Angle: 58.120  Join Diameter: 1.9000"
; Rotational Offset: 180   Length: 59.1875"
; End-2 Joint Angle: 58.120  Join Diameter: 1.9000"
 #300 = "ms2024" ; Assign Piece Name
#126=0 ; Init Bend Notch Counter
G90
 G00 Z[0.52500 + 0.08100]
 /M15
 G04 P0.01
 G00 Z0.52500
G91 
 ;End1 - Start
 G01 X-0.001 F140   ; Pierce Step
 G01 X-0.24381 F140 ; E1 Toe Step
 G01 G93.1 F140
 A5.62500 X0.02691
 A5.62500 X0.02458
 A5.62500 X0.02212
 A5.62500 X0.01961
 A5.62500 X0.01714
 A5.62500 X0.01477
 A5.62500 X0.01255
 A5.62500 X0.01050
 A5.62500 X0.00865
 A5.62500 X0.00700
 A5.62500 X0.00555
 A5.62500 X0.00427
 A5.62500 X0.00315
 A5.62500 X0.00216
 A5.62500 X0.00126
 A5.62500 X0.00041
 A5.62500 X-0.00041
 A5.62500 X-0.00126
 A5.62500 X-0.00216
 A5.62500 X-0.00315
 A5.62500 X-0.00427
 A5.62500 X-0.00555
 A5.62500 X-0.00700
 A5.62500 X-0.00865
 A5.62500 X-0.01050
 A5.62500 X-0.01255
 A5.62500 X-0.01477
 A5.62500 X-0.01714
 A5.62500 X-0.01961
 A5.62500 X-0.02212
 A5.62500 X-0.02458
 A5.62500 X-0.02691
 A5.62500 X-0.02902
 A5.62500 X-0.03081
 A5.62500 X-0.03220
 A5.62500 X-0.03311
 A5.62500 X-0.03348
 A5.62500 X-0.03326
 A5.62500 X-0.03243
 A5.62500 X-0.03099
 A5.62500 X-0.02896
 A5.62500 X-0.02636
 A5.62500 X-0.02324
 A5.62500 X-0.01967
 A5.62500 X-0.01571
 A5.62500 X-0.01145
 A5.62500 X-0.00696
 A5.62500 X-0.00233
 A5.62500 X0.00234
 A5.62500 X0.00696
 A5.62500 X0.01145
 A5.62500 X0.01571
 A5.62500 X0.01967
 A5.62500 X0.02324
 A5.62500 X0.02636
 A5.62500 X0.02896
 A5.62500 X0.03099
 A5.62500 X0.03243
 A5.62500 X0.03326
 A5.62500 X0.03348
 A5.62500 X0.03311
 A5.62500 X0.03220
 A5.62500 X0.03081
 A5.62500 X0.02902
 G94
 ;End1 - End

 G04 P0.01
M16
G91
 IF 50001
 G00 X0.00100 Z0.200; Reverse Pierce Step and Rapid Clearance Move
 G00 X-0.00100
 G00 X[-57.04828 + 0.00000]
 G00 A180.00000
 G00 X[0.133 * -0.4 * #126] ; Bend Notch Comp
G90
 G00 Y0.0 Z[0.52500 + 0.081]
/M15
 G04 P0.01
 G00 Z0.52500
G91
 G04 P0.01
 G01 X0.001 F140 ; Pierce Step
 G01 G93.1 F140
 ;End2 - Start
 A-5.62500 X0.02902
 A-5.62500 X0.03081
 A-5.62500 X0.03220
 A-5.62500 X0.03311
 A-5.62500 X0.03348
 A-5.62500 X0.03326
 A-5.62500 X0.03243
 A-5.62500 X0.03099
 A-5.62500 X0.02896
 A-5.62500 X0.02636
 A-5.62500 X0.02324
 A-5.62500 X0.01967
 A-5.62500 X0.01571
 A-5.62500 X0.01145
 A-5.62500 X0.00696
 A-5.62500 X0.00233
 A-5.62500 X-0.00234
 A-5.62500 X-0.00696
 A-5.62500 X-0.01145
 A-5.62500 X-0.01571
 A-5.62500 X-0.01967
 A-5.62500 X-0.02324
 A-5.62500 X-0.02636
 A-5.62500 X-0.02896
 A-5.62500 X-0.03099
 A-5.62500 X-0.03243
 A-5.62500 X-0.03326
 A-5.62500 X-0.03348
 A-5.62500 X-0.03311
 A-5.62500 X-0.03220
 A-5.62500 X-0.03081
 A-5.62500 X-0.02902
 A-5.62500 X-0.02691
 A-5.62500 X-0.02458
 A-5.62500 X-0.02212
 A-5.62500 X-0.01961
 A-5.62500 X-0.01714
 A-5.62500 X-0.01477
 A-5.62500 X-0.01255
 A-5.62500 X-0.01050
 A-5.62500 X-0.00865
 A-5.62500 X-0.00700
 A-5.62500 X-0.00555
 A-5.62500 X-0.00427
 A-5.62500 X-0.00315
 A-5.62500 X-0.00216
 A-5.62500 X-0.00126
 A-5.62500 X-0.00041
 A-5.62500 X0.00041
 A-5.62500 X0.00126
 A-5.62500 X0.00216
 A-5.62500 X0.00315
 A-5.62500 X0.00427
 A-5.62500 X0.00555
 A-5.62500 X0.00700
 A-5.62500 X0.00865
 A-5.62500 X0.01050
 A-5.62500 X0.01255
 A-5.62500 X0.01477
 A-5.62500 X0.01714
 A-5.62500 X0.01961
 A-5.62500 X0.02212
 A-5.62500 X0.02458
 A-5.62500 X0.02691
 G94
 ;End2 - End
 G01 X-0.24381 F140 ; E2 Toe Step



;N9102
;Between Piece Section
 G91 
 G01 X-0.100 F140
 M16 
 M200 "Mark Your Piece\n'%s'\nThen Press Cycle Start" #300
 ;G00 X-0.050
 ;G01 X-0.050 F140 ;Commented in all known cases
 G01 X-0.100 F140

; Stick_1_3_ms2022
N93003
; Name:  ms2022
; Description: 1 sch 40
; Piece Type: Coped
; Material Diameter: 1.0500"   Wall Thickness: 0.1330"
; End-1 Joint Angle: 58.120  Join Diameter: 1.9000"
; Rotational Offset: 180   Length: 52.4375"
; End-2 Joint Angle: 58.120  Join Diameter: 1.9000"
 #300 = "ms2022" ; Assign Piece Name
#126=0 ; Init Bend Notch Counter
G90
 G00 Z[0.52500 + 0.08100]
 /M15
 G04 P0.01
 G00 Z0.52500
G91 
 ;End1 - Start
 G01 X-0.001 F140   ; Pierce Step
 G01 X-0.24381 F140 ; E1 Toe Step
 G01 G93.1 F140
 A5.62500 X0.02691
 A5.62500 X0.02458
 A5.62500 X0.02212
 A5.62500 X0.01961
 A5.62500 X0.01714
 A5.62500 X0.01477
 A5.62500 X0.01255
 A5.62500 X0.01050
 A5.62500 X0.00865
 A5.62500 X0.00700
 A5.62500 X0.00555
 A5.62500 X0.00427
 A5.62500 X0.00315
 A5.62500 X0.00216
 A5.62500 X0.00126
 A5.62500 X0.00041
 A5.62500 X-0.00041
 A5.62500 X-0.00126
 A5.62500 X-0.00216
 A5.62500 X-0.00315
 A5.62500 X-0.00427
 A5.62500 X-0.00555
 A5.62500 X-0.00700
 A5.62500 X-0.00865
 A5.62500 X-0.01050
 A5.62500 X-0.01255
 A5.62500 X-0.01477
 A5.62500 X-0.01714
 A5.62500 X-0.01961
 A5.62500 X-0.02212
 A5.62500 X-0.02458
 A5.62500 X-0.02691
 A5.62500 X-0.02902
 A5.62500 X-0.03081
 A5.62500 X-0.03220
 A5.62500 X-0.03311
 A5.62500 X-0.03348
 A5.62500 X-0.03326
 A5.62500 X-0.03243
 A5.62500 X-0.03099
 A5.62500 X-0.02896
 A5.62500 X-0.02636
 A5.62500 X-0.02324
 A5.62500 X-0.01967
 A5.62500 X-0.01571
 A5.62500 X-0.01145
 A5.62500 X-0.00696
 A5.62500 X-0.00233
 A5.62500 X0.00234
 A5.62500 X0.00696
 A5.62500 X0.01145
 A5.62500 X0.01571
 A5.62500 X0.01967
 A5.62500 X0.02324
 A5.62500 X0.02636
 A5.62500 X0.02896
 A5.62500 X0.03099
 A5.62500 X0.03243
 A5.62500 X0.03326
 A5.62500 X0.03348
 A5.62500 X0.03311
 A5.62500 X0.03220
 A5.62500 X0.03081
 A5.62500 X0.02902
 G94
 ;End1 - End

 G04 P0.01
M16
G91
 IF 50001
 G00 X0.00100 Z0.200; Reverse Pierce Step and Rapid Clearance Move
 G00 X-0.00100
 G00 X[-50.29828 + 0.00000]
 G00 A180.00000
 G00 X[0.133 * -0.4 * #126] ; Bend Notch Comp
G90
 G00 Y0.0 Z[0.52500 + 0.081]
/M15
 G04 P0.01
 G00 Z0.52500
G91
 G04 P0.01
 G01 X0.001 F140 ; Pierce Step
 G01 G93.1 F140
 ;End2 - Start
 A-5.62500 X0.02902
 A-5.62500 X0.03081
 A-5.62500 X0.03220
 A-5.62500 X0.03311
 A-5.62500 X0.03348
 A-5.62500 X0.03326
 A-5.62500 X0.03243
 A-5.62500 X0.03099
 A-5.62500 X0.02896
 A-5.62500 X0.02636
 A-5.62500 X0.02324
 A-5.62500 X0.01967
 A-5.62500 X0.01571
 A-5.62500 X0.01145
 A-5.62500 X0.00696
 A-5.62500 X0.00233
 A-5.62500 X-0.00234
 A-5.62500 X-0.00696
 A-5.62500 X-0.01145
 A-5.62500 X-0.01571
 A-5.62500 X-0.01967
 A-5.62500 X-0.02324
 A-5.62500 X-0.02636
 A-5.62500 X-0.02896
 A-5.62500 X-0.03099
 A-5.62500 X-0.03243
 A-5.62500 X-0.03326
 A-5.62500 X-0.03348
 A-5.62500 X-0.03311
 A-5.62500 X-0.03220
 A-5.62500 X-0.03081
 A-5.62500 X-0.02902
 A-5.62500 X-0.02691
 A-5.62500 X-0.02458
 A-5.62500 X-0.02212
 A-5.62500 X-0.01961
 A-5.62500 X-0.01714
 A-5.62500 X-0.01477
 A-5.62500 X-0.01255
 A-5.62500 X-0.01050
 A-5.62500 X-0.00865
 A-5.62500 X-0.00700
 A-5.62500 X-0.00555
 A-5.62500 X-0.00427
 A-5.62500 X-0.00315
 A-5.62500 X-0.00216
 A-5.62500 X-0.00126
 A-5.62500 X-0.00041
 A-5.62500 X0.00041
 A-5.62500 X0.00126
 A-5.62500 X0.00216
 A-5.62500 X0.00315
 A-5.62500 X0.00427
 A-5.62500 X0.00555
 A-5.62500 X0.00700
 A-5.62500 X0.00865
 A-5.62500 X0.01050
 A-5.62500 X0.01255
 A-5.62500 X0.01477
 A-5.62500 X0.01714
 A-5.62500 X0.01961
 A-5.62500 X0.02212
 A-5.62500 X0.02458
 A-5.62500 X0.02691
 G94
 ;End2 - End
 G01 X-0.24381 F140 ; E2 Toe Step



;N9102
;Between Piece Section
 G91 
 G01 X-0.100 F140
 M16 
 M200 "Mark Your Piece\n'%s'\nThen Press Cycle Start" #300
 ;G00 X-0.050
 ;G01 X-0.050 F140 ;Commented in all known cases
 G01 X-0.100 F140

; Stick_1_4_ms2022
N93004
; Name:  ms2022
; Description: 1 sch 40
; Piece Type: Coped
; Material Diameter: 1.0500"   Wall Thickness: 0.1330"
; End-1 Joint Angle: 58.120  Join Diameter: 1.9000"
; Rotational Offset: 180   Length: 52.4375"
; End-2 Joint Angle: 58.120  Join Diameter: 1.9000"
 #300 = "ms2022" ; Assign Piece Name
#126=0 ; Init Bend Notch Counter
G90
 G00 Z[0.52500 + 0.08100]
 /M15
 G04 P0.01
 G00 Z0.52500
G91 
 ;End1 - Start
 G01 X-0.001 F140   ; Pierce Step
 G01 X-0.24381 F140 ; E1 Toe Step
 G01 G93.1 F140
 A5.62500 X0.02691
 A5.62500 X0.02458
 A5.62500 X0.02212
 A5.62500 X0.01961
 A5.62500 X0.01714
 A5.62500 X0.01477
 A5.62500 X0.01255
 A5.62500 X0.01050
 A5.62500 X0.00865
 A5.62500 X0.00700
 A5.62500 X0.00555
 A5.62500 X0.00427
 A5.62500 X0.00315
 A5.62500 X0.00216
 A5.62500 X0.00126
 A5.62500 X0.00041
 A5.62500 X-0.00041
 A5.62500 X-0.00126
 A5.62500 X-0.00216
 A5.62500 X-0.00315
 A5.62500 X-0.00427
 A5.62500 X-0.00555
 A5.62500 X-0.00700
 A5.62500 X-0.00865
 A5.62500 X-0.01050
 A5.62500 X-0.01255
 A5.62500 X-0.01477
 A5.62500 X-0.01714
 A5.62500 X-0.01961
 A5.62500 X-0.02212
 A5.62500 X-0.02458
 A5.62500 X-0.02691
 A5.62500 X-0.02902
 A5.62500 X-0.03081
 A5.62500 X-0.03220
 A5.62500 X-0.03311
 A5.62500 X-0.03348
 A5.62500 X-0.03326
 A5.62500 X-0.03243
 A5.62500 X-0.03099
 A5.62500 X-0.02896
 A5.62500 X-0.02636
 A5.62500 X-0.02324
 A5.62500 X-0.01967
 A5.62500 X-0.01571
 A5.62500 X-0.01145
 A5.62500 X-0.00696
 A5.62500 X-0.00233
 A5.62500 X0.00234
 A5.62500 X0.00696
 A5.62500 X0.01145
 A5.62500 X0.01571
 A5.62500 X0.01967
 A5.62500 X0.02324
 A5.62500 X0.02636
 A5.62500 X0.02896
 A5.62500 X0.03099
 A5.62500 X0.03243
 A5.62500 X0.03326
 A5.62500 X0.03348
 A5.62500 X0.03311
 A5.62500 X0.03220
 A5.62500 X0.03081
 A5.62500 X0.02902
 G94
 ;End1 - End

 G04 P0.01
M16
G91
 IF 50001
 G00 X0.00100 Z0.200; Reverse Pierce Step and Rapid Clearance Move
 G00 X-0.00100
 G00 X[-50.29828 + 0.00000]
 G00 A180.00000
 G00 X[0.133 * -0.4 * #126] ; Bend Notch Comp
G90
 G00 Y0.0 Z[0.52500 + 0.081]
/M15
 G04 P0.01
 G00 Z0.52500
G91
 G04 P0.01
 G01 X0.001 F140 ; Pierce Step
 G01 G93.1 F140
 ;End2 - Start
 A-5.62500 X0.02902
 A-5.62500 X0.03081
 A-5.62500 X0.03220
 A-5.62500 X0.03311
 A-5.62500 X0.03348
 A-5.62500 X0.03326
 A-5.62500 X0.03243
 A-5.62500 X0.03099
 A-5.62500 X0.02896
 A-5.62500 X0.02636
 A-5.62500 X0.02324
 A-5.62500 X0.01967
 A-5.62500 X0.01571
 A-5.62500 X0.01145
 A-5.62500 X0.00696
 A-5.62500 X0.00233
 A-5.62500 X-0.00234
 A-5.62500 X-0.00696
 A-5.62500 X-0.01145
 A-5.62500 X-0.01571
 A-5.62500 X-0.01967
 A-5.62500 X-0.02324
 A-5.62500 X-0.02636
 A-5.62500 X-0.02896
 A-5.62500 X-0.03099
 A-5.62500 X-0.03243
 A-5.62500 X-0.03326
 A-5.62500 X-0.03348
 A-5.62500 X-0.03311
 A-5.62500 X-0.03220
 A-5.62500 X-0.03081
 A-5.62500 X-0.02902
 A-5.62500 X-0.02691
 A-5.62500 X-0.02458
 A-5.62500 X-0.02212
 A-5.62500 X-0.01961
 A-5.62500 X-0.01714
 A-5.62500 X-0.01477
 A-5.62500 X-0.01255
 A-5.62500 X-0.01050
 A-5.62500 X-0.00865
 A-5.62500 X-0.00700
 A-5.62500 X-0.00555
 A-5.62500 X-0.00427
 A-5.62500 X-0.00315
 A-5.62500 X-0.00216
 A-5.62500 X-0.00126
 A-5.62500 X-0.00041
 A-5.62500 X0.00041
 A-5.62500 X0.00126
 A-5.62500 X0.00216
 A-5.62500 X0.00315
 A-5.62500 X0.00427
 A-5.62500 X0.00555
 A-5.62500 X0.00700
 A-5.62500 X0.00865
 A-5.62500 X0.01050
 A-5.62500 X0.01255
 A-5.62500 X0.01477
 A-5.62500 X0.01714
 A-5.62500 X0.01961
 A-5.62500 X0.02212
 A-5.62500 X0.02458
 A-5.62500 X0.02691
 G94
 ;End2 - End
 G01 X-0.24381 F140 ; E2 Toe Step



;N9103
;End Of Sequence Manual Unload
 G91
 M16 
 M200 "Mark Your Piece\n'%s'\nThen Press Cycle Start" #300
 G01 X-0.001; Pierce Step
 M16
 IF 50001
 M25 ; Raises Torch
 M11
 M201 "Open the Jaws And Remove the Scrap\n Press Cycle Start To Continue"



; Stick=2
;N9101
; Load Sequence
; Auto-Load Sequence
 M79
G90 
 G53 X-36.62  ; Load Position in Machine Coordinates
 G00 A0.00 ; Load Position-A
 M82 G04 P1.0
 M201 "Please Confirm the Material is Oriented Correctly. \n and then \n Press Cycle-Start."
G91 
 G01 X-6.0 F200.0; LoadStep-1
 M75
 G04 P1.0
 M69
 G01 X-7.0 F200.0; LoadStep-2
 M63
 G01 X-6.0 F200.0; LoadStep-3
 M10
G90;
 G00 A0.0
 G00 Y0.0 ; Burn Position
G91;


; Stick_2_1_ms2025
N93005
; Name:  ms2025
; Description: 1 sch 40
; Piece Type: Coped
; Material Diameter: 1.0500"   Wall Thickness: 0.1330"
; End-1 Joint Angle: 58.120  Join Diameter: 1.9000"
; Rotational Offset: 180   Length: 52.4375"
; End-2 Joint Angle: 58.120  Join Diameter: 1.9000"
 #300 = "ms2025" ; Assign Piece Name
#126=0 ; Init Bend Notch Counter
G90
 G00 Z[0.52500 + 0.08100]
 /M15
 G04 P0.01
 G00 Z0.52500
G91 
 ;End1 - Start
 G01 X-0.001 F140   ; Pierce Step
 G01 X-0.24381 F140 ; E1 Toe Step
 G01 G93.1 F140
 A5.62500 X0.02691
 A5.62500 X0.02458
 A5.62500 X0.02212
 A5.62500 X0.01961
 A5.62500 X0.01714
 A5.62500 X0.01477
 A5.62500 X0.01255
 A5.62500 X0.01050
 A5.62500 X0.00865
 A5.62500 X0.00700
 A5.62500 X0.00555
 A5.62500 X0.00427
 A5.62500 X0.00315
 A5.62500 X0.00216
 A5.62500 X0.00126
 A5.62500 X0.00041
 A5.62500 X-0.00041
 A5.62500 X-0.00126
 A5.62500 X-0.00216
 A5.62500 X-0.00315
 A5.62500 X-0.00427
 A5.62500 X-0.00555
 A5.62500 X-0.00700
 A5.62500 X-0.00865
 A5.62500 X-0.01050
 A5.62500 X-0.01255
 A5.62500 X-0.01477
 A5.62500 X-0.01714
 A5.62500 X-0.01961
 A5.62500 X-0.02212
 A5.62500 X-0.02458
 A5.62500 X-0.02691
 A5.62500 X-0.02902
 A5.62500 X-0.03081
 A5.62500 X-0.03220
 A5.62500 X-0.03311
 A5.62500 X-0.03348
 A5.62500 X-0.03326
 A5.62500 X-0.03243
 A5.62500 X-0.03099
 A5.62500 X-0.02896
 A5.62500 X-0.02636
 A5.62500 X-0.02324
 A5.62500 X-0.01967
 A5.62500 X-0.01571
 A5.62500 X-0.01145
 A5.62500 X-0.00696
 A5.62500 X-0.00233
 A5.62500 X0.00234
 A5.62500 X0.00696
 A5.62500 X0.01145
 A5.62500 X0.01571
 A5.62500 X0.01967
 A5.62500 X0.02324
 A5.62500 X0.02636
 A5.62500 X0.02896
 A5.62500 X0.03099
 A5.62500 X0.03243
 A5.62500 X0.03326
 A5.62500 X0.03348
 A5.62500 X0.03311
 A5.62500 X0.03220
 A5.62500 X0.03081
 A5.62500 X0.02902
 G94
 ;End1 - End

 G04 P0.01
M16
G91
 IF 50001
 G00 X0.00100 Z0.200; Reverse Pierce Step and Rapid Clearance Move
 G00 X-0.00100
 G00 X[-50.29828 + 0.00000]
 G00 A180.00000
 G00 X[0.133 * -0.4 * #126] ; Bend Notch Comp
G90
 G00 Y0.0 Z[0.52500 + 0.081]
/M15
 G04 P0.01
 G00 Z0.52500
G91
 G04 P0.01
 G01 X0.001 F140 ; Pierce Step
 G01 G93.1 F140
 ;End2 - Start
 A-5.62500 X0.02902
 A-5.62500 X0.03081
 A-5.62500 X0.03220
 A-5.62500 X0.03311
 A-5.62500 X0.03348
 A-5.62500 X0.03326
 A-5.62500 X0.03243
 A-5.62500 X0.03099
 A-5.62500 X0.02896
 A-5.62500 X0.02636
 A-5.62500 X0.02324
 A-5.62500 X0.01967
 A-5.62500 X0.01571
 A-5.62500 X0.01145
 A-5.62500 X0.00696
 A-5.62500 X0.00233
 A-5.62500 X-0.00234
 A-5.62500 X-0.00696
 A-5.62500 X-0.01145
 A-5.62500 X-0.01571
 A-5.62500 X-0.01967
 A-5.62500 X-0.02324
 A-5.62500 X-0.02636
 A-5.62500 X-0.02896
 A-5.62500 X-0.03099
 A-5.62500 X-0.03243
 A-5.62500 X-0.03326
 A-5.62500 X-0.03348
 A-5.62500 X-0.03311
 A-5.62500 X-0.03220
 A-5.62500 X-0.03081
 A-5.62500 X-0.02902
 A-5.62500 X-0.02691
 A-5.62500 X-0.02458
 A-5.62500 X-0.02212
 A-5.62500 X-0.01961
 A-5.62500 X-0.01714
 A-5.62500 X-0.01477
 A-5.62500 X-0.01255
 A-5.62500 X-0.01050
 A-5.62500 X-0.00865
 A-5.62500 X-0.00700
 A-5.62500 X-0.00555
 A-5.62500 X-0.00427
 A-5.62500 X-0.00315
 A-5.62500 X-0.00216
 A-5.62500 X-0.00126
 A-5.62500 X-0.00041
 A-5.62500 X0.00041
 A-5.62500 X0.00126
 A-5.62500 X0.00216
 A-5.62500 X0.00315
 A-5.62500 X0.00427
 A-5.62500 X0.00555
 A-5.62500 X0.00700
 A-5.62500 X0.00865
 A-5.62500 X0.01050
 A-5.62500 X0.01255
 A-5.62500 X0.01477
 A-5.62500 X0.01714
 A-5.62500 X0.01961
 A-5.62500 X0.02212
 A-5.62500 X0.02458
 A-5.62500 X0.02691
 G94
 ;End2 - End
 G01 X-0.24381 F140 ; E2 Toe Step



;N9102
;Between Piece Section
 G91 
 G01 X-0.100 F140
 M16 
 M200 "Mark Your Piece\n'%s'\nThen Press Cycle Start" #300
 ;G00 X-0.050
 ;G01 X-0.050 F140 ;Commented in all known cases
 G01 X-0.100 F140

; Stick_2_2_ms2025
N93006
; Name:  ms2025
; Description: 1 sch 40
; Piece Type: Coped
; Material Diameter: 1.0500"   Wall Thickness: 0.1330"
; End-1 Joint Angle: 58.120  Join Diameter: 1.9000"
; Rotational Offset: 180   Length: 52.4375"
; End-2 Joint Angle: 58.120  Join Diameter: 1.9000"
 #300 = "ms2025" ; Assign Piece Name
#126=0 ; Init Bend Notch Counter
G90
 G00 Z[0.52500 + 0.08100]
 /M15
 G04 P0.01
 G00 Z0.52500
G91 
 ;End1 - Start
 G01 X-0.001 F140   ; Pierce Step
 G01 X-0.24381 F140 ; E1 Toe Step
 G01 G93.1 F140
 A5.62500 X0.02691
 A5.62500 X0.02458
 A5.62500 X0.02212
 A5.62500 X0.01961
 A5.62500 X0.01714
 A5.62500 X0.01477
 A5.62500 X0.01255
 A5.62500 X0.01050
 A5.62500 X0.00865
 A5.62500 X0.00700
 A5.62500 X0.00555
 A5.62500 X0.00427
 A5.62500 X0.00315
 A5.62500 X0.00216
 A5.62500 X0.00126
 A5.62500 X0.00041
 A5.62500 X-0.00041
 A5.62500 X-0.00126
 A5.62500 X-0.00216
 A5.62500 X-0.00315
 A5.62500 X-0.00427
 A5.62500 X-0.00555
 A5.62500 X-0.00700
 A5.62500 X-0.00865
 A5.62500 X-0.01050
 A5.62500 X-0.01255
 A5.62500 X-0.01477
 A5.62500 X-0.01714
 A5.62500 X-0.01961
 A5.62500 X-0.02212
 A5.62500 X-0.02458
 A5.62500 X-0.02691
 A5.62500 X-0.02902
 A5.62500 X-0.03081
 A5.62500 X-0.03220
 A5.62500 X-0.03311
 A5.62500 X-0.03348
 A5.62500 X-0.03326
 A5.62500 X-0.03243
 A5.62500 X-0.03099
 A5.62500 X-0.02896
 A5.62500 X-0.02636
 A5.62500 X-0.02324
 A5.62500 X-0.01967
 A5.62500 X-0.01571
 A5.62500 X-0.01145
 A5.62500 X-0.00696
 A5.62500 X-0.00233
 A5.62500 X0.00234
 A5.62500 X0.00696
 A5.62500 X0.01145
 A5.62500 X0.01571
 A5.62500 X0.01967
 A5.62500 X0.02324
 A5.62500 X0.02636
 A5.62500 X0.02896
 A5.62500 X0.03099
 A5.62500 X0.03243
 A5.62500 X0.03326
 A5.62500 X0.03348
 A5.62500 X0.03311
 A5.62500 X0.03220
 A5.62500 X0.03081
 A5.62500 X0.02902
 G94
 ;End1 - End

 G04 P0.01
M16
G91
 IF 50001
 G00 X0.00100 Z0.200; Reverse Pierce Step and Rapid Clearance Move
 G00 X-0.00100
 G00 X[-50.29828 + 0.00000]
 G00 A180.00000
 G00 X[0.133 * -0.4 * #126] ; Bend Notch Comp
G90
 G00 Y0.0 Z[0.52500 + 0.081]
/M15
 G04 P0.01
 G00 Z0.52500
G91
 G04 P0.01
 G01 X0.001 F140 ; Pierce Step
 G01 G93.1 F140
 ;End2 - Start
 A-5.62500 X0.02902
 A-5.62500 X0.03081
 A-5.62500 X0.03220
 A-5.62500 X0.03311
 A-5.62500 X0.03348
 A-5.62500 X0.03326
 A-5.62500 X0.03243
 A-5.62500 X0.03099
 A-5.62500 X0.02896
 A-5.62500 X0.02636
 A-5.62500 X0.02324
 A-5.62500 X0.01967
 A-5.62500 X0.01571
 A-5.62500 X0.01145
 A-5.62500 X0.00696
 A-5.62500 X0.00233
 A-5.62500 X-0.00234
 A-5.62500 X-0.00696
 A-5.62500 X-0.01145
 A-5.62500 X-0.01571
 A-5.62500 X-0.01967
 A-5.62500 X-0.02324
 A-5.62500 X-0.02636
 A-5.62500 X-0.02896
 A-5.62500 X-0.03099
 A-5.62500 X-0.03243
 A-5.62500 X-0.03326
 A-5.62500 X-0.03348
 A-5.62500 X-0.03311
 A-5.62500 X-0.03220
 A-5.62500 X-0.03081
 A-5.62500 X-0.02902
 A-5.62500 X-0.02691
 A-5.62500 X-0.02458
 A-5.62500 X-0.02212
 A-5.62500 X-0.01961
 A-5.62500 X-0.01714
 A-5.62500 X-0.01477
 A-5.62500 X-0.01255
 A-5.62500 X-0.01050
 A-5.62500 X-0.00865
 A-5.62500 X-0.00700
 A-5.62500 X-0.00555
 A-5.62500 X-0.00427
 A-5.62500 X-0.00315
 A-5.62500 X-0.00216
 A-5.62500 X-0.00126
 A-5.62500 X-0.00041
 A-5.62500 X0.00041
 A-5.62500 X0.00126
 A-5.62500 X0.00216
 A-5.62500 X0.00315
 A-5.62500 X0.00427
 A-5.62500 X0.00555
 A-5.62500 X0.00700
 A-5.62500 X0.00865
 A-5.62500 X0.01050
 A-5.62500 X0.01255
 A-5.62500 X0.01477
 A-5.62500 X0.01714
 A-5.62500 X0.01961
 A-5.62500 X0.02212
 A-5.62500 X0.02458
 A-5.62500 X0.02691
 G94
 ;End2 - End
 G01 X-0.24381 F140 ; E2 Toe Step



;N9102
;Between Piece Section
 G91 
 G01 X-0.100 F140
 M16 
 M200 "Mark Your Piece\n'%s'\nThen Press Cycle Start" #300
 ;G00 X-0.050
 ;G01 X-0.050 F140 ;Commented in all known cases
 G01 X-0.100 F140

; Stick_2_3_ms2019 
N93007
; Name:  ms2019 
; Description: 1 sch 40
; Piece Type: Coped
; Material Diameter: 1.0500"   Wall Thickness: 0.1330"
; End-1 Joint Angle: 90.000  Join Diameter: 1.9000"
; Rotational Offset: 0   Length: 38.6250"
; End-2 Joint Angle: 90.000  Join Diameter: 1.9000"
 #300 = "ms2019 " ; Assign Piece Name
#126=0 ; Init Bend Notch Counter
G90
 G00 Z[0.52500 + 0.08100]
 /M15
 G04 P0.01
 G00 Z0.52500
G91 
 ;End1 - Start
 G01 X-0.001 F140   ; Pierce Step
 G01 X-0.00000 F140 ; E1 Toe Step
 G01 G93.1 F140
 A5.62500 X-0.00084
 A5.62500 X-0.00251
 A5.62500 X-0.00407
 A5.62500 X-0.00545
 A5.62500 X-0.00660
 A5.62500 X-0.00747
 A5.62500 X-0.00803
 A5.62500 X-0.00828
 A5.62500 X-0.00821
 A5.62500 X-0.00782
 A5.62500 X-0.00715
 A5.62500 X-0.00622
 A5.62500 X-0.00508
 A5.62500 X-0.00375
 A5.62500 X-0.00230
 A5.62500 X-0.00078
 A5.62500 X0.00078
 A5.62500 X0.00230
 A5.62500 X0.00375
 A5.62500 X0.00508
 A5.62500 X0.00622
 A5.62500 X0.00715
 A5.62500 X0.00782
 A5.62500 X0.00821
 A5.62500 X0.00828
 A5.62500 X0.00803
 A5.62500 X0.00747
 A5.62500 X0.00660
 A5.62500 X0.00545
 A5.62500 X0.00407
 A5.62500 X0.00251
 A5.62500 X0.00084
 A5.62500 X-0.00086
 A5.62500 X-0.00253
 A5.62500 X-0.00408
 A5.62500 X-0.00546
 A5.62500 X-0.00661
 A5.62500 X-0.00748
 A5.62500 X-0.00805
 A5.62500 X-0.00829
 A5.62500 X-0.00822
 A5.62500 X-0.00783
 A5.62500 X-0.00716
 A5.62500 X-0.00623
 A5.62500 X-0.00508
 A5.62500 X-0.00376
 A5.62500 X-0.00231
 A5.62500 X-0.00078
 A5.62500 X0.00078
 A5.62500 X0.00231
 A5.62500 X0.00376
 A5.62500 X0.00508
 A5.62500 X0.00623
 A5.62500 X0.00716
 A5.62500 X0.00783
 A5.62500 X0.00822
 A5.62500 X0.00829
 A5.62500 X0.00805
 A5.62500 X0.00748
 A5.62500 X0.00661
 A5.62500 X0.00546
 A5.62500 X0.00408
 A5.62500 X0.00253
 A5.62500 X0.00086
 G94
 ;End1 - End

 G04 P0.01
M16
G91
 IF 50001
 G00 X0.00100 Z0.200; Reverse Pierce Step and Rapid Clearance Move
 G00 X-0.00100
 G00 X[-36.89529 + 0.00000]
 G00 A0.00000
 G00 X[0.133 * -0.4 * #126] ; Bend Notch Comp
G90
 G00 Y0.0 Z[0.52500 + 0.081]
/M15
 G04 P0.01
 G00 Z0.52500
G91
 G04 P0.01
 G01 X0.001 F140 ; Pierce Step
 G01 G93.1 F140
 ;End2 - Start
 A-5.62500 X0.00086
 A-5.62500 X0.00253
 A-5.62500 X0.00408
 A-5.62500 X0.00546
 A-5.62500 X0.00661
 A-5.62500 X0.00748
 A-5.62500 X0.00805
 A-5.62500 X0.00829
 A-5.62500 X0.00822
 A-5.62500 X0.00783
 A-5.62500 X0.00716
 A-5.62500 X0.00623
 A-5.62500 X0.00508
 A-5.62500 X0.00376
 A-5.62500 X0.00231
 A-5.62500 X0.00078
 A-5.62500 X-0.00078
 A-5.62500 X-0.00231
 A-5.62500 X-0.00376
 A-5.62500 X-0.00508
 A-5.62500 X-0.00623
 A-5.62500 X-0.00716
 A-5.62500 X-0.00783
 A-5.62500 X-0.00822
 A-5.62500 X-0.00829
 A-5.62500 X-0.00805
 A-5.62500 X-0.00748
 A-5.62500 X-0.00661
 A-5.62500 X-0.00546
 A-5.62500 X-0.00408
 A-5.62500 X-0.00253
 A-5.62500 X-0.00086
 A-5.62500 X0.00084
 A-5.62500 X0.00251
 A-5.62500 X0.00407
 A-5.62500 X0.00545
 A-5.62500 X0.00660
 A-5.62500 X0.00747
 A-5.62500 X0.00803
 A-5.62500 X0.00828
 A-5.62500 X0.00821
 A-5.62500 X0.00782
 A-5.62500 X0.00715
 A-5.62500 X0.00622
 A-5.62500 X0.00508
 A-5.62500 X0.00375
 A-5.62500 X0.00230
 A-5.62500 X0.00078
 A-5.62500 X-0.00078
 A-5.62500 X-0.00230
 A-5.62500 X-0.00375
 A-5.62500 X-0.00508
 A-5.62500 X-0.00622
 A-5.62500 X-0.00715
 A-5.62500 X-0.00782
 A-5.62500 X-0.00821
 A-5.62500 X-0.00828
 A-5.62500 X-0.00803
 A-5.62500 X-0.00747
 A-5.62500 X-0.00660
 A-5.62500 X-0.00545
 A-5.62500 X-0.00407
 A-5.62500 X-0.00251
 A-5.62500 X-0.00084
 G94
 ;End2 - End
 G01 X-0.00000 F140 ; E2 Toe Step



;N9102
;Between Piece Section
 G91 
 G01 X-0.100 F140
 M16 
 M200 "Mark Your Piece\n'%s'\nThen Press Cycle Start" #300
 ;G00 X-0.050
 ;G01 X-0.050 F140 ;Commented in all known cases
 G01 X-0.100 F140

; Stick_2_4_ms2020
N93008
; Name:  ms2020
; Description: 1 sch 40
; Piece Type: Coped
; Material Diameter: 1.0500"   Wall Thickness: 0.1330"
; End-1 Joint Angle: 90.000  Join Diameter: 1.9000"
; Rotational Offset: 0   Length: 38.6250"
; End-2 Joint Angle: 90.000  Join Diameter: 1.9000"
 #300 = "ms2020" ; Assign Piece Name
#126=0 ; Init Bend Notch Counter
G90
 G00 Z[0.52500 + 0.08100]
 /M15
 G04 P0.01
 G00 Z0.52500
G91 
 ;End1 - Start
 G01 X-0.001 F140   ; Pierce Step
 G01 X-0.00000 F140 ; E1 Toe Step
 G01 G93.1 F140
 A5.62500 X-0.00084
 A5.62500 X-0.00251
 A5.62500 X-0.00407
 A5.62500 X-0.00545
 A5.62500 X-0.00660
 A5.62500 X-0.00747
 A5.62500 X-0.00803
 A5.62500 X-0.00828
 A5.62500 X-0.00821
 A5.62500 X-0.00782
 A5.62500 X-0.00715
 A5.62500 X-0.00622
 A5.62500 X-0.00508
 A5.62500 X-0.00375
 A5.62500 X-0.00230
 A5.62500 X-0.00078
 A5.62500 X0.00078
 A5.62500 X0.00230
 A5.62500 X0.00375
 A5.62500 X0.00508
 A5.62500 X0.00622
 A5.62500 X0.00715
 A5.62500 X0.00782
 A5.62500 X0.00821
 A5.62500 X0.00828
 A5.62500 X0.00803
 A5.62500 X0.00747
 A5.62500 X0.00660
 A5.62500 X0.00545
 A5.62500 X0.00407
 A5.62500 X0.00251
 A5.62500 X0.00084
 A5.62500 X-0.00086
 A5.62500 X-0.00253
 A5.62500 X-0.00408
 A5.62500 X-0.00546
 A5.62500 X-0.00661
 A5.62500 X-0.00748
 A5.62500 X-0.00805
 A5.62500 X-0.00829
 A5.62500 X-0.00822
 A5.62500 X-0.00783
 A5.62500 X-0.00716
 A5.62500 X-0.00623
 A5.62500 X-0.00508
 A5.62500 X-0.00376
 A5.62500 X-0.00231
 A5.62500 X-0.00078
 A5.62500 X0.00078
 A5.62500 X0.00231
 A5.62500 X0.00376
 A5.62500 X0.00508
 A5.62500 X0.00623
 A5.62500 X0.00716
 A5.62500 X0.00783
 A5.62500 X0.00822
 A5.62500 X0.00829
 A5.62500 X0.00805
 A5.62500 X0.00748
 A5.62500 X0.00661
 A5.62500 X0.00546
 A5.62500 X0.00408
 A5.62500 X0.00253
 A5.62500 X0.00086
 G94
 ;End1 - End

 G04 P0.01
M16
G91
 IF 50001
 G00 X0.00100 Z0.200; Reverse Pierce Step and Rapid Clearance Move
 G00 X-0.00100
 G00 X[-36.89529 + 0.00000]
 G00 A0.00000
 G00 X[0.133 * -0.4 * #126] ; Bend Notch Comp
G90
 G00 Y0.0 Z[0.52500 + 0.081]
/M15
 G04 P0.01
 G00 Z0.52500
G91
 G04 P0.01
 G01 X0.001 F140 ; Pierce Step
 G01 G93.1 F140
 ;End2 - Start
 A-5.62500 X0.00086
 A-5.62500 X0.00253
 A-5.62500 X0.00408
 A-5.62500 X0.00546
 A-5.62500 X0.00661
 A-5.62500 X0.00748
 A-5.62500 X0.00805
 A-5.62500 X0.00829
 A-5.62500 X0.00822
 A-5.62500 X0.00783
 A-5.62500 X0.00716
 A-5.62500 X0.00623
 A-5.62500 X0.00508
 A-5.62500 X0.00376
 A-5.62500 X0.00231
 A-5.62500 X0.00078
 A-5.62500 X-0.00078
 A-5.62500 X-0.00231
 A-5.62500 X-0.00376
 A-5.62500 X-0.00508
 A-5.62500 X-0.00623
 A-5.62500 X-0.00716
 A-5.62500 X-0.00783
 A-5.62500 X-0.00822
 A-5.62500 X-0.00829
 A-5.62500 X-0.00805
 A-5.62500 X-0.00748
 A-5.62500 X-0.00661
 A-5.62500 X-0.00546
 A-5.62500 X-0.00408
 A-5.62500 X-0.00253
 A-5.62500 X-0.00086
 A-5.62500 X0.00084
 A-5.62500 X0.00251
 A-5.62500 X0.00407
 A-5.62500 X0.00545
 A-5.62500 X0.00660
 A-5.62500 X0.00747
 A-5.62500 X0.00803
 A-5.62500 X0.00828
 A-5.62500 X0.00821
 A-5.62500 X0.00782
 A-5.62500 X0.00715
 A-5.62500 X0.00622
 A-5.62500 X0.00508
 A-5.62500 X0.00375
 A-5.62500 X0.00230
 A-5.62500 X0.00078
 A-5.62500 X-0.00078
 A-5.62500 X-0.00230
 A-5.62500 X-0.00375
 A-5.62500 X-0.00508
 A-5.62500 X-0.00622
 A-5.62500 X-0.00715
 A-5.62500 X-0.00782
 A-5.62500 X-0.00821
 A-5.62500 X-0.00828
 A-5.62500 X-0.00803
 A-5.62500 X-0.00747
 A-5.62500 X-0.00660
 A-5.62500 X-0.00545
 A-5.62500 X-0.00407
 A-5.62500 X-0.00251
 A-5.62500 X-0.00084
 G94
 ;End2 - End
 G01 X-0.00000 F140 ; E2 Toe Step



;N9102
;Between Piece Section
 G91 
 G01 X-0.100 F140
 M16 
 M200 "Mark Your Piece\n'%s'\nThen Press Cycle Start" #300
 ;G00 X-0.050
 ;G01 X-0.050 F140 ;Commented in all known cases
 G01 X-0.100 F140

; Stick_2_5_ms2015
N93009
; Name:  ms2015
; Description: 1 sch 40
; Piece Type: Coped
; Material Diameter: 1.0500"   Wall Thickness: 0.1330"
; End-1 Joint Angle: 90.000  Join Diameter: 1.9000"
; Rotational Offset: 0   Length: 32.4380"
; End-2 Joint Angle: 90.000  Join Diameter: 1.9000"
 #300 = "ms2015" ; Assign Piece Name
#126=0 ; Init Bend Notch Counter
G90
 G00 Z[0.52500 + 0.08100]
 /M15
 G04 P0.01
 G00 Z0.52500
G91 
 ;End1 - Start
 G01 X-0.001 F140   ; Pierce Step
 G01 X-0.00000 F140 ; E1 Toe Step
 G01 G93.1 F140
 A5.62500 X-0.00084
 A5.62500 X-0.00251
 A5.62500 X-0.00407
 A5.62500 X-0.00545
 A5.62500 X-0.00660
 A5.62500 X-0.00747
 A5.62500 X-0.00803
 A5.62500 X-0.00828
 A5.62500 X-0.00821
 A5.62500 X-0.00782
 A5.62500 X-0.00715
 A5.62500 X-0.00622
 A5.62500 X-0.00508
 A5.62500 X-0.00375
 A5.62500 X-0.00230
 A5.62500 X-0.00078
 A5.62500 X0.00078
 A5.62500 X0.00230
 A5.62500 X0.00375
 A5.62500 X0.00508
 A5.62500 X0.00622
 A5.62500 X0.00715
 A5.62500 X0.00782
 A5.62500 X0.00821
 A5.62500 X0.00828
 A5.62500 X0.00803
 A5.62500 X0.00747
 A5.62500 X0.00660
 A5.62500 X0.00545
 A5.62500 X0.00407
 A5.62500 X0.00251
 A5.62500 X0.00084
 A5.62500 X-0.00086
 A5.62500 X-0.00253
 A5.62500 X-0.00408
 A5.62500 X-0.00546
 A5.62500 X-0.00661
 A5.62500 X-0.00748
 A5.62500 X-0.00805
 A5.62500 X-0.00829
 A5.62500 X-0.00822
 A5.62500 X-0.00783
 A5.62500 X-0.00716
 A5.62500 X-0.00623
 A5.62500 X-0.00508
 A5.62500 X-0.00376
 A5.62500 X-0.00231
 A5.62500 X-0.00078
 A5.62500 X0.00078
 A5.62500 X0.00231
 A5.62500 X0.00376
 A5.62500 X0.00508
 A5.62500 X0.00623
 A5.62500 X0.00716
 A5.62500 X0.00783
 A5.62500 X0.00822
 A5.62500 X0.00829
 A5.62500 X0.00805
 A5.62500 X0.00748
 A5.62500 X0.00661
 A5.62500 X0.00546
 A5.62500 X0.00408
 A5.62500 X0.00253
 A5.62500 X0.00086
 G94
 ;End1 - End

 G04 P0.01
M16
G91
 IF 50001
 G00 X0.00100 Z0.200; Reverse Pierce Step and Rapid Clearance Move
 G00 X-0.00100
 G00 X[-30.70829 + 0.00000]
 G00 A0.00000
 G00 X[0.133 * -0.4 * #126] ; Bend Notch Comp
G90
 G00 Y0.0 Z[0.52500 + 0.081]
/M15
 G04 P0.01
 G00 Z0.52500
G91
 G04 P0.01
 G01 X0.001 F140 ; Pierce Step
 G01 G93.1 F140
 ;End2 - Start
 A-5.62500 X0.00086
 A-5.62500 X0.00253
 A-5.62500 X0.00408
 A-5.62500 X0.00546
 A-5.62500 X0.00661
 A-5.62500 X0.00748
 A-5.62500 X0.00805
 A-5.62500 X0.00829
 A-5.62500 X0.00822
 A-5.62500 X0.00783
 A-5.62500 X0.00716
 A-5.62500 X0.00623
 A-5.62500 X0.00508
 A-5.62500 X0.00376
 A-5.62500 X0.00231
 A-5.62500 X0.00078
 A-5.62500 X-0.00078
 A-5.62500 X-0.00231
 A-5.62500 X-0.00376
 A-5.62500 X-0.00508
 A-5.62500 X-0.00623
 A-5.62500 X-0.00716
 A-5.62500 X-0.00783
 A-5.62500 X-0.00822
 A-5.62500 X-0.00829
 A-5.62500 X-0.00805
 A-5.62500 X-0.00748
 A-5.62500 X-0.00661
 A-5.62500 X-0.00546
 A-5.62500 X-0.00408
 A-5.62500 X-0.00253
 A-5.62500 X-0.00086
 A-5.62500 X0.00084
 A-5.62500 X0.00251
 A-5.62500 X0.00407
 A-5.62500 X0.00545
 A-5.62500 X0.00660
 A-5.62500 X0.00747
 A-5.62500 X0.00803
 A-5.62500 X0.00828
 A-5.62500 X0.00821
 A-5.62500 X0.00782
 A-5.62500 X0.00715
 A-5.62500 X0.00622
 A-5.62500 X0.00508
 A-5.62500 X0.00375
 A-5.62500 X0.00230
 A-5.62500 X0.00078
 A-5.62500 X-0.00078
 A-5.62500 X-0.00230
 A-5.62500 X-0.00375
 A-5.62500 X-0.00508
 A-5.62500 X-0.00622
 A-5.62500 X-0.00715
 A-5.62500 X-0.00782
 A-5.62500 X-0.00821
 A-5.62500 X-0.00828
 A-5.62500 X-0.00803
 A-5.62500 X-0.00747
 A-5.62500 X-0.00660
 A-5.62500 X-0.00545
 A-5.62500 X-0.00407
 A-5.62500 X-0.00251
 A-5.62500 X-0.00084
 G94
 ;End2 - End
 G01 X-0.00000 F140 ; E2 Toe Step



;N9102
;Between Piece Section
 G91 
 G01 X-0.100 F140
 M16 
 M200 "Mark Your Piece\n'%s'\nThen Press Cycle Start" #300
 ;G00 X-0.050
 ;G01 X-0.050 F140 ;Commented in all known cases
 G01 X-0.100 F140

; Stick_2_6_ms2015
N93010
; Name:  ms2015
; Description: 1 sch 40
; Piece Type: Coped
; Material Diameter: 1.0500"   Wall Thickness: 0.1330"
; End-1 Joint Angle: 90.000  Join Diameter: 1.9000"
; Rotational Offset: 0   Length: 32.4380"
; End-2 Joint Angle: 90.000  Join Diameter: 1.9000"
 #300 = "ms2015" ; Assign Piece Name
#126=0 ; Init Bend Notch Counter
G90
 G00 Z[0.52500 + 0.08100]
 /M15
 G04 P0.01
 G00 Z0.52500
G91 
 ;End1 - Start
 G01 X-0.001 F140   ; Pierce Step
 G01 X-0.00000 F140 ; E1 Toe Step
 G01 G93.1 F140
 A5.62500 X-0.00084
 A5.62500 X-0.00251
 A5.62500 X-0.00407
 A5.62500 X-0.00545
 A5.62500 X-0.00660
 A5.62500 X-0.00747
 A5.62500 X-0.00803
 A5.62500 X-0.00828
 A5.62500 X-0.00821
 A5.62500 X-0.00782
 A5.62500 X-0.00715
 A5.62500 X-0.00622
 A5.62500 X-0.00508
 A5.62500 X-0.00375
 A5.62500 X-0.00230
 A5.62500 X-0.00078
 A5.62500 X0.00078
 A5.62500 X0.00230
 A5.62500 X0.00375
 A5.62500 X0.00508
 A5.62500 X0.00622
 A5.62500 X0.00715
 A5.62500 X0.00782
 A5.62500 X0.00821
 A5.62500 X0.00828
 A5.62500 X0.00803
 A5.62500 X0.00747
 A5.62500 X0.00660
 A5.62500 X0.00545
 A5.62500 X0.00407
 A5.62500 X0.00251
 A5.62500 X0.00084
 A5.62500 X-0.00086
 A5.62500 X-0.00253
 A5.62500 X-0.00408
 A5.62500 X-0.00546
 A5.62500 X-0.00661
 A5.62500 X-0.00748
 A5.62500 X-0.00805
 A5.62500 X-0.00829
 A5.62500 X-0.00822
 A5.62500 X-0.00783
 A5.62500 X-0.00716
 A5.62500 X-0.00623
 A5.62500 X-0.00508
 A5.62500 X-0.00376
 A5.62500 X-0.00231
 A5.62500 X-0.00078
 A5.62500 X0.00078
 A5.62500 X0.00231
 A5.62500 X0.00376
 A5.62500 X0.00508
 A5.62500 X0.00623
 A5.62500 X0.00716
 A5.62500 X0.00783
 A5.62500 X0.00822
 A5.62500 X0.00829
 A5.62500 X0.00805
 A5.62500 X0.00748
 A5.62500 X0.00661
 A5.62500 X0.00546
 A5.62500 X0.00408
 A5.62500 X0.00253
 A5.62500 X0.00086
 G94
 ;End1 - End

 G04 P0.01
M16
G91
 IF 50001
 G00 X0.00100 Z0.200; Reverse Pierce Step and Rapid Clearance Move
 G00 X-0.00100
 G00 X[-30.70829 + 0.00000]
 G00 A0.00000
 G00 X[0.133 * -0.4 * #126] ; Bend Notch Comp
G90
 G00 Y0.0 Z[0.52500 + 0.081]
/M15
 G04 P0.01
 G00 Z0.52500
G91
 G04 P0.01
 G01 X0.001 F140 ; Pierce Step
 G01 G93.1 F140
 ;End2 - Start
 A-5.62500 X0.00086
 A-5.62500 X0.00253
 A-5.62500 X0.00408
 A-5.62500 X0.00546
 A-5.62500 X0.00661
 A-5.62500 X0.00748
 A-5.62500 X0.00805
 A-5.62500 X0.00829
 A-5.62500 X0.00822
 A-5.62500 X0.00783
 A-5.62500 X0.00716
 A-5.62500 X0.00623
 A-5.62500 X0.00508
 A-5.62500 X0.00376
 A-5.62500 X0.00231
 A-5.62500 X0.00078
 A-5.62500 X-0.00078
 A-5.62500 X-0.00231
 A-5.62500 X-0.00376
 A-5.62500 X-0.00508
 A-5.62500 X-0.00623
 A-5.62500 X-0.00716
 A-5.62500 X-0.00783
 A-5.62500 X-0.00822
 A-5.62500 X-0.00829
 A-5.62500 X-0.00805
 A-5.62500 X-0.00748
 A-5.62500 X-0.00661
 A-5.62500 X-0.00546
 A-5.62500 X-0.00408
 A-5.62500 X-0.00253
 A-5.62500 X-0.00086
 A-5.62500 X0.00084
 A-5.62500 X0.00251
 A-5.62500 X0.00407
 A-5.62500 X0.00545
 A-5.62500 X0.00660
 A-5.62500 X0.00747
 A-5.62500 X0.00803
 A-5.62500 X0.00828
 A-5.62500 X0.00821
 A-5.62500 X0.00782
 A-5.62500 X0.00715
 A-5.62500 X0.00622
 A-5.62500 X0.00508
 A-5.62500 X0.00375
 A-5.62500 X0.00230
 A-5.62500 X0.00078
 A-5.62500 X-0.00078
 A-5.62500 X-0.00230
 A-5.62500 X-0.00375
 A-5.62500 X-0.00508
 A-5.62500 X-0.00622
 A-5.62500 X-0.00715
 A-5.62500 X-0.00782
 A-5.62500 X-0.00821
 A-5.62500 X-0.00828
 A-5.62500 X-0.00803
 A-5.62500 X-0.00747
 A-5.62500 X-0.00660
 A-5.62500 X-0.00545
 A-5.62500 X-0.00407
 A-5.62500 X-0.00251
 A-5.62500 X-0.00084
 G94
 ;End2 - End
 G01 X-0.00000 F140 ; E2 Toe Step



;N9103
;End Of Sequence Manual Unload
 G91
 M16 
 M200 "Mark Your Piece\n'%s'\nThen Press Cycle Start" #300
 G01 X-0.001; Pierce Step
 M16
 IF 50001
 M25 ; Raises Torch
 M11
 M201 "Open the Jaws And Remove the Scrap\n Press Cycle Start To Continue"



; Stick=3
;N9101
; Load Sequence
; Auto-Load Sequence
 M79
G90 
 G53 X-36.62  ; Load Position in Machine Coordinates
 G00 A0.00 ; Load Position-A
 M82 G04 P1.0
 M201 "Please Confirm the Material is Oriented Correctly. \n and then \n Press Cycle-Start."
G91 
 G01 X-6.0 F200.0; LoadStep-1
 M75
 G04 P1.0
 M69
 G01 X-7.0 F200.0; LoadStep-2
 M63
 G01 X-6.0 F200.0; LoadStep-3
 M10
G90;
 G00 A0.0
 G00 Y0.0 ; Burn Position
G91;


; Stick_3_1_ms2015
N93011
; Name:  ms2015
; Description: 1 sch 40
; Piece Type: Coped
; Material Diameter: 1.0500"   Wall Thickness: 0.1330"
; End-1 Joint Angle: 90.000  Join Diameter: 1.9000"
; Rotational Offset: 0   Length: 32.4380"
; End-2 Joint Angle: 90.000  Join Diameter: 1.9000"
 #300 = "ms2015" ; Assign Piece Name
#126=0 ; Init Bend Notch Counter
G90
 G00 Z[0.52500 + 0.08100]
 /M15
 G04 P0.01
 G00 Z0.52500
G91 
 ;End1 - Start
 G01 X-0.001 F140   ; Pierce Step
 G01 X-0.00000 F140 ; E1 Toe Step
 G01 G93.1 F140
 A5.62500 X-0.00084
 A5.62500 X-0.00251
 A5.62500 X-0.00407
 A5.62500 X-0.00545
 A5.62500 X-0.00660
 A5.62500 X-0.00747
 A5.62500 X-0.00803
 A5.62500 X-0.00828
 A5.62500 X-0.00821
 A5.62500 X-0.00782
 A5.62500 X-0.00715
 A5.62500 X-0.00622
 A5.62500 X-0.00508
 A5.62500 X-0.00375
 A5.62500 X-0.00230
 A5.62500 X-0.00078
 A5.62500 X0.00078
 A5.62500 X0.00230
 A5.62500 X0.00375
 A5.62500 X0.00508
 A5.62500 X0.00622
 A5.62500 X0.00715
 A5.62500 X0.00782
 A5.62500 X0.00821
 A5.62500 X0.00828
 A5.62500 X0.00803
 A5.62500 X0.00747
 A5.62500 X0.00660
 A5.62500 X0.00545
 A5.62500 X0.00407
 A5.62500 X0.00251
 A5.62500 X0.00084
 A5.62500 X-0.00086
 A5.62500 X-0.00253
 A5.62500 X-0.00408
 A5.62500 X-0.00546
 A5.62500 X-0.00661
 A5.62500 X-0.00748
 A5.62500 X-0.00805
 A5.62500 X-0.00829
 A5.62500 X-0.00822
 A5.62500 X-0.00783
 A5.62500 X-0.00716
 A5.62500 X-0.00623
 A5.62500 X-0.00508
 A5.62500 X-0.00376
 A5.62500 X-0.00231
 A5.62500 X-0.00078
 A5.62500 X0.00078
 A5.62500 X0.00231
 A5.62500 X0.00376
 A5.62500 X0.00508
 A5.62500 X0.00623
 A5.62500 X0.00716
 A5.62500 X0.00783
 A5.62500 X0.00822
 A5.62500 X0.00829
 A5.62500 X0.00805
 A5.62500 X0.00748
 A5.62500 X0.00661
 A5.62500 X0.00546
 A5.62500 X0.00408
 A5.62500 X0.00253
 A5.62500 X0.00086
 G94
 ;End1 - End

 G04 P0.01
M16
G91
 IF 50001
 G00 X0.00100 Z0.200; Reverse Pierce Step and Rapid Clearance Move
 G00 X-0.00100
 G00 X[-30.70829 + 0.00000]
 G00 A0.00000
 G00 X[0.133 * -0.4 * #126] ; Bend Notch Comp
G90
 G00 Y0.0 Z[0.52500 + 0.081]
/M15
 G04 P0.01
 G00 Z0.52500
G91
 G04 P0.01
 G01 X0.001 F140 ; Pierce Step
 G01 G93.1 F140
 ;End2 - Start
 A-5.62500 X0.00086
 A-5.62500 X0.00253
 A-5.62500 X0.00408
 A-5.62500 X0.00546
 A-5.62500 X0.00661
 A-5.62500 X0.00748
 A-5.62500 X0.00805
 A-5.62500 X0.00829
 A-5.62500 X0.00822
 A-5.62500 X0.00783
 A-5.62500 X0.00716
 A-5.62500 X0.00623
 A-5.62500 X0.00508
 A-5.62500 X0.00376
 A-5.62500 X0.00231
 A-5.62500 X0.00078
 A-5.62500 X-0.00078
 A-5.62500 X-0.00231
 A-5.62500 X-0.00376
 A-5.62500 X-0.00508
 A-5.62500 X-0.00623
 A-5.62500 X-0.00716
 A-5.62500 X-0.00783
 A-5.62500 X-0.00822
 A-5.62500 X-0.00829
 A-5.62500 X-0.00805
 A-5.62500 X-0.00748
 A-5.62500 X-0.00661
 A-5.62500 X-0.00546
 A-5.62500 X-0.00408
 A-5.62500 X-0.00253
 A-5.62500 X-0.00086
 A-5.62500 X0.00084
 A-5.62500 X0.00251
 A-5.62500 X0.00407
 A-5.62500 X0.00545
 A-5.62500 X0.00660
 A-5.62500 X0.00747
 A-5.62500 X0.00803
 A-5.62500 X0.00828
 A-5.62500 X0.00821
 A-5.62500 X0.00782
 A-5.62500 X0.00715
 A-5.62500 X0.00622
 A-5.62500 X0.00508
 A-5.62500 X0.00375
 A-5.62500 X0.00230
 A-5.62500 X0.00078
 A-5.62500 X-0.00078
 A-5.62500 X-0.00230
 A-5.62500 X-0.00375
 A-5.62500 X-0.00508
 A-5.62500 X-0.00622
 A-5.62500 X-0.00715
 A-5.62500 X-0.00782
 A-5.62500 X-0.00821
 A-5.62500 X-0.00828
 A-5.62500 X-0.00803
 A-5.62500 X-0.00747
 A-5.62500 X-0.00660
 A-5.62500 X-0.00545
 A-5.62500 X-0.00407
 A-5.62500 X-0.00251
 A-5.62500 X-0.00084
 G94
 ;End2 - End
 G01 X-0.00000 F140 ; E2 Toe Step



;N9102
;Between Piece Section
 G91 
 G01 X-0.100 F140
 M16 
 M200 "Mark Your Piece\n'%s'\nThen Press Cycle Start" #300
 ;G00 X-0.050
 ;G01 X-0.050 F140 ;Commented in all known cases
 G01 X-0.100 F140

; Stick_3_2_ms2016
N93012
; Name:  ms2016
; Description: 1 sch 40
; Piece Type: Coped
; Material Diameter: 1.0500"   Wall Thickness: 0.1330"
; End-1 Joint Angle: 90.000  Join Diameter: 1.9000"
; Rotational Offset: 0   Length: 32.4375"
; End-2 Joint Angle: 90.000  Join Diameter: 1.9000"
 #300 = "ms2016" ; Assign Piece Name
#126=0 ; Init Bend Notch Counter
G90
 G00 Z[0.52500 + 0.08100]
 /M15
 G04 P0.01
 G00 Z0.52500
G91 
 ;End1 - Start
 G01 X-0.001 F140   ; Pierce Step
 G01 X-0.00000 F140 ; E1 Toe Step
 G01 G93.1 F140
 A5.62500 X-0.00084
 A5.62500 X-0.00251
 A5.62500 X-0.00407
 A5.62500 X-0.00545
 A5.62500 X-0.00660
 A5.62500 X-0.00747
 A5.62500 X-0.00803
 A5.62500 X-0.00828
 A5.62500 X-0.00821
 A5.62500 X-0.00782
 A5.62500 X-0.00715
 A5.62500 X-0.00622
 A5.62500 X-0.00508
 A5.62500 X-0.00375
 A5.62500 X-0.00230
 A5.62500 X-0.00078
 A5.62500 X0.00078
 A5.62500 X0.00230
 A5.62500 X0.00375
 A5.62500 X0.00508
 A5.62500 X0.00622
 A5.62500 X0.00715
 A5.62500 X0.00782
 A5.62500 X0.00821
 A5.62500 X0.00828
 A5.62500 X0.00803
 A5.62500 X0.00747
 A5.62500 X0.00660
 A5.62500 X0.00545
 A5.62500 X0.00407
 A5.62500 X0.00251
 A5.62500 X0.00084
 A5.62500 X-0.00086
 A5.62500 X-0.00253
 A5.62500 X-0.00408
 A5.62500 X-0.00546
 A5.62500 X-0.00661
 A5.62500 X-0.00748
 A5.62500 X-0.00805
 A5.62500 X-0.00829
 A5.62500 X-0.00822
 A5.62500 X-0.00783
 A5.62500 X-0.00716
 A5.62500 X-0.00623
 A5.62500 X-0.00508
 A5.62500 X-0.00376
 A5.62500 X-0.00231
 A5.62500 X-0.00078
 A5.62500 X0.00078
 A5.62500 X0.00231
 A5.62500 X0.00376
 A5.62500 X0.00508
 A5.62500 X0.00623
 A5.62500 X0.00716
 A5.62500 X0.00783
 A5.62500 X0.00822
 A5.62500 X0.00829
 A5.62500 X0.00805
 A5.62500 X0.00748
 A5.62500 X0.00661
 A5.62500 X0.00546
 A5.62500 X0.00408
 A5.62500 X0.00253
 A5.62500 X0.00086
 G94
 ;End1 - End

 G04 P0.01
M16
G91
 IF 50001
 G00 X0.00100 Z0.200; Reverse Pierce Step and Rapid Clearance Move
 G00 X-0.00100
 G00 X[-30.70779 + 0.00000]
 G00 A0.00000
 G00 X[0.133 * -0.4 * #126] ; Bend Notch Comp
G90
 G00 Y0.0 Z[0.52500 + 0.081]
/M15
 G04 P0.01
 G00 Z0.52500
G91
 G04 P0.01
 G01 X0.001 F140 ; Pierce Step
 G01 G93.1 F140
 ;End2 - Start
 A-5.62500 X0.00086
 A-5.62500 X0.00253
 A-5.62500 X0.00408
 A-5.62500 X0.00546
 A-5.62500 X0.00661
 A-5.62500 X0.00748
 A-5.62500 X0.00805
 A-5.62500 X0.00829
 A-5.62500 X0.00822
 A-5.62500 X0.00783
 A-5.62500 X0.00716
 A-5.62500 X0.00623
 A-5.62500 X0.00508
 A-5.62500 X0.00376
 A-5.62500 X0.00231
 A-5.62500 X0.00078
 A-5.62500 X-0.00078
 A-5.62500 X-0.00231
 A-5.62500 X-0.00376
 A-5.62500 X-0.00508
 A-5.62500 X-0.00623
 A-5.62500 X-0.00716
 A-5.62500 X-0.00783
 A-5.62500 X-0.00822
 A-5.62500 X-0.00829
 A-5.62500 X-0.00805
 A-5.62500 X-0.00748
 A-5.62500 X-0.00661
 A-5.62500 X-0.00546
 A-5.62500 X-0.00408
 A-5.62500 X-0.00253
 A-5.62500 X-0.00086
 A-5.62500 X0.00084
 A-5.62500 X0.00251
 A-5.62500 X0.00407
 A-5.62500 X0.00545
 A-5.62500 X0.00660
 A-5.62500 X0.00747
 A-5.62500 X0.00803
 A-5.62500 X0.00828
 A-5.62500 X0.00821
 A-5.62500 X0.00782
 A-5.62500 X0.00715
 A-5.62500 X0.00622
 A-5.62500 X0.00508
 A-5.62500 X0.00375
 A-5.62500 X0.00230
 A-5.62500 X0.00078
 A-5.62500 X-0.00078
 A-5.62500 X-0.00230
 A-5.62500 X-0.00375
 A-5.62500 X-0.00508
 A-5.62500 X-0.00622
 A-5.62500 X-0.00715
 A-5.62500 X-0.00782
 A-5.62500 X-0.00821
 A-5.62500 X-0.00828
 A-5.62500 X-0.00803
 A-5.62500 X-0.00747
 A-5.62500 X-0.00660
 A-5.62500 X-0.00545
 A-5.62500 X-0.00407
 A-5.62500 X-0.00251
 A-5.62500 X-0.00084
 G94
 ;End2 - End
 G01 X-0.00000 F140 ; E2 Toe Step



;N9102
;Between Piece Section
 G91 
 G01 X-0.100 F140
 M16 
 M200 "Mark Your Piece\n'%s'\nThen Press Cycle Start" #300
 ;G00 X-0.050
 ;G01 X-0.050 F140 ;Commented in all known cases
 G01 X-0.100 F140

; Stick_3_3_ms2016
N93013
; Name:  ms2016
; Description: 1 sch 40
; Piece Type: Coped
; Material Diameter: 1.0500"   Wall Thickness: 0.1330"
; End-1 Joint Angle: 90.000  Join Diameter: 1.9000"
; Rotational Offset: 0   Length: 32.4375"
; End-2 Joint Angle: 90.000  Join Diameter: 1.9000"
 #300 = "ms2016" ; Assign Piece Name
#126=0 ; Init Bend Notch Counter
G90
 G00 Z[0.52500 + 0.08100]
 /M15
 G04 P0.01
 G00 Z0.52500
G91 
 ;End1 - Start
 G01 X-0.001 F140   ; Pierce Step
 G01 X-0.00000 F140 ; E1 Toe Step
 G01 G93.1 F140
 A5.62500 X-0.00084
 A5.62500 X-0.00251
 A5.62500 X-0.00407
 A5.62500 X-0.00545
 A5.62500 X-0.00660
 A5.62500 X-0.00747
 A5.62500 X-0.00803
 A5.62500 X-0.00828
 A5.62500 X-0.00821
 A5.62500 X-0.00782
 A5.62500 X-0.00715
 A5.62500 X-0.00622
 A5.62500 X-0.00508
 A5.62500 X-0.00375
 A5.62500 X-0.00230
 A5.62500 X-0.00078
 A5.62500 X0.00078
 A5.62500 X0.00230
 A5.62500 X0.00375
 A5.62500 X0.00508
 A5.62500 X0.00622
 A5.62500 X0.00715
 A5.62500 X0.00782
 A5.62500 X0.00821
 A5.62500 X0.00828
 A5.62500 X0.00803
 A5.62500 X0.00747
 A5.62500 X0.00660
 A5.62500 X0.00545
 A5.62500 X0.00407
 A5.62500 X0.00251
 A5.62500 X0.00084
 A5.62500 X-0.00086
 A5.62500 X-0.00253
 A5.62500 X-0.00408
 A5.62500 X-0.00546
 A5.62500 X-0.00661
 A5.62500 X-0.00748
 A5.62500 X-0.00805
 A5.62500 X-0.00829
 A5.62500 X-0.00822
 A5.62500 X-0.00783
 A5.62500 X-0.00716
 A5.62500 X-0.00623
 A5.62500 X-0.00508
 A5.62500 X-0.00376
 A5.62500 X-0.00231
 A5.62500 X-0.00078
 A5.62500 X0.00078
 A5.62500 X0.00231
 A5.62500 X0.00376
 A5.62500 X0.00508
 A5.62500 X0.00623
 A5.62500 X0.00716
 A5.62500 X0.00783
 A5.62500 X0.00822
 A5.62500 X0.00829
 A5.62500 X0.00805
 A5.62500 X0.00748
 A5.62500 X0.00661
 A5.62500 X0.00546
 A5.62500 X0.00408
 A5.62500 X0.00253
 A5.62500 X0.00086
 G94
 ;End1 - End

 G04 P0.01
M16
G91
 IF 50001
 G00 X0.00100 Z0.200; Reverse Pierce Step and Rapid Clearance Move
 G00 X-0.00100
 G00 X[-30.70779 + 0.00000]
 G00 A0.00000
 G00 X[0.133 * -0.4 * #126] ; Bend Notch Comp
G90
 G00 Y0.0 Z[0.52500 + 0.081]
/M15
 G04 P0.01
 G00 Z0.52500
G91
 G04 P0.01
 G01 X0.001 F140 ; Pierce Step
 G01 G93.1 F140
 ;End2 - Start
 A-5.62500 X0.00086
 A-5.62500 X0.00253
 A-5.62500 X0.00408
 A-5.62500 X0.00546
 A-5.62500 X0.00661
 A-5.62500 X0.00748
 A-5.62500 X0.00805
 A-5.62500 X0.00829
 A-5.62500 X0.00822
 A-5.62500 X0.00783
 A-5.62500 X0.00716
 A-5.62500 X0.00623
 A-5.62500 X0.00508
 A-5.62500 X0.00376
 A-5.62500 X0.00231
 A-5.62500 X0.00078
 A-5.62500 X-0.00078
 A-5.62500 X-0.00231
 A-5.62500 X-0.00376
 A-5.62500 X-0.00508
 A-5.62500 X-0.00623
 A-5.62500 X-0.00716
 A-5.62500 X-0.00783
 A-5.62500 X-0.00822
 A-5.62500 X-0.00829
 A-5.62500 X-0.00805
 A-5.62500 X-0.00748
 A-5.62500 X-0.00661
 A-5.62500 X-0.00546
 A-5.62500 X-0.00408
 A-5.62500 X-0.00253
 A-5.62500 X-0.00086
 A-5.62500 X0.00084
 A-5.62500 X0.00251
 A-5.62500 X0.00407
 A-5.62500 X0.00545
 A-5.62500 X0.00660
 A-5.62500 X0.00747
 A-5.62500 X0.00803
 A-5.62500 X0.00828
 A-5.62500 X0.00821
 A-5.62500 X0.00782
 A-5.62500 X0.00715
 A-5.62500 X0.00622
 A-5.62500 X0.00508
 A-5.62500 X0.00375
 A-5.62500 X0.00230
 A-5.62500 X0.00078
 A-5.62500 X-0.00078
 A-5.62500 X-0.00230
 A-5.62500 X-0.00375
 A-5.62500 X-0.00508
 A-5.62500 X-0.00622
 A-5.62500 X-0.00715
 A-5.62500 X-0.00782
 A-5.62500 X-0.00821
 A-5.62500 X-0.00828
 A-5.62500 X-0.00803
 A-5.62500 X-0.00747
 A-5.62500 X-0.00660
 A-5.62500 X-0.00545
 A-5.62500 X-0.00407
 A-5.62500 X-0.00251
 A-5.62500 X-0.00084
 G94
 ;End2 - End
 G01 X-0.00000 F140 ; E2 Toe Step



;N9102
;Between Piece Section
 G91 
 G01 X-0.100 F140
 M16 
 M200 "Mark Your Piece\n'%s'\nThen Press Cycle Start" #300
 ;G00 X-0.050
 ;G01 X-0.050 F140 ;Commented in all known cases
 G01 X-0.100 F140

; Stick_3_4_ms2016
N93014
; Name:  ms2016
; Description: 1 sch 40
; Piece Type: Coped
; Material Diameter: 1.0500"   Wall Thickness: 0.1330"
; End-1 Joint Angle: 90.000  Join Diameter: 1.9000"
; Rotational Offset: 0   Length: 32.4375"
; End-2 Joint Angle: 90.000  Join Diameter: 1.9000"
 #300 = "ms2016" ; Assign Piece Name
#126=0 ; Init Bend Notch Counter
G90
 G00 Z[0.52500 + 0.08100]
 /M15
 G04 P0.01
 G00 Z0.52500
G91 
 ;End1 - Start
 G01 X-0.001 F140   ; Pierce Step
 G01 X-0.00000 F140 ; E1 Toe Step
 G01 G93.1 F140
 A5.62500 X-0.00084
 A5.62500 X-0.00251
 A5.62500 X-0.00407
 A5.62500 X-0.00545
 A5.62500 X-0.00660
 A5.62500 X-0.00747
 A5.62500 X-0.00803
 A5.62500 X-0.00828
 A5.62500 X-0.00821
 A5.62500 X-0.00782
 A5.62500 X-0.00715
 A5.62500 X-0.00622
 A5.62500 X-0.00508
 A5.62500 X-0.00375
 A5.62500 X-0.00230
 A5.62500 X-0.00078
 A5.62500 X0.00078
 A5.62500 X0.00230
 A5.62500 X0.00375
 A5.62500 X0.00508
 A5.62500 X0.00622
 A5.62500 X0.00715
 A5.62500 X0.00782
 A5.62500 X0.00821
 A5.62500 X0.00828
 A5.62500 X0.00803
 A5.62500 X0.00747
 A5.62500 X0.00660
 A5.62500 X0.00545
 A5.62500 X0.00407
 A5.62500 X0.00251
 A5.62500 X0.00084
 A5.62500 X-0.00086
 A5.62500 X-0.00253
 A5.62500 X-0.00408
 A5.62500 X-0.00546
 A5.62500 X-0.00661
 A5.62500 X-0.00748
 A5.62500 X-0.00805
 A5.62500 X-0.00829
 A5.62500 X-0.00822
 A5.62500 X-0.00783
 A5.62500 X-0.00716
 A5.62500 X-0.00623
 A5.62500 X-0.00508
 A5.62500 X-0.00376
 A5.62500 X-0.00231
 A5.62500 X-0.00078
 A5.62500 X0.00078
 A5.62500 X0.00231
 A5.62500 X0.00376
 A5.62500 X0.00508
 A5.62500 X0.00623
 A5.62500 X0.00716
 A5.62500 X0.00783
 A5.62500 X0.00822
 A5.62500 X0.00829
 A5.62500 X0.00805
 A5.62500 X0.00748
 A5.62500 X0.00661
 A5.62500 X0.00546
 A5.62500 X0.00408
 A5.62500 X0.00253
 A5.62500 X0.00086
 G94
 ;End1 - End

 G04 P0.01
M16
G91
 IF 50001
 G00 X0.00100 Z0.200; Reverse Pierce Step and Rapid Clearance Move
 G00 X-0.00100
 G00 X[-30.70779 + 0.00000]
 G00 A0.00000
 G00 X[0.133 * -0.4 * #126] ; Bend Notch Comp
G90
 G00 Y0.0 Z[0.52500 + 0.081]
/M15
 G04 P0.01
 G00 Z0.52500
G91
 G04 P0.01
 G01 X0.001 F140 ; Pierce Step
 G01 G93.1 F140
 ;End2 - Start
 A-5.62500 X0.00086
 A-5.62500 X0.00253
 A-5.62500 X0.00408
 A-5.62500 X0.00546
 A-5.62500 X0.00661
 A-5.62500 X0.00748
 A-5.62500 X0.00805
 A-5.62500 X0.00829
 A-5.62500 X0.00822
 A-5.62500 X0.00783
 A-5.62500 X0.00716
 A-5.62500 X0.00623
 A-5.62500 X0.00508
 A-5.62500 X0.00376
 A-5.62500 X0.00231
 A-5.62500 X0.00078
 A-5.62500 X-0.00078
 A-5.62500 X-0.00231
 A-5.62500 X-0.00376
 A-5.62500 X-0.00508
 A-5.62500 X-0.00623
 A-5.62500 X-0.00716
 A-5.62500 X-0.00783
 A-5.62500 X-0.00822
 A-5.62500 X-0.00829
 A-5.62500 X-0.00805
 A-5.62500 X-0.00748
 A-5.62500 X-0.00661
 A-5.62500 X-0.00546
 A-5.62500 X-0.00408
 A-5.62500 X-0.00253
 A-5.62500 X-0.00086
 A-5.62500 X0.00084
 A-5.62500 X0.00251
 A-5.62500 X0.00407
 A-5.62500 X0.00545
 A-5.62500 X0.00660
 A-5.62500 X0.00747
 A-5.62500 X0.00803
 A-5.62500 X0.00828
 A-5.62500 X0.00821
 A-5.62500 X0.00782
 A-5.62500 X0.00715
 A-5.62500 X0.00622
 A-5.62500 X0.00508
 A-5.62500 X0.00375
 A-5.62500 X0.00230
 A-5.62500 X0.00078
 A-5.62500 X-0.00078
 A-5.62500 X-0.00230
 A-5.62500 X-0.00375
 A-5.62500 X-0.00508
 A-5.62500 X-0.00622
 A-5.62500 X-0.00715
 A-5.62500 X-0.00782
 A-5.62500 X-0.00821
 A-5.62500 X-0.00828
 A-5.62500 X-0.00803
 A-5.62500 X-0.00747
 A-5.62500 X-0.00660
 A-5.62500 X-0.00545
 A-5.62500 X-0.00407
 A-5.62500 X-0.00251
 A-5.62500 X-0.00084
 G94
 ;End2 - End
 G01 X-0.00000 F140 ; E2 Toe Step



;N9103
;End Of Sequence Manual Unload
 G91
 M16 
 M200 "Mark Your Piece\n'%s'\nThen Press Cycle Start" #300
 G01 X-0.001; Pierce Step
 M16
 IF 50001
 M25 ; Raises Torch
 M11
 M201 "Open the Jaws And Remove the Scrap\n Press Cycle Start To Continue"



;N9108
;End Of Batch
 M16
 IF 50001
 M25 ; Raises Torch
 M11
 G90 



 M30 ;End Of Program

