%
(PROGRAM nest-1)
(POST EMI 2400 PROMPTS ROP V1.4)
G20
G58
T1
G43 H1
G90
M25
#29001 = 140
#29002 = 14400
(LOAD SEQUENCE)
G00 Y0.0 A0.0
G01 Z2.0000 F#29001
M10
M00
(NEST STOCK LENGTH IN: 240.000)
(NEST USED LENGTH IN: 220.000)
(NEST REMAINING DROP IN: 20.000)
(NOTE: TRIM-CUT COMMAND IS CONFIGURABLE VIA EMI MACHINE PROFILE)
M25
(PIECE 1: A2001 START=0.000 LEN=20.000)
G90
G92 X0.0
G00 X0.0000
M00
(ROTATIONAL OFFSET: 0.000)
(END1 FLAT: N)
G01 X-0.0010 F#29001
G01 X0.0002 F#29001
M15
;End1 - Start (cope)
(END GEOMETRY: angle=0.000 join_dia=0.000 od=3.000)
G00 Z4.0000
G00 Z2.0000
G91
G01 G93.1 F#29002
G01 A3.2143 X-0.0010
G01 A3.2143 X0.0000
G01 A3.2143 X0.0000
G01 A3.2143 X0.0000
G01 A3.2142 X0.0000
G01 A3.2143 X0.0000
G01 A3.2143 X0.0000
G01 A3.2143 X0.0000
G01 A3.2143 X0.0000
G01 A3.2143 X0.0000
G01 A3.2143 X0.0000
G01 A3.2143 X0.0000
G01 A3.2143 X0.0000
G01 A3.2143 X0.0000
G01 A3.2142 X0.0000
G01 A3.2143 X0.0000
G01 A3.2143 X0.0000
G01 A3.2143 X0.0000
G01 A3.2143 X0.0000
G01 A3.2143 X0.0000
G01 A3.2143 X0.0000
G01 A3.2143 X0.0000
G01 A3.2143 X0.0000
G01 A3.2143 X0.0000
G01 A3.2143 X0.0000
G01 A3.2142 X0.0000
G01 A3.2143 X0.0000
G01 A3.2143 X0.0000
G01 A3.2143 X0.0000
G01 A3.2143 X0.0000
G01 A3.2143 X0.0000
G01 A3.2143 X0.0000
G01 A3.2143 X0.0000
G01 A3.2143 X0.0000
G01 A3.2143 X0.0000
G01 A3.2142 X0.0000
G01 A3.2143 X0.0000
G01 A3.2143 X0.0000
G01 A3.2143 X0.0000
G01 A3.2143 X0.0000
G01 A3.2143 X0.0000
G01 A3.2143 X0.0000
G01 A3.2143 X0.0000
G01 A3.2143 X0.0000
G01 A3.2143 X0.0000
G01 A3.2142 X0.0000
G01 A3.2143 X0.0000
G01 A3.2143 X0.0000
G01 A3.2143 X0.0000
G01 A3.2143 X0.0000
G01 A3.2143 X0.0000
G01 A3.2143 X0.0000
G01 A3.2143 X0.0000
G01 A3.2143 X0.0000
G01 A3.2143 X0.0000
G01 A3.2142 X0.0010
G01 A3.2143 X-0.0010
G01 A3.2143 X0.0000
G01 A3.2143 X0.0000
G01 A3.2143 X0.0000
G01 A3.2143 X0.0000
G01 A3.2143 X0.0000
G01 A3.2143 X0.0000
G01 A3.2143 X0.0000
G01 A3.2143 X0.0000
G01 A3.2142 X0.0000
G01 A3.2143 X0.0000
G01 A3.2143 X0.0000
G01 A3.2143 X0.0000
G01 A3.2143 X0.0000
G01 A3.2143 X0.0000
G01 A3.2143 X0.0000
G01 A3.2143 X0.0000
G01 A3.2143 X0.0000
G01 A3.2143 X0.0000
G01 A3.2142 X0.0000
G01 A3.2143 X0.0000
G01 A3.2143 X0.0000
G01 A3.2143 X0.0000
G01 A3.2143 X0.0000
G01 A3.2143 X0.0000
G01 A3.2143 X0.0000
G01 A3.2143 X0.0000
G01 A3.2143 X0.0000
G01 A3.2143 X0.0000
G01 A3.2142 X0.0000
G01 A3.2143 X0.0000
G01 A3.2143 X0.0000
G01 A3.2143 X0.0000
G01 A3.2143 X0.0000
G01 A3.2143 X0.0000
G01 A3.2143 X0.0000
G01 A3.2143 X0.0000
G01 A3.2143 X0.0000
G01 A3.2143 X0.0000
G01 A3.2142 X0.0000
G01 A3.2143 X0.0000
G01 A3.2143 X0.0000
G01 A3.2143 X0.0000
G01 A3.2143 X0.0000
G01 A3.2143 X0.0000
G01 A3.2143 X0.0000
G01 A3.2143 X0.0000
G01 A3.2143 X0.0000
G01 A3.2143 X0.0000
G01 A3.2142 X0.0000
G01 A3.2143 X0.0000
G01 A3.2143 X0.0000
G01 A3.2143 X0.0000
G01 A3.2143 X0.0000
G01 A3.2143 X0.0000
G94
G90
;End1 - End
G00 Z4.0000
M16
;End1->End2 Reposition
G91
G01 X20.0012 F#29001
G90
G00 A0.0000
G00 Z2.0000
(END2 FLAT: N)
G01 X-0.0010 F#29001
G01 X0.0002 F#29001
M15
;End2 - Start (cope)
(END GEOMETRY: angle=45.000 join_dia=0.000 od=3.000)
G00 Z4.0000
G00 Z2.0000
G91
G01 G93.1 F#29002
G01 A3.2143 X-0.0010
G01 A3.2143 X0.0000
G01 A3.2143 X0.0000
G01 A3.2143 X0.0000
G01 A3.2142 X0.0000
G01 A3.2143 X0.0000
G01 A3.2143 X0.0000
G01 A3.2143 X0.0000
G01 A3.2143 X0.0000
G01 A3.2143 X0.0000
G01 A3.2143 X0.0000
G01 A3.2143 X0.0000
G01 A3.2143 X0.0000
G01 A3.2143 X0.0000
G01 A3.2142 X0.0000
G01 A3.2143 X0.0000
G01 A3.2143 X0.0000
G01 A3.2143 X0.0000
G01 A3.2143 X0.0000
G01 A3.2143 X0.0000
G01 A3.2143 X0.0000
G01 A3.2143 X0.0000
G01 A3.2143 X0.0000
G01 A3.2143 X0.0000
G01 A3.2143 X0.0000
G01 A3.2142 X0.0000
G01 A3.2143 X0.0000
G01 A3.2143 X0.0000
G01 A3.2143 X0.0000
G01 A3.2143 X0.0000
G01 A3.2143 X0.0000
G01 A3.2143 X0.0000
G01 A3.2143 X0.0000
G01 A3.2143 X0.0000
G01 A3.2143 X0.0000
G01 A3.2142 X0.0000
G01 A3.2143 X0.0000
G01 A3.2143 X0.0000
G01 A3.2143 X0.0000
G01 A3.2143 X0.0000
G01 A3.2143 X0.0000
G01 A3.2143 X0.0000
G01 A3.2143 X0.0000
G01 A3.2143 X0.0000
G01 A3.2143 X0.0000
G01 A3.2142 X0.0000
G01 A3.2143 X0.0000
G01 A3.2143 X0.0000
G01 A3.2143 X0.0000
G01 A3.2143 X0.0000
G01 A3.2143 X0.0000
G01 A3.2143 X0.0000
G01 A3.2143 X0.0000
G01 A3.2143 X0.0000
G01 A3.2143 X0.0000
G01 A3.2142 X0.0010
G01 A3.2143 X-0.0010
G01 A3.2143 X0.0000
G01 A3.2143 X0.0000
G01 A3.2143 X0.0000
G01 A3.2143 X0.0000
G01 A3.2143 X0.0000
G01 A3.2143 X0.0000
G01 A3.2143 X0.0000
G01 A3.2143 X0.0000
G01 A3.2142 X0.0000
G01 A3.2143 X0.0000
G01 A3.2143 X0.0000
G01 A3.2143 X0.0000
G01 A3.2143 X0.0000
G01 A3.2143 X0.0000
G01 A3.2143 X0.0000
G01 A3.2143 X0.0000
G01 A3.2143 X0.0000
G01 A3.2143 X0.0000
G01 A3.2142 X0.0000
G01 A3.2143 X0.0000
G01 A3.2143 X0.0000
G01 A3.2143 X0.0000
G01 A3.2143 X0.0000
G01 A3.2143 X0.0000
G01 A3.2143 X0.0000
G01 A3.2143 X0.0000
G01 A3.2143 X0.0000
G01 A3.2143 X0.0000
G01 A3.2142 X0.0000
G01 A3.2143 X0.0000
G01 A3.2143 X0.0000
G01 A3.2143 X0.0000
G01 A3.2143 X0.0000
G01 A3.2143 X0.0000
G01 A3.2143 X0.0000
G01 A3.2143 X0.0000
G01 A3.2143 X0.0000
G01 A3.2143 X0.0000
G01 A3.2142 X0.0000
G01 A3.2143 X0.0000
G01 A3.2143 X0.0000
G01 A3.2143 X0.0000
G01 A3.2143 X0.0000
G01 A3.2143 X0.0000
G01 A3.2143 X0.0000
G01 A3.2143 X0.0000
G01 A3.2143 X0.0000
G01 A3.2143 X0.0000
G01 A3.2142 X0.0000
G01 A3.2143 X0.0000
G01 A3.2143 X0.0000
G01 A3.2143 X0.0000
G01 A3.2143 X0.0000
G01 A3.2143 X0.0000
G94
G90
;End2 - End
G00 Z4.0000
M16
G00 Z4.0000
(PIECE COMPLETE)
M25
(PIECE 2: A2001 START=20.000 LEN=20.000)
G90
G92 X0.0
G00 X20.0000
M00
(ROTATIONAL OFFSET: 0.000)
(END1 FLAT: N)
G01 X-0.0010 F#29001
G01 X0.0002 F#29001
M15
;End1 - Start (cope)
(END GEOMETRY: angle=0.000 join_dia=0.000 od=3.000)
G00 Z4.0000
G00 Z2.0000
G91
G01 G93.1 F#29002
G01 A3.2143 X-0.0010
G01 A3.2143 X0.0000
G01 A3.2143 X0.0000
G01 A3.2143 X0.0000
G01 A3.2142 X0.0000
G01 A3.2143 X0.0000
G01 A3.2143 X0.0000
G01 A3.2143 X0.0000
G01 A3.2143 X0.0000
G01 A3.2143 X0.0000
G01 A3.2143 X0.0000
G01 A3.2143 X0.0000
G01 A3.2143 X0.0000
G01 A3.2143 X0.0000
G01 A3.2142 X0.0000
G01 A3.2143 X0.0000
G01 A3.2143 X0.0000
G01 A3.2143 X0.0000
G01 A3.2143 X0.0000
G01 A3.2143 X0.0000
G01 A3.2143 X0.0000
G01 A3.2143 X0.0000
G01 A3.2143 X0.0000
G01 A3.2143 X0.0000
G01 A3.2143 X0.0000
G01 A3.2142 X0.0000
G01 A3.2143 X0.0000
G01 A3.2143 X0.0000
G01 A3.2143 X0.0000
G01 A3.2143 X0.0000
G01 A3.2143 X0.0000
G01 A3.2143 X0.0000
G01 A3.2143 X0.0000
G01 A3.2143 X0.0000
G01 A3.2143 X0.0000
G01 A3.2142 X0.0000
G01 A3.2143 X0.0000
G01 A3.2143 X0.0000
G01 A3.2143 X0.0000
G01 A3.2143 X0.0000
G01 A3.2143 X0.0000
G01 A3.2143 X0.0000
G01 A3.2143 X0.0000
G01 A3.2143 X0.0000
G01 A3.2143 X0.0000
G01 A3.2142 X0.0000
G01 A3.2143 X0.0000
G01 A3.2143 X0.0000
G01 A3.2143 X0.0000
G01 A3.2143 X0.0000
G01 A3.2143 X0.0000
G01 A3.2143 X0.0000
G01 A3.2143 X0.0000
G01 A3.2143 X0.0000
G01 A3.2143 X0.0000
G01 A3.2142 X0.0010
G01 A3.2143 X-0.0010
G01 A3.2143 X0.0000
G01 A3.2143 X0.0000
G01 A3.2143 X0.0000
G01 A3.2143 X0.0000
G01 A3.2143 X0.0000
G01 A3.2143 X0.0000
G01 A3.2143 X0.0000
G01 A3.2143 X0.0000
G01 A3.2142 X0.0000
G01 A3.2143 X0.0000
G01 A3.2143 X0.0000
G01 A3.2143 X0.0000
G01 A3.2143 X0.0000
G01 A3.2143 X0.0000
G01 A3.2143 X0.0000
G01 A3.2143 X0.0000
G01 A3.2143 X0.0000
G01 A3.2143 X0.0000
G01 A3.2142 X0.0000
G01 A3.2143 X0.0000
G01 A3.2143 X0.0000
G01 A3.2143 X0.0000
G01 A3.2143 X0.0000
G01 A3.2143 X0.0000
G01 A3.2143 X0.0000
G01 A3.2143 X0.0000
G01 A3.2143 X0.0000
G01 A3.2143 X0.0000
G01 A3.2142 X0.0000
G01 A3.2143 X0.0000
G01 A3.2143 X0.0000
G01 A3.2143 X0.0000
G01 A3.2143 X0.0000
G01 A3.2143 X0.0000
G01 A3.2143 X0.0000
G01 A3.2143 X0.0000
G01 A3.2143 X0.0000
G01 A3.2143 X0.0000
G01 A3.2142 X0.0000
G01 A3.2143 X0.0000
G01 A3.2143 X0.0000
G01 A3.2143 X0.0000
G01 A3.2143 X0.0000
G01 A3.2143 X0.0000
G01 A3.2143 X0.0000
G01 A3.2143 X0.0000
G01 A3.2143 X0.0000
G01 A3.2143 X0.0000
G01 A3.2142 X0.0000
G01 A3.2143 X0.0000
G01 A3.2143 X0.0000
G01 A3.2143 X0.0000
G01 A3.2143 X0.0000
G01 A3.2143 X0.0000
G94
G90
;End1 - End
G00 Z4.0000
M16
;End1->End2 Reposition
G91
G01 X20.0012 F#29001
G90
G00 A0.0000
G00 Z2.0000
(END2 FLAT: N)
G01 X-0.0010 F#29001
G01 X0.0002 F#29001
M15
;End2 - Start (cope)
(END GEOMETRY: angle=45.000 join_dia=0.000 od=3.000)
G00 Z4.0000
G00 Z2.0000
G91
G01 G93.1 F#29002
G01 A3.2143 X-0.0010
G01 A3.2143 X0.0000
G01 A3.2143 X0.0000
G01 A3.2143 X0.0000
G01 A3.2142 X0.0000
G01 A3.2143 X0.0000
G01 A3.2143 X0.0000
G01 A3.2143 X0.0000
G01 A3.2143 X0.0000
G01 A3.2143 X0.0000
G01 A3.2143 X0.0000
G01 A3.2143 X0.0000
G01 A3.2143 X0.0000
G01 A3.2143 X0.0000
G01 A3.2142 X0.0000
G01 A3.2143 X0.0000
G01 A3.2143 X0.0000
G01 A3.2143 X0.0000
G01 A3.2143 X0.0000
G01 A3.2143 X0.0000
G01 A3.2143 X0.0000
G01 A3.2143 X0.0000
G01 A3.2143 X0.0000
G01 A3.2143 X0.0000
G01 A3.2143 X0.0000
G01 A3.2142 X0.0000
G01 A3.2143 X0.0000
G01 A3.2143 X0.0000
G01 A3.2143 X0.0000
G01 A3.2143 X0.0000
G01 A3.2143 X0.0000
G01 A3.2143 X0.0000
G01 A3.2143 X0.0000
G01 A3.2143 X0.0000
G01 A3.2143 X0.0000
G01 A3.2142 X0.0000
G01 A3.2143 X0.0000
G01 A3.2143 X0.0000
G01 A3.2143 X0.0000
G01 A3.2143 X0.0000
G01 A3.2143 X0.0000
G01 A3.2143 X0.0000
G01 A3.2143 X0.0000
G01 A3.2143 X0.0000
G01 A3.2143 X0.0000
G01 A3.2142 X0.0000
G01 A3.2143 X0.0000
G01 A3.2143 X0.0000
G01 A3.2143 X0.0000
G01 A3.2143 X0.0000
G01 A3.2143 X0.0000
G01 A3.2143 X0.0000
G01 A3.2143 X0.0000
G01 A3.2143 X0.0000
G01 A3.2143 X0.0000
G01 A3.2142 X0.0010
G01 A3.2143 X-0.0010
G01 A3.2143 X0.0000
G01 A3.2143 X0.0000
G01 A3.2143 X0.0000
G01 A3.2143 X0.0000
G01 A3.2143 X0.0000
G01 A3.2143 X0.0000
G01 A3.2143 X0.0000
G01 A3.2143 X0.0000
G01 A3.2142 X0.0000
G01 A3.2143 X0.0000
G01 A3.2143 X0.0000
G01 A3.2143 X0.0000
G01 A3.2143 X0.0000
G01 A3.2143 X0.0000
G01 A3.2143 X0.0000
G01 A3.2143 X0.0000
G01 A3.2143 X0.0000
G01 A3.2143 X0.0000
G01 A3.2142 X0.0000
G01 A3.2143 X0.0000
G01 A3.2143 X0.0000
G01 A3.2143 X0.0000
G01 A3.2143 X0.0000
G01 A3.2143 X0.0000
G01 A3.2143 X0.0000
G01 A3.2143 X0.0000
G01 A3.2143 X0.0000
G01 A3.2143 X0.0000
G01 A3.2142 X0.0000
G01 A3.2143 X0.0000
G01 A3.2143 X0.0000
G01 A3.2143 X0.0000
G01 A3.2143 X0.0000
G01 A3.2143 X0.0000
G01 A3.2143 X0.0000
G01 A3.2143 X0.0000
G01 A3.2143 X0.0000
G01 A3.2143 X0.0000
G01 A3.2142 X0.0000
G01 A3.2143 X0.0000
G01 A3.2143 X0.0000
G01 A3.2143 X0.0000
G01 A3.2143 X0.0000
G01 A3.2143 X0.0000
G01 A3.2143 X0.0000
G01 A3.2143 X0.0000
G01 A3.2143 X0.0000
G01 A3.2143 X0.0000
G01 A3.2142 X0.0000
G01 A3.2143 X0.0000
G01 A3.2143 X0.0000
G01 A3.2143 X0.0000
G01 A3.2143 X0.0000
G01 A3.2143 X0.0000
G94
G90
;End2 - End
G00 Z4.0000
M16
G00 Z4.0000
(PIECE COMPLETE)
M25
(PIECE 3: A2001 START=40.000 LEN=20.000)
G90
G92 X0.0
G00 X40.0000
M00
(ROTATIONAL OFFSET: 0.000)
(END1 FLAT: N)
G01 X-0.0010 F#29001
G01 X0.0002 F#29001
M15
;End1 - Start (cope)
(END GEOMETRY: angle=0.000 join_dia=0.000 od=3.000)
G00 Z4.0000
G00 Z2.0000
G91
G01 G93.1 F#29002
G01 A3.2143 X-0.0010
G01 A3.2143 X0.0000
G01 A3.2143 X0.0000
G01 A3.2143 X0.0000
G01 A3.2142 X0.0000
G01 A3.2143 X0.0000
G01 A3.2143 X0.0000
G01 A3.2143 X0.0000
G01 A3.2143 X0.0000
G01 A3.2143 X0.0000
G01 A3.2143 X0.0000
G01 A3.2143 X0.0000
G01 A3.2143 X0.0000
G01 A3.2143 X0.0000
G01 A3.2142 X0.0000
G01 A3.2143 X0.0000
G01 A3.2143 X0.0000
G01 A3.2143 X0.0000
G01 A3.2143 X0.0000
G01 A3.2143 X0.0000
G01 A3.2143 X0.0000
G01 A3.2143 X0.0000
G01 A3.2143 X0.0000
G01 A3.2143 X0.0000
G01 A3.2143 X0.0000
G01 A3.2142 X0.0000
G01 A3.2143 X0.0000
G01 A3.2143 X0.0000
G01 A3.2143 X0.0000
G01 A3.2143 X0.0000
G01 A3.2143 X0.0000
G01 A3.2143 X0.0000
G01 A3.2143 X0.0000
G01 A3.2143 X0.0000
G01 A3.2143 X0.0000
G01 A3.2142 X0.0000
G01 A3.2143 X0.0000
G01 A3.2143 X0.0000
G01 A3.2143 X0.0000
G01 A3.2143 X0.0000
G01 A3.2143 X0.0000
G01 A3.2143 X0.0000
G01 A3.2143 X0.0000
G01 A3.2143 X0.0000
G01 A3.2143 X0.0000
G01 A3.2142 X0.0000
G01 A3.2143 X0.0000
G01 A3.2143 X0.0000
G01 A3.2143 X0.0000
G01 A3.2143 X0.0000
G01 A3.2143 X0.0000
G01 A3.2143 X0.0000
G01 A3.2143 X0.0000
G01 A3.2143 X0.0000
G01 A3.2143 X0.0000
G01 A3.2142 X0.0010
G01 A3.2143 X-0.0010
G01 A3.2143 X0.0000
G01 A3.2143 X0.0000
G01 A3.2143 X0.0000
G01 A3.2143 X0.0000
G01 A3.2143 X0.0000
G01 A3.2143 X0.0000
G01 A3.2143 X0.0000
G01 A3.2143 X0.0000
G01 A3.2142 X0.0000
G01 A3.2143 X0.0000
G01 A3.2143 X0.0000
G01 A3.2143 X0.0000
G01 A3.2143 X0.0000
G01 A3.2143 X0.0000
G01 A3.2143 X0.0000
G01 A3.2143 X0.0000
G01 A3.2143 X0.0000
G01 A3.2143 X0.0000
G01 A3.2142 X0.0000
G01 A3.2143 X0.0000
G01 A3.2143 X0.0000
G01 A3.2143 X0.0000
G01 A3.2143 X0.0000
G01 A3.2143 X0.0000
G01 A3.2143 X0.0000
G01 A3.2143 X0.0000
G01 A3.2143 X0.0000
G01 A3.2143 X0.0000
G01 A3.2142 X0.0000
G01 A3.2143 X0.0000
G01 A3.2143 X0.0000
G01 A3.2143 X0.0000
G01 A3.2143 X0.0000
G01 A3.2143 X0.0000
G01 A3.2143 X0.0000
G01 A3.2143 X0.0000
G01 A3.2143 X0.0000
G01 A3.2143 X0.0000
G01 A3.2142 X0.0000
G01 A3.2143 X0.0000
G01 A3.2143 X0.0000
G01 A3.2143 X0.0000
G01 A3.2143 X0.0000
G01 A3.2143 X0.0000
G01 A3.2143 X0.0000
G01 A3.2143 X0.0000
G01 A3.2143 X0.0000
G01 A3.2143 X0.0000
G01 A3.2142 X0.0000
G01 A3.2143 X0.0000
G01 A3.2143 X0.0000
G01 A3.2143 X0.0000
G01 A3.2143 X0.0000
G01 A3.2143 X0.0000
G94
G90
;End1 - End
G00 Z4.0000
M16
;End1->End2 Reposition
G91
G01 X20.0012 F#29001
G90
G00 A0.0000
G00 Z2.0000
(END2 FLAT: N)
G01 X-0.0010 F#29001
G01 X0.0002 F#29001
M15
;End2 - Start (cope)
(END GEOMETRY: angle=45.000 join_dia=0.000 od=3.000)
G00 Z4.0000
G00 Z2.0000
G91
G01 G93.1 F#29002
G01 A3.2143 X-0.0010
G01 A3.2143 X0.0000
G01 A3.2143 X0.0000
G01 A3.2143 X0.0000
G01 A3.2142 X0.0000
G01 A3.2143 X0.0000
G01 A3.2143 X0.0000
G01 A3.2143 X0.0000
G01 A3.2143 X0.0000
G01 A3.2143 X0.0000
G01 A3.2143 X0.0000
G01 A3.2143 X0.0000
G01 A3.2143 X0.0000
G01 A3.2143 X0.0000
G01 A3.2142 X0.0000
G01 A3.2143 X0.0000
G01 A3.2143 X0.0000
G01 A3.2143 X0.0000
G01 A3.2143 X0.0000
G01 A3.2143 X0.0000
G01 A3.2143 X0.0000
G01 A3.2143 X0.0000
G01 A3.2143 X0.0000
G01 A3.2143 X0.0000
G01 A3.2143 X0.0000
G01 A3.2142 X0.0000
G01 A3.2143 X0.0000
G01 A3.2143 X0.0000
G01 A3.2143 X0.0000
G01 A3.2143 X0.0000
G01 A3.2143 X0.0000
G01 A3.2143 X0.0000
G01 A3.2143 X0.0000
G01 A3.2143 X0.0000
G01 A3.2143 X0.0000
G01 A3.2142 X0.0000
G01 A3.2143 X0.0000
G01 A3.2143 X0.0000
G01 A3.2143 X0.0000
G01 A3.2143 X0.0000
G01 A3.2143 X0.0000
G01 A3.2143 X0.0000
G01 A3.2143 X0.0000
G01 A3.2143 X0.0000
G01 A3.2143 X0.0000
G01 A3.2142 X0.0000
G01 A3.2143 X0.0000
G01 A3.2143 X0.0000
G01 A3.2143 X0.0000
G01 A3.2143 X0.0000
G01 A3.2143 X0.0000
G01 A3.2143 X0.0000
G01 A3.2143 X0.0000
G01 A3.2143 X0.0000
G01 A3.2143 X0.0000
G01 A3.2142 X0.0010
G01 A3.2143 X-0.0010
G01 A3.2143 X0.0000
G01 A3.2143 X0.0000
G01 A3.2143 X0.0000
G01 A3.2143 X0.0000
G01 A3.2143 X0.0000
G01 A3.2143 X0.0000
G01 A3.2143 X0.0000
G01 A3.2143 X0.0000
G01 A3.2142 X0.0000
G01 A3.2143 X0.0000
G01 A3.2143 X0.0000
G01 A3.2143 X0.0000
G01 A3.2143 X0.0000
G01 A3.2143 X0.0000
G01 A3.2143 X0.0000
G01 A3.2143 X0.0000
G01 A3.2143 X0.0000
G01 A3.2143 X0.0000
G01 A3.2142 X0.0000
G01 A3.2143 X0.0000
G01 A3.2143 X0.0000
G01 A3.2143 X0.0000
G01 A3.2143 X0.0000
G01 A3.2143 X0.0000
G01 A3.2143 X0.0000
G01 A3.2143 X0.0000
G01 A3.2143 X0.0000
G01 A3.2143 X0.0000
G01 A3.2142 X0.0000
G01 A3.2143 X0.0000
G01 A3.2143 X0.0000
G01 A3.2143 X0.0000
G01 A3.2143 X0.0000
G01 A3.2143 X0.0000
G01 A3.2143 X0.0000
G01 A3.2143 X0.0000
G01 A3.2143 X0.0000
G01 A3.2143 X0.0000
G01 A3.2142 X0.0000
G01 A3.2143 X0.0000
G01 A3.2143 X0.0000
G01 A3.2143 X0.0000
G01 A3.2143 X0.0000
G01 A3.2143 X0.0000
G01 A3.2143 X0.0000
G01 A3.2143 X0.0000
G01 A3.2143 X0.0000
G01 A3.2143 X0.0000
G01 A3.2142 X0.0000
G01 A3.2143 X0.0000
G01 A3.2143 X0.0000
G01 A3.2143 X0.0000
G01 A3.2143 X0.0000
G01 A3.2143 X0.0000
G94
G90
;End2 - End
G00 Z4.0000
M16
G00 Z4.0000
(PIECE COMPLETE)
M25
(PIECE 4: A2001 START=60.000 LEN=20.000)
G90
G92 X0.0
G00 X60.0000
M00
(ROTATIONAL OFFSET: 0.000)
(END1 FLAT: N)
G01 X-0.0010 F#29001
G01 X0.0002 F#29001
M15
;End1 - Start (cope)
(END GEOMETRY: angle=0.000 join_dia=0.000 od=3.000)
G00 Z4.0000
G00 Z2.0000
G91
G01 G93.1 F#29002
G01 A3.2143 X-0.0010
G01 A3.2143 X0.0000
G01 A3.2143 X0.0000
G01 A3.2143 X0.0000
G01 A3.2142 X0.0000
G01 A3.2143 X0.0000
G01 A3.2143 X0.0000
G01 A3.2143 X0.0000
G01 A3.2143 X0.0000
G01 A3.2143 X0.0000
G01 A3.2143 X0.0000
G01 A3.2143 X0.0000
G01 A3.2143 X0.0000
G01 A3.2143 X0.0000
G01 A3.2142 X0.0000
G01 A3.2143 X0.0000
G01 A3.2143 X0.0000
G01 A3.2143 X0.0000
G01 A3.2143 X0.0000
G01 A3.2143 X0.0000
G01 A3.2143 X0.0000
G01 A3.2143 X0.0000
G01 A3.2143 X0.0000
G01 A3.2143 X0.0000
G01 A3.2143 X0.0000
G01 A3.2142 X0.0000
G01 A3.2143 X0.0000
G01 A3.2143 X0.0000
G01 A3.2143 X0.0000
G01 A3.2143 X0.0000
G01 A3.2143 X0.0000
G01 A3.2143 X0.0000
G01 A3.2143 X0.0000
G01 A3.2143 X0.0000
G01 A3.2143 X0.0000
G01 A3.2142 X0.0000
G01 A3.2143 X0.0000
G01 A3.2143 X0.0000
G01 A3.2143 X0.0000
G01 A3.2143 X0.0000
G01 A3.2143 X0.0000
G01 A3.2143 X0.0000
G01 A3.2143 X0.0000
G01 A3.2143 X0.0000
G01 A3.2143 X0.0000
G01 A3.2142 X0.0000
G01 A3.2143 X0.0000
G01 A3.2143 X0.0000
G01 A3.2143 X0.0000
G01 A3.2143 X0.0000
G01 A3.2143 X0.0000
G01 A3.2143 X0.0000
G01 A3.2143 X0.0000
G01 A3.2143 X0.0000
G01 A3.2143 X0.0000
G01 A3.2142 X0.0010
G01 A3.2143 X-0.0010
G01 A3.2143 X0.0000
G01 A3.2143 X0.0000
G01 A3.2143 X0.0000
G01 A3.2143 X0.0000
G01 A3.2143 X0.0000
G01 A3.2143 X0.0000
G01 A3.2143 X0.0000
G01 A3.2143 X0.0000
G01 A3.2142 X0.0000
G01 A3.2143 X0.0000
G01 A3.2143 X0.0000
G01 A3.2143 X0.0000
G01 A3.2143 X0.0000
G01 A3.2143 X0.0000
G01 A3.2143 X0.0000
G01 A3.2143 X0.0000
G01 A3.2143 X0.0000
G01 A3.2143 X0.0000
G01 A3.2142 X0.0000
G01 A3.2143 X0.0000
G01 A3.2143 X0.0000
G01 A3.2143 X0.0000
G01 A3.2143 X0.0000
G01 A3.2143 X0.0000
G01 A3.2143 X0.0000
G01 A3.2143 X0.0000
G01 A3.2143 X0.0000
G01 A3.2143 X0.0000
G01 A3.2142 X0.0000
G01 A3.2143 X0.0000
G01 A3.2143 X0.0000
G01 A3.2143 X0.0000
G01 A3.2143 X0.0000
G01 A3.2143 X0.0000
G01 A3.2143 X0.0000
G01 A3.2143 X0.0000
G01 A3.2143 X0.0000
G01 A3.2143 X0.0000
G01 A3.2142 X0.0000
G01 A3.2143 X0.0000
G01 A3.2143 X0.0000
G01 A3.2143 X0.0000
G01 A3.2143 X0.0000
G01 A3.2143 X0.0000
G01 A3.2143 X0.0000
G01 A3.2143 X0.0000
G01 A3.2143 X0.0000
G01 A3.2143 X0.0000
G01 A3.2142 X0.0000
G01 A3.2143 X0.0000
G01 A3.2143 X0.0000
G01 A3.2143 X0.0000
G01 A3.2143 X0.0000
G01 A3.2143 X0.0000
G94
G90
;End1 - End
G00 Z4.0000
M16
;End1->End2 Reposition
G91
G01 X20.0012 F#29001
G90
G00 A0.0000
G00 Z2.0000
(END2 FLAT: N)
G01 X-0.0010 F#29001
G01 X0.0002 F#29001
M15
;End2 - Start (cope)
(END GEOMETRY: angle=45.000 join_dia=0.000 od=3.000)
G00 Z4.0000
G00 Z2.0000
G91
G01 G93.1 F#29002
G01 A3.2143 X-0.0010
G01 A3.2143 X0.0000
G01 A3.2143 X0.0000
G01 A3.2143 X0.0000
G01 A3.2142 X0.0000
G01 A3.2143 X0.0000
G01 A3.2143 X0.0000
G01 A3.2143 X0.0000
G01 A3.2143 X0.0000
G01 A3.2143 X0.0000
G01 A3.2143 X0.0000
G01 A3.2143 X0.0000
G01 A3.2143 X0.0000
G01 A3.2143 X0.0000
G01 A3.2142 X0.0000
G01 A3.2143 X0.0000
G01 A3.2143 X0.0000
G01 A3.2143 X0.0000
G01 A3.2143 X0.0000
G01 A3.2143 X0.0000
G01 A3.2143 X0.0000
G01 A3.2143 X0.0000
G01 A3.2143 X0.0000
G01 A3.2143 X0.0000
G01 A3.2143 X0.0000
G01 A3.2142 X0.0000
G01 A3.2143 X0.0000
G01 A3.2143 X0.0000
G01 A3.2143 X0.0000
G01 A3.2143 X0.0000
G01 A3.2143 X0.0000
G01 A3.2143 X0.0000
G01 A3.2143 X0.0000
G01 A3.2143 X0.0000
G01 A3.2143 X0.0000
G01 A3.2142 X0.0000
G01 A3.2143 X0.0000
G01 A3.2143 X0.0000
G01 A3.2143 X0.0000
G01 A3.2143 X0.0000
G01 A3.2143 X0.0000
G01 A3.2143 X0.0000
G01 A3.2143 X0.0000
G01 A3.2143 X0.0000
G01 A3.2143 X0.0000
G01 A3.2142 X0.0000
G01 A3.2143 X0.0000
G01 A3.2143 X0.0000
G01 A3.2143 X0.0000
G01 A3.2143 X0.0000
G01 A3.2143 X0.0000
G01 A3.2143 X0.0000
G01 A3.2143 X0.0000
G01 A3.2143 X0.0000
G01 A3.2143 X0.0000
G01 A3.2142 X0.0010
G01 A3.2143 X-0.0010
G01 A3.2143 X0.0000
G01 A3.2143 X0.0000
G01 A3.2143 X0.0000
G01 A3.2143 X0.0000
G01 A3.2143 X0.0000
G01 A3.2143 X0.0000
G01 A3.2143 X0.0000
G01 A3.2143 X0.0000
G01 A3.2142 X0.0000
G01 A3.2143 X0.0000
G01 A3.2143 X0.0000
G01 A3.2143 X0.0000
G01 A3.2143 X0.0000
G01 A3.2143 X0.0000
G01 A3.2143 X0.0000
G01 A3.2143 X0.0000
G01 A3.2143 X0.0000
G01 A3.2143 X0.0000
G01 A3.2142 X0.0000
G01 A3.2143 X0.0000
G01 A3.2143 X0.0000
G01 A3.2143 X0.0000
G01 A3.2143 X0.0000
G01 A3.2143 X0.0000
G01 A3.2143 X0.0000
G01 A3.2143 X0.0000
G01 A3.2143 X0.0000
G01 A3.2143 X0.0000
G01 A3.2142 X0.0000
G01 A3.2143 X0.0000
G01 A3.2143 X0.0000
G01 A3.2143 X0.0000
G01 A3.2143 X0.0000
G01 A3.2143 X0.0000
G01 A3.2143 X0.0000
G01 A3.2143 X0.0000
G01 A3.2143 X0.0000
G01 A3.2143 X0.0000
G01 A3.2142 X0.0000
G01 A3.2143 X0.0000
G01 A3.2143 X0.0000
G01 A3.2143 X0.0000
G01 A3.2143 X0.0000
G01 A3.2143 X0.0000
G01 A3.2143 X0.0000
G01 A3.2143 X0.0000
G01 A3.2143 X0.0000
G01 A3.2143 X0.0000
G01 A3.2142 X0.0000
G01 A3.2143 X0.0000
G01 A3.2143 X0.0000
G01 A3.2143 X0.0000
G01 A3.2143 X0.0000
G01 A3.2143 X0.0000
G94
G90
;End2 - End
G00 Z4.0000
M16
G00 Z4.0000
(PIECE COMPLETE)
M25
(PIECE 5: A2001 START=80.000 LEN=20.000)
G90
G92 X0.0
G00 X80.0000
M00
(ROTATIONAL OFFSET: 0.000)
(END1 FLAT: N)
G01 X-0.0010 F#29001
G01 X0.0002 F#29001
M15
;End1 - Start (cope)
(END GEOMETRY: angle=0.000 join_dia=0.000 od=3.000)
G00 Z4.0000
G00 Z2.0000
G91
G01 G93.1 F#29002
G01 A3.2143 X-0.0010
G01 A3.2143 X0.0000
G01 A3.2143 X0.0000
G01 A3.2143 X0.0000
G01 A3.2142 X0.0000
G01 A3.2143 X0.0000
G01 A3.2143 X0.0000
G01 A3.2143 X0.0000
G01 A3.2143 X0.0000
G01 A3.2143 X0.0000
G01 A3.2143 X0.0000
G01 A3.2143 X0.0000
G01 A3.2143 X0.0000
G01 A3.2143 X0.0000
G01 A3.2142 X0.0000
G01 A3.2143 X0.0000
G01 A3.2143 X0.0000
G01 A3.2143 X0.0000
G01 A3.2143 X0.0000
G01 A3.2143 X0.0000
G01 A3.2143 X0.0000
G01 A3.2143 X0.0000
G01 A3.2143 X0.0000
G01 A3.2143 X0.0000
G01 A3.2143 X0.0000
G01 A3.2142 X0.0000
G01 A3.2143 X0.0000
G01 A3.2143 X0.0000
G01 A3.2143 X0.0000
G01 A3.2143 X0.0000
G01 A3.2143 X0.0000
G01 A3.2143 X0.0000
G01 A3.2143 X0.0000
G01 A3.2143 X0.0000
G01 A3.2143 X0.0000
G01 A3.2142 X0.0000
G01 A3.2143 X0.0000
G01 A3.2143 X0.0000
G01 A3.2143 X0.0000
G01 A3.2143 X0.0000
G01 A3.2143 X0.0000
G01 A3.2143 X0.0000
G01 A3.2143 X0.0000
G01 A3.2143 X0.0000
G01 A3.2143 X0.0000
G01 A3.2142 X0.0000
G01 A3.2143 X0.0000
G01 A3.2143 X0.0000
G01 A3.2143 X0.0000
G01 A3.2143 X0.0000
G01 A3.2143 X0.0000
G01 A3.2143 X0.0000
G01 A3.2143 X0.0000
G01 A3.2143 X0.0000
G01 A3.2143 X0.0000
G01 A3.2142 X0.0010
G01 A3.2143 X-0.0010
G01 A3.2143 X0.0000
G01 A3.2143 X0.0000
G01 A3.2143 X0.0000
G01 A3.2143 X0.0000
G01 A3.2143 X0.0000
G01 A3.2143 X0.0000
G01 A3.2143 X0.0000
G01 A3.2143 X0.0000
G01 A3.2142 X0.0000
G01 A3.2143 X0.0000
G01 A3.2143 X0.0000
G01 A3.2143 X0.0000
G01 A3.2143 X0.0000
G01 A3.2143 X0.0000
G01 A3.2143 X0.0000
G01 A3.2143 X0.0000
G01 A3.2143 X0.0000
G01 A3.2143 X0.0000
G01 A3.2142 X0.0000
G01 A3.2143 X0.0000
G01 A3.2143 X0.0000
G01 A3.2143 X0.0000
G01 A3.2143 X0.0000
G01 A3.2143 X0.0000
G01 A3.2143 X0.0000
G01 A3.2143 X0.0000
G01 A3.2143 X0.0000
G01 A3.2143 X0.0000
G01 A3.2142 X0.0000
G01 A3.2143 X0.0000
G01 A3.2143 X0.0000
G01 A3.2143 X0.0000
G01 A3.2143 X0.0000
G01 A3.2143 X0.0000
G01 A3.2143 X0.0000
G01 A3.2143 X0.0000
G01 A3.2143 X0.0000
G01 A3.2143 X0.0000
G01 A3.2142 X0.0000
G01 A3.2143 X0.0000
G01 A3.2143 X0.0000
G01 A3.2143 X0.0000
G01 A3.2143 X0.0000
G01 A3.2143 X0.0000
G01 A3.2143 X0.0000
G01 A3.2143 X0.0000
G01 A3.2143 X0.0000
G01 A3.2143 X0.0000
G01 A3.2142 X0.0000
G01 A3.2143 X0.0000
G01 A3.2143 X0.0000
G01 A3.2143 X0.0000
G01 A3.2143 X0.0000
G01 A3.2143 X0.0000
G94
G90
;End1 - End
G00 Z4.0000
M16
;End1->End2 Reposition
G91
G01 X20.0012 F#29001
G90
G00 A0.0000
G00 Z2.0000
(END2 FLAT: N)
G01 X-0.0010 F#29001
G01 X0.0002 F#29001
M15
;End2 - Start (cope)
(END GEOMETRY: angle=45.000 join_dia=0.000 od=3.000)
G00 Z4.0000
G00 Z2.0000
G91
G01 G93.1 F#29002
G01 A3.2143 X-0.0010
G01 A3.2143 X0.0000
G01 A3.2143 X0.0000
G01 A3.2143 X0.0000
G01 A3.2142 X0.0000
G01 A3.2143 X0.0000
G01 A3.2143 X0.0000
G01 A3.2143 X0.0000
G01 A3.2143 X0.0000
G01 A3.2143 X0.0000
G01 A3.2143 X0.0000
G01 A3.2143 X0.0000
G01 A3.2143 X0.0000
G01 A3.2143 X0.0000
G01 A3.2142 X0.0000
G01 A3.2143 X0.0000
G01 A3.2143 X0.0000
G01 A3.2143 X0.0000
G01 A3.2143 X0.0000
G01 A3.2143 X0.0000
G01 A3.2143 X0.0000
G01 A3.2143 X0.0000
G01 A3.2143 X0.0000
G01 A3.2143 X0.0000
G01 A3.2143 X0.0000
G01 A3.2142 X0.0000
G01 A3.2143 X0.0000
G01 A3.2143 X0.0000
G01 A3.2143 X0.0000
G01 A3.2143 X0.0000
G01 A3.2143 X0.0000
G01 A3.2143 X0.0000
G01 A3.2143 X0.0000
G01 A3.2143 X0.0000
G01 A3.2143 X0.0000
G01 A3.2142 X0.0000
G01 A3.2143 X0.0000
G01 A3.2143 X0.0000
G01 A3.2143 X0.0000
G01 A3.2143 X0.0000
G01 A3.2143 X0.0000
G01 A3.2143 X0.0000
G01 A3.2143 X0.0000
G01 A3.2143 X0.0000
G01 A3.2143 X0.0000
G01 A3.2142 X0.0000
G01 A3.2143 X0.0000
G01 A3.2143 X0.0000
G01 A3.2143 X0.0000
G01 A3.2143 X0.0000
G01 A3.2143 X0.0000
G01 A3.2143 X0.0000
G01 A3.2143 X0.0000
G01 A3.2143 X0.0000
G01 A3.2143 X0.0000
G01 A3.2142 X0.0010
G01 A3.2143 X-0.0010
G01 A3.2143 X0.0000
G01 A3.2143 X0.0000
G01 A3.2143 X0.0000
G01 A3.2143 X0.0000
G01 A3.2143 X0.0000
G01 A3.2143 X0.0000
G01 A3.2143 X0.0000
G01 A3.2143 X0.0000
G01 A3.2142 X0.0000
G01 A3.2143 X0.0000
G01 A3.2143 X0.0000
G01 A3.2143 X0.0000
G01 A3.2143 X0.0000
G01 A3.2143 X0.0000
G01 A3.2143 X0.0000
G01 A3.2143 X0.0000
G01 A3.2143 X0.0000
G01 A3.2143 X0.0000
G01 A3.2142 X0.0000
G01 A3.2143 X0.0000
G01 A3.2143 X0.0000
G01 A3.2143 X0.0000
G01 A3.2143 X0.0000
G01 A3.2143 X0.0000
G01 A3.2143 X0.0000
G01 A3.2143 X0.0000
G01 A3.2143 X0.0000
G01 A3.2143 X0.0000
G01 A3.2142 X0.0000
G01 A3.2143 X0.0000
G01 A3.2143 X0.0000
G01 A3.2143 X0.0000
G01 A3.2143 X0.0000
G01 A3.2143 X0.0000
G01 A3.2143 X0.0000
G01 A3.2143 X0.0000
G01 A3.2143 X0.0000
G01 A3.2143 X0.0000
G01 A3.2142 X0.0000
G01 A3.2143 X0.0000
G01 A3.2143 X0.0000
G01 A3.2143 X0.0000
G01 A3.2143 X0.0000
G01 A3.2143 X0.0000
G01 A3.2143 X0.0000
G01 A3.2143 X0.0000
G01 A3.2143 X0.0000
G01 A3.2143 X0.0000
G01 A3.2142 X0.0000
G01 A3.2143 X0.0000
G01 A3.2143 X0.0000
G01 A3.2143 X0.0000
G01 A3.2143 X0.0000
G01 A3.2143 X0.0000
G94
G90
;End2 - End
G00 Z4.0000
M16
G00 Z4.0000
(PIECE COMPLETE)
M25
(PIECE 6: A2001 START=100.000 LEN=20.000)
G90
G92 X0.0
G00 X100.0000
M00
(ROTATIONAL OFFSET: 0.000)
(END1 FLAT: N)
G01 X-0.0010 F#29001
G01 X0.0002 F#29001
M15
;End1 - Start (cope)
(END GEOMETRY: angle=0.000 join_dia=0.000 od=3.000)
G00 Z4.0000
G00 Z2.0000
G91
G01 G93.1 F#29002
G01 A3.2143 X-0.0010
G01 A3.2143 X0.0000
G01 A3.2143 X0.0000
G01 A3.2143 X0.0000
G01 A3.2142 X0.0000
G01 A3.2143 X0.0000
G01 A3.2143 X0.0000
G01 A3.2143 X0.0000
G01 A3.2143 X0.0000
G01 A3.2143 X0.0000
G01 A3.2143 X0.0000
G01 A3.2143 X0.0000
G01 A3.2143 X0.0000
G01 A3.2143 X0.0000
G01 A3.2142 X0.0000
G01 A3.2143 X0.0000
G01 A3.2143 X0.0000
G01 A3.2143 X0.0000
G01 A3.2143 X0.0000
G01 A3.2143 X0.0000
G01 A3.2143 X0.0000
G01 A3.2143 X0.0000
G01 A3.2143 X0.0000
G01 A3.2143 X0.0000
G01 A3.2143 X0.0000
G01 A3.2142 X0.0000
G01 A3.2143 X0.0000
G01 A3.2143 X0.0000
G01 A3.2143 X0.0000
G01 A3.2143 X0.0000
G01 A3.2143 X0.0000
G01 A3.2143 X0.0000
G01 A3.2143 X0.0000
G01 A3.2143 X0.0000
G01 A3.2143 X0.0000
G01 A3.2142 X0.0000
G01 A3.2143 X0.0000
G01 A3.2143 X0.0000
G01 A3.2143 X0.0000
G01 A3.2143 X0.0000
G01 A3.2143 X0.0000
G01 A3.2143 X0.0000
G01 A3.2143 X0.0000
G01 A3.2143 X0.0000
G01 A3.2143 X0.0000
G01 A3.2142 X0.0000
G01 A3.2143 X0.0000
G01 A3.2143 X0.0000
G01 A3.2143 X0.0000
G01 A3.2143 X0.0000
G01 A3.2143 X0.0000
G01 A3.2143 X0.0000
G01 A3.2143 X0.0000
G01 A3.2143 X0.0000
G01 A3.2143 X0.0000
G01 A3.2142 X0.0010
G01 A3.2143 X-0.0010
G01 A3.2143 X0.0000
G01 A3.2143 X0.0000
G01 A3.2143 X0.0000
G01 A3.2143 X0.0000
G01 A3.2143 X0.0000
G01 A3.2143 X0.0000
G01 A3.2143 X0.0000
G01 A3.2143 X0.0000
G01 A3.2142 X0.0000
G01 A3.2143 X0.0000
G01 A3.2143 X0.0000
G01 A3.2143 X0.0000
G01 A3.2143 X0.0000
G01 A3.2143 X0.0000
G01 A3.2143 X0.0000
G01 A3.2143 X0.0000
G01 A3.2143 X0.0000
G01 A3.2143 X0.0000
G01 A3.2142 X0.0000
G01 A3.2143 X0.0000
G01 A3.2143 X0.0000
G01 A3.2143 X0.0000
G01 A3.2143 X0.0000
G01 A3.2143 X0.0000
G01 A3.2143 X0.0000
G01 A3.2143 X0.0000
G01 A3.2143 X0.0000
G01 A3.2143 X0.0000
G01 A3.2142 X0.0000
G01 A3.2143 X0.0000
G01 A3.2143 X0.0000
G01 A3.2143 X0.0000
G01 A3.2143 X0.0000
G01 A3.2143 X0.0000
G01 A3.2143 X0.0000
G01 A3.2143 X0.0000
G01 A3.2143 X0.0000
G01 A3.2143 X0.0000
G01 A3.2142 X0.0000
G01 A3.2143 X0.0000
G01 A3.2143 X0.0000
G01 A3.2143 X0.0000
G01 A3.2143 X0.0000
G01 A3.2143 X0.0000
G01 A3.2143 X0.0000
G01 A3.2143 X0.0000
G01 A3.2143 X0.0000
G01 A3.2143 X0.0000
G01 A3.2142 X0.0000
G01 A3.2143 X0.0000
G01 A3.2143 X0.0000
G01 A3.2143 X0.0000
G01 A3.2143 X0.0000
G01 A3.2143 X0.0000
G94
G90
;End1 - End
G00 Z4.0000
M16
;End1->End2 Reposition
G91
G01 X20.0012 F#29001
G90
G00 A0.0000
G00 Z2.0000
(END2 FLAT: N)
G01 X-0.0010 F#29001
G01 X0.0002 F#29001
M15
;End2 - Start (cope)
(END GEOMETRY: angle=45.000 join_dia=0.000 od=3.000)
G00 Z4.0000
G00 Z2.0000
G91
G01 G93.1 F#29002
G01 A3.2143 X-0.0010
G01 A3.2143 X0.0000
G01 A3.2143 X0.0000
G01 A3.2143 X0.0000
G01 A3.2142 X0.0000
G01 A3.2143 X0.0000
G01 A3.2143 X0.0000
G01 A3.2143 X0.0000
G01 A3.2143 X0.0000
G01 A3.2143 X0.0000
G01 A3.2143 X0.0000
G01 A3.2143 X0.0000
G01 A3.2143 X0.0000
G01 A3.2143 X0.0000
G01 A3.2142 X0.0000
G01 A3.2143 X0.0000
G01 A3.2143 X0.0000
G01 A3.2143 X0.0000
G01 A3.2143 X0.0000
G01 A3.2143 X0.0000
G01 A3.2143 X0.0000
G01 A3.2143 X0.0000
G01 A3.2143 X0.0000
G01 A3.2143 X0.0000
G01 A3.2143 X0.0000
G01 A3.2142 X0.0000
G01 A3.2143 X0.0000
G01 A3.2143 X0.0000
G01 A3.2143 X0.0000
G01 A3.2143 X0.0000
G01 A3.2143 X0.0000
G01 A3.2143 X0.0000
G01 A3.2143 X0.0000
G01 A3.2143 X0.0000
G01 A3.2143 X0.0000
G01 A3.2142 X0.0000
G01 A3.2143 X0.0000
G01 A3.2143 X0.0000
G01 A3.2143 X0.0000
G01 A3.2143 X0.0000
G01 A3.2143 X0.0000
G01 A3.2143 X0.0000
G01 A3.2143 X0.0000
G01 A3.2143 X0.0000
G01 A3.2143 X0.0000
G01 A3.2142 X0.0000
G01 A3.2143 X0.0000
G01 A3.2143 X0.0000
G01 A3.2143 X0.0000
G01 A3.2143 X0.0000
G01 A3.2143 X0.0000
G01 A3.2143 X0.0000
G01 A3.2143 X0.0000
G01 A3.2143 X0.0000
G01 A3.2143 X0.0000
G01 A3.2142 X0.0010
G01 A3.2143 X-0.0010
G01 A3.2143 X0.0000
G01 A3.2143 X0.0000
G01 A3.2143 X0.0000
G01 A3.2143 X0.0000
G01 A3.2143 X0.0000
G01 A3.2143 X0.0000
G01 A3.2143 X0.0000
G01 A3.2143 X0.0000
G01 A3.2142 X0.0000
G01 A3.2143 X0.0000
G01 A3.2143 X0.0000
G01 A3.2143 X0.0000
G01 A3.2143 X0.0000
G01 A3.2143 X0.0000
G01 A3.2143 X0.0000
G01 A3.2143 X0.0000
G01 A3.2143 X0.0000
G01 A3.2143 X0.0000
G01 A3.2142 X0.0000
G01 A3.2143 X0.0000
G01 A3.2143 X0.0000
G01 A3.2143 X0.0000
G01 A3.2143 X0.0000
G01 A3.2143 X0.0000
G01 A3.2143 X0.0000
G01 A3.2143 X0.0000
G01 A3.2143 X0.0000
G01 A3.2143 X0.0000
G01 A3.2142 X0.0000
G01 A3.2143 X0.0000
G01 A3.2143 X0.0000
G01 A3.2143 X0.0000
G01 A3.2143 X0.0000
G01 A3.2143 X0.0000
G01 A3.2143 X0.0000
G01 A3.2143 X0.0000
G01 A3.2143 X0.0000
G01 A3.2143 X0.0000
G01 A3.2142 X0.0000
G01 A3.2143 X0.0000
G01 A3.2143 X0.0000
G01 A3.2143 X0.0000
G01 A3.2143 X0.0000
G01 A3.2143 X0.0000
G01 A3.2143 X0.0000
G01 A3.2143 X0.0000
G01 A3.2143 X0.0000
G01 A3.2143 X0.0000
G01 A3.2142 X0.0000
G01 A3.2143 X0.0000
G01 A3.2143 X0.0000
G01 A3.2143 X0.0000
G01 A3.2143 X0.0000
G01 A3.2143 X0.0000
G94
G90
;End2 - End
G00 Z4.0000
M16
G00 Z4.0000
(PIECE COMPLETE)
M25
(PIECE 7: A2001 START=120.000 LEN=20.000)
G90
G92 X0.0
G00 X120.0000
M00
(ROTATIONAL OFFSET: 0.000)
(END1 FLAT: N)
G01 X-0.0010 F#29001
G01 X0.0002 F#29001
M15
;End1 - Start (cope)
(END GEOMETRY: angle=0.000 join_dia=0.000 od=3.000)
G00 Z4.0000
G00 Z2.0000
G91
G01 G93.1 F#29002
G01 A3.2143 X-0.0010
G01 A3.2143 X0.0000
G01 A3.2143 X0.0000
G01 A3.2143 X0.0000
G01 A3.2142 X0.0000
G01 A3.2143 X0.0000
G01 A3.2143 X0.0000
G01 A3.2143 X0.0000
G01 A3.2143 X0.0000
G01 A3.2143 X0.0000
G01 A3.2143 X0.0000
G01 A3.2143 X0.0000
G01 A3.2143 X0.0000
G01 A3.2143 X0.0000
G01 A3.2142 X0.0000
G01 A3.2143 X0.0000
G01 A3.2143 X0.0000
G01 A3.2143 X0.0000
G01 A3.2143 X0.0000
G01 A3.2143 X0.0000
G01 A3.2143 X0.0000
G01 A3.2143 X0.0000
G01 A3.2143 X0.0000
G01 A3.2143 X0.0000
G01 A3.2143 X0.0000
G01 A3.2142 X0.0000
G01 A3.2143 X0.0000
G01 A3.2143 X0.0000
G01 A3.2143 X0.0000
G01 A3.2143 X0.0000
G01 A3.2143 X0.0000
G01 A3.2143 X0.0000
G01 A3.2143 X0.0000
G01 A3.2143 X0.0000
G01 A3.2143 X0.0000
G01 A3.2142 X0.0000
G01 A3.2143 X0.0000
G01 A3.2143 X0.0000
G01 A3.2143 X0.0000
G01 A3.2143 X0.0000
G01 A3.2143 X0.0000
G01 A3.2143 X0.0000
G01 A3.2143 X0.0000
G01 A3.2143 X0.0000
G01 A3.2143 X0.0000
G01 A3.2142 X0.0000
G01 A3.2143 X0.0000
G01 A3.2143 X0.0000
G01 A3.2143 X0.0000
G01 A3.2143 X0.0000
G01 A3.2143 X0.0000
G01 A3.2143 X0.0000
G01 A3.2143 X0.0000
G01 A3.2143 X0.0000
G01 A3.2143 X0.0000
G01 A3.2142 X0.0010
G01 A3.2143 X-0.0010
G01 A3.2143 X0.0000
G01 A3.2143 X0.0000
G01 A3.2143 X0.0000
G01 A3.2143 X0.0000
G01 A3.2143 X0.0000
G01 A3.2143 X0.0000
G01 A3.2143 X0.0000
G01 A3.2143 X0.0000
G01 A3.2142 X0.0000
G01 A3.2143 X0.0000
G01 A3.2143 X0.0000
G01 A3.2143 X0.0000
G01 A3.2143 X0.0000
G01 A3.2143 X0.0000
G01 A3.2143 X0.0000
G01 A3.2143 X0.0000
G01 A3.2143 X0.0000
G01 A3.2143 X0.0000
G01 A3.2142 X0.0000
G01 A3.2143 X0.0000
G01 A3.2143 X0.0000
G01 A3.2143 X0.0000
G01 A3.2143 X0.0000
G01 A3.2143 X0.0000
G01 A3.2143 X0.0000
G01 A3.2143 X0.0000
G01 A3.2143 X0.0000
G01 A3.2143 X0.0000
G01 A3.2142 X0.0000
G01 A3.2143 X0.0000
G01 A3.2143 X0.0000
G01 A3.2143 X0.0000
G01 A3.2143 X0.0000
G01 A3.2143 X0.0000
G01 A3.2143 X0.0000
G01 A3.2143 X0.0000
G01 A3.2143 X0.0000
G01 A3.2143 X0.0000
G01 A3.2142 X0.0000
G01 A3.2143 X0.0000
G01 A3.2143 X0.0000
G01 A3.2143 X0.0000
G01 A3.2143 X0.0000
G01 A3.2143 X0.0000
G01 A3.2143 X0.0000
G01 A3.2143 X0.0000
G01 A3.2143 X0.0000
G01 A3.2143 X0.0000
G01 A3.2142 X0.0000
G01 A3.2143 X0.0000
G01 A3.2143 X0.0000
G01 A3.2143 X0.0000
G01 A3.2143 X0.0000
G01 A3.2143 X0.0000
G94
G90
;End1 - End
G00 Z4.0000
M16
;End1->End2 Reposition
G91
G01 X20.0012 F#29001
G90
G00 A0.0000
G00 Z2.0000
(END2 FLAT: N)
G01 X-0.0010 F#29001
G01 X0.0002 F#29001
M15
;End2 - Start (cope)
(END GEOMETRY: angle=45.000 join_dia=0.000 od=3.000)
G00 Z4.0000
G00 Z2.0000
G91
G01 G93.1 F#29002
G01 A3.2143 X-0.0010
G01 A3.2143 X0.0000
G01 A3.2143 X0.0000
G01 A3.2143 X0.0000
G01 A3.2142 X0.0000
G01 A3.2143 X0.0000
G01 A3.2143 X0.0000
G01 A3.2143 X0.0000
G01 A3.2143 X0.0000
G01 A3.2143 X0.0000
G01 A3.2143 X0.0000
G01 A3.2143 X0.0000
G01 A3.2143 X0.0000
G01 A3.2143 X0.0000
G01 A3.2142 X0.0000
G01 A3.2143 X0.0000
G01 A3.2143 X0.0000
G01 A3.2143 X0.0000
G01 A3.2143 X0.0000
G01 A3.2143 X0.0000
G01 A3.2143 X0.0000
G01 A3.2143 X0.0000
G01 A3.2143 X0.0000
G01 A3.2143 X0.0000
G01 A3.2143 X0.0000
G01 A3.2142 X0.0000
G01 A3.2143 X0.0000
G01 A3.2143 X0.0000
G01 A3.2143 X0.0000
G01 A3.2143 X0.0000
G01 A3.2143 X0.0000
G01 A3.2143 X0.0000
G01 A3.2143 X0.0000
G01 A3.2143 X0.0000
G01 A3.2143 X0.0000
G01 A3.2142 X0.0000
G01 A3.2143 X0.0000
G01 A3.2143 X0.0000
G01 A3.2143 X0.0000
G01 A3.2143 X0.0000
G01 A3.2143 X0.0000
G01 A3.2143 X0.0000
G01 A3.2143 X0.0000
G01 A3.2143 X0.0000
G01 A3.2143 X0.0000
G01 A3.2142 X0.0000
G01 A3.2143 X0.0000
G01 A3.2143 X0.0000
G01 A3.2143 X0.0000
G01 A3.2143 X0.0000
G01 A3.2143 X0.0000
G01 A3.2143 X0.0000
G01 A3.2143 X0.0000
G01 A3.2143 X0.0000
G01 A3.2143 X0.0000
G01 A3.2142 X0.0010
G01 A3.2143 X-0.0010
G01 A3.2143 X0.0000
G01 A3.2143 X0.0000
G01 A3.2143 X0.0000
G01 A3.2143 X0.0000
G01 A3.2143 X0.0000
G01 A3.2143 X0.0000
G01 A3.2143 X0.0000
G01 A3.2143 X0.0000
G01 A3.2142 X0.0000
G01 A3.2143 X0.0000
G01 A3.2143 X0.0000
G01 A3.2143 X0.0000
G01 A3.2143 X0.0000
G01 A3.2143 X0.0000
G01 A3.2143 X0.0000
G01 A3.2143 X0.0000
G01 A3.2143 X0.0000
G01 A3.2143 X0.0000
G01 A3.2142 X0.0000
G01 A3.2143 X0.0000
G01 A3.2143 X0.0000
G01 A3.2143 X0.0000
G01 A3.2143 X0.0000
G01 A3.2143 X0.0000
G01 A3.2143 X0.0000
G01 A3.2143 X0.0000
G01 A3.2143 X0.0000
G01 A3.2143 X0.0000
G01 A3.2142 X0.0000
G01 A3.2143 X0.0000
G01 A3.2143 X0.0000
G01 A3.2143 X0.0000
G01 A3.2143 X0.0000
G01 A3.2143 X0.0000
G01 A3.2143 X0.0000
G01 A3.2143 X0.0000
G01 A3.2143 X0.0000
G01 A3.2143 X0.0000
G01 A3.2142 X0.0000
G01 A3.2143 X0.0000
G01 A3.2143 X0.0000
G01 A3.2143 X0.0000
G01 A3.2143 X0.0000
G01 A3.2143 X0.0000
G01 A3.2143 X0.0000
G01 A3.2143 X0.0000
G01 A3.2143 X0.0000
G01 A3.2143 X0.0000
G01 A3.2142 X0.0000
G01 A3.2143 X0.0000
G01 A3.2143 X0.0000
G01 A3.2143 X0.0000
G01 A3.2143 X0.0000
G01 A3.2143 X0.0000
G94
G90
;End2 - End
G00 Z4.0000
M16
G00 Z4.0000
(PIECE COMPLETE)
M25
(PIECE 8: A2001 START=140.000 LEN=20.000)
G90
G92 X0.0
G00 X140.0000
M00
(ROTATIONAL OFFSET: 0.000)
(END1 FLAT: N)
G01 X-0.0010 F#29001
G01 X0.0002 F#29001
M15
;End1 - Start (cope)
(END GEOMETRY: angle=0.000 join_dia=0.000 od=3.000)
G00 Z4.0000
G00 Z2.0000
G91
G01 G93.1 F#29002
G01 A3.2143 X-0.0010
G01 A3.2143 X0.0000
G01 A3.2143 X0.0000
G01 A3.2143 X0.0000
G01 A3.2142 X0.0000
G01 A3.2143 X0.0000
G01 A3.2143 X0.0000
G01 A3.2143 X0.0000
G01 A3.2143 X0.0000
G01 A3.2143 X0.0000
G01 A3.2143 X0.0000
G01 A3.2143 X0.0000
G01 A3.2143 X0.0000
G01 A3.2143 X0.0000
G01 A3.2142 X0.0000
G01 A3.2143 X0.0000
G01 A3.2143 X0.0000
G01 A3.2143 X0.0000
G01 A3.2143 X0.0000
G01 A3.2143 X0.0000
G01 A3.2143 X0.0000
G01 A3.2143 X0.0000
G01 A3.2143 X0.0000
G01 A3.2143 X0.0000
G01 A3.2143 X0.0000
G01 A3.2142 X0.0000
G01 A3.2143 X0.0000
G01 A3.2143 X0.0000
G01 A3.2143 X0.0000
G01 A3.2143 X0.0000
G01 A3.2143 X0.0000
G01 A3.2143 X0.0000
G01 A3.2143 X0.0000
G01 A3.2143 X0.0000
G01 A3.2143 X0.0000
G01 A3.2142 X0.0000
G01 A3.2143 X0.0000
G01 A3.2143 X0.0000
G01 A3.2143 X0.0000
G01 A3.2143 X0.0000
G01 A3.2143 X0.0000
G01 A3.2143 X0.0000
G01 A3.2143 X0.0000
G01 A3.2143 X0.0000
G01 A3.2143 X0.0000
G01 A3.2142 X0.0000
G01 A3.2143 X0.0000
G01 A3.2143 X0.0000
G01 A3.2143 X0.0000
G01 A3.2143 X0.0000
G01 A3.2143 X0.0000
G01 A3.2143 X0.0000
G01 A3.2143 X0.0000
G01 A3.2143 X0.0000
G01 A3.2143 X0.0000
G01 A3.2142 X0.0010
G01 A3.2143 X-0.0010
G01 A3.2143 X0.0000
G01 A3.2143 X0.0000
G01 A3.2143 X0.0000
G01 A3.2143 X0.0000
G01 A3.2143 X0.0000
G01 A3.2143 X0.0000
G01 A3.2143 X0.0000
G01 A3.2143 X0.0000
G01 A3.2142 X0.0000
G01 A3.2143 X0.0000
G01 A3.2143 X0.0000
G01 A3.2143 X0.0000
G01 A3.2143 X0.0000
G01 A3.2143 X0.0000
G01 A3.2143 X0.0000
G01 A3.2143 X0.0000
G01 A3.2143 X0.0000
G01 A3.2143 X0.0000
G01 A3.2142 X0.0000
G01 A3.2143 X0.0000
G01 A3.2143 X0.0000
G01 A3.2143 X0.0000
G01 A3.2143 X0.0000
G01 A3.2143 X0.0000
G01 A3.2143 X0.0000
G01 A3.2143 X0.0000
G01 A3.2143 X0.0000
G01 A3.2143 X0.0000
G01 A3.2142 X0.0000
G01 A3.2143 X0.0000
G01 A3.2143 X0.0000
G01 A3.2143 X0.0000
G01 A3.2143 X0.0000
G01 A3.2143 X0.0000
G01 A3.2143 X0.0000
G01 A3.2143 X0.0000
G01 A3.2143 X0.0000
G01 A3.2143 X0.0000
G01 A3.2142 X0.0000
G01 A3.2143 X0.0000
G01 A3.2143 X0.0000
G01 A3.2143 X0.0000
G01 A3.2143 X0.0000
G01 A3.2143 X0.0000
G01 A3.2143 X0.0000
G01 A3.2143 X0.0000
G01 A3.2143 X0.0000
G01 A3.2143 X0.0000
G01 A3.2142 X0.0000
G01 A3.2143 X0.0000
G01 A3.2143 X0.0000
G01 A3.2143 X0.0000
G01 A3.2143 X0.0000
G01 A3.2143 X0.0000
G94
G90
;End1 - End
G00 Z4.0000
M16
;End1->End2 Reposition
G91
G01 X20.0012 F#29001
G90
G00 A0.0000
G00 Z2.0000
(END2 FLAT: N)
G01 X-0.0010 F#29001
G01 X0.0002 F#29001
M15
;End2 - Start (cope)
(END GEOMETRY: angle=45.000 join_dia=0.000 od=3.000)
G00 Z4.0000
G00 Z2.0000
G91
G01 G93.1 F#29002
G01 A3.2143 X-0.0010
G01 A3.2143 X0.0000
G01 A3.2143 X0.0000
G01 A3.2143 X0.0000
G01 A3.2142 X0.0000
G01 A3.2143 X0.0000
G01 A3.2143 X0.0000
G01 A3.2143 X0.0000
G01 A3.2143 X0.0000
G01 A3.2143 X0.0000
G01 A3.2143 X0.0000
G01 A3.2143 X0.0000
G01 A3.2143 X0.0000
G01 A3.2143 X0.0000
G01 A3.2142 X0.0000
G01 A3.2143 X0.0000
G01 A3.2143 X0.0000
G01 A3.2143 X0.0000
G01 A3.2143 X0.0000
G01 A3.2143 X0.0000
G01 A3.2143 X0.0000
G01 A3.2143 X0.0000
G01 A3.2143 X0.0000
G01 A3.2143 X0.0000
G01 A3.2143 X0.0000
G01 A3.2142 X0.0000
G01 A3.2143 X0.0000
G01 A3.2143 X0.0000
G01 A3.2143 X0.0000
G01 A3.2143 X0.0000
G01 A3.2143 X0.0000
G01 A3.2143 X0.0000
G01 A3.2143 X0.0000
G01 A3.2143 X0.0000
G01 A3.2143 X0.0000
G01 A3.2142 X0.0000
G01 A3.2143 X0.0000
G01 A3.2143 X0.0000
G01 A3.2143 X0.0000
G01 A3.2143 X0.0000
G01 A3.2143 X0.0000
G01 A3.2143 X0.0000
G01 A3.2143 X0.0000
G01 A3.2143 X0.0000
G01 A3.2143 X0.0000
G01 A3.2142 X0.0000
G01 A3.2143 X0.0000
G01 A3.2143 X0.0000
G01 A3.2143 X0.0000
G01 A3.2143 X0.0000
G01 A3.2143 X0.0000
G01 A3.2143 X0.0000
G01 A3.2143 X0.0000
G01 A3.2143 X0.0000
G01 A3.2143 X0.0000
G01 A3.2142 X0.0010
G01 A3.2143 X-0.0010
G01 A3.2143 X0.0000
G01 A3.2143 X0.0000
G01 A3.2143 X0.0000
G01 A3.2143 X0.0000
G01 A3.2143 X0.0000
G01 A3.2143 X0.0000
G01 A3.2143 X0.0000
G01 A3.2143 X0.0000
G01 A3.2142 X0.0000
G01 A3.2143 X0.0000
G01 A3.2143 X0.0000
G01 A3.2143 X0.0000
G01 A3.2143 X0.0000
G01 A3.2143 X0.0000
G01 A3.2143 X0.0000
G01 A3.2143 X0.0000
G01 A3.2143 X0.0000
G01 A3.2143 X0.0000
G01 A3.2142 X0.0000
G01 A3.2143 X0.0000
G01 A3.2143 X0.0000
G01 A3.2143 X0.0000
G01 A3.2143 X0.0000
G01 A3.2143 X0.0000
G01 A3.2143 X0.0000
G01 A3.2143 X0.0000
G01 A3.2143 X0.0000
G01 A3.2143 X0.0000
G01 A3.2142 X0.0000
G01 A3.2143 X0.0000
G01 A3.2143 X0.0000
G01 A3.2143 X0.0000
G01 A3.2143 X0.0000
G01 A3.2143 X0.0000
G01 A3.2143 X0.0000
G01 A3.2143 X0.0000
G01 A3.2143 X0.0000
G01 A3.2143 X0.0000
G01 A3.2142 X0.0000
G01 A3.2143 X0.0000
G01 A3.2143 X0.0000
G01 A3.2143 X0.0000
G01 A3.2143 X0.0000
G01 A3.2143 X0.0000
G01 A3.2143 X0.0000
G01 A3.2143 X0.0000
G01 A3.2143 X0.0000
G01 A3.2143 X0.0000
G01 A3.2142 X0.0000
G01 A3.2143 X0.0000
G01 A3.2143 X0.0000
G01 A3.2143 X0.0000
G01 A3.2143 X0.0000
G01 A3.2143 X0.0000
G94
G90
;End2 - End
G00 Z4.0000
M16
G00 Z4.0000
(PIECE COMPLETE)
M25
(PIECE 9: A2001 START=160.000 LEN=20.000)
G90
G92 X0.0
G00 X160.0000
M00
(ROTATIONAL OFFSET: 0.000)
(END1 FLAT: N)
G01 X-0.0010 F#29001
G01 X0.0002 F#29001
M15
;End1 - Start (cope)
(END GEOMETRY: angle=0.000 join_dia=0.000 od=3.000)
G00 Z4.0000
G00 Z2.0000
G91
G01 G93.1 F#29002
G01 A3.2143 X-0.0010
G01 A3.2143 X0.0000
G01 A3.2143 X0.0000
G01 A3.2143 X0.0000
G01 A3.2142 X0.0000
G01 A3.2143 X0.0000
G01 A3.2143 X0.0000
G01 A3.2143 X0.0000
G01 A3.2143 X0.0000
G01 A3.2143 X0.0000
G01 A3.2143 X0.0000
G01 A3.2143 X0.0000
G01 A3.2143 X0.0000
G01 A3.2143 X0.0000
G01 A3.2142 X0.0000
G01 A3.2143 X0.0000
G01 A3.2143 X0.0000
G01 A3.2143 X0.0000
G01 A3.2143 X0.0000
G01 A3.2143 X0.0000
G01 A3.2143 X0.0000
G01 A3.2143 X0.0000
G01 A3.2143 X0.0000
G01 A3.2143 X0.0000
G01 A3.2143 X0.0000
G01 A3.2142 X0.0000
G01 A3.2143 X0.0000
G01 A3.2143 X0.0000
G01 A3.2143 X0.0000
G01 A3.2143 X0.0000
G01 A3.2143 X0.0000
G01 A3.2143 X0.0000
G01 A3.2143 X0.0000
G01 A3.2143 X0.0000
G01 A3.2143 X0.0000
G01 A3.2142 X0.0000
G01 A3.2143 X0.0000
G01 A3.2143 X0.0000
G01 A3.2143 X0.0000
G01 A3.2143 X0.0000
G01 A3.2143 X0.0000
G01 A3.2143 X0.0000
G01 A3.2143 X0.0000
G01 A3.2143 X0.0000
G01 A3.2143 X0.0000
G01 A3.2142 X0.0000
G01 A3.2143 X0.0000
G01 A3.2143 X0.0000
G01 A3.2143 X0.0000
G01 A3.2143 X0.0000
G01 A3.2143 X0.0000
G01 A3.2143 X0.0000
G01 A3.2143 X0.0000
G01 A3.2143 X0.0000
G01 A3.2143 X0.0000
G01 A3.2142 X0.0010
G01 A3.2143 X-0.0010
G01 A3.2143 X0.0000
G01 A3.2143 X0.0000
G01 A3.2143 X0.0000
G01 A3.2143 X0.0000
G01 A3.2143 X0.0000
G01 A3.2143 X0.0000
G01 A3.2143 X0.0000
G01 A3.2143 X0.0000
G01 A3.2142 X0.0000
G01 A3.2143 X0.0000
G01 A3.2143 X0.0000
G01 A3.2143 X0.0000
G01 A3.2143 X0.0000
G01 A3.2143 X0.0000
G01 A3.2143 X0.0000
G01 A3.2143 X0.0000
G01 A3.2143 X0.0000
G01 A3.2143 X0.0000
G01 A3.2142 X0.0000
G01 A3.2143 X0.0000
G01 A3.2143 X0.0000
G01 A3.2143 X0.0000
G01 A3.2143 X0.0000
G01 A3.2143 X0.0000
G01 A3.2143 X0.0000
G01 A3.2143 X0.0000
G01 A3.2143 X0.0000
G01 A3.2143 X0.0000
G01 A3.2142 X0.0000
G01 A3.2143 X0.0000
G01 A3.2143 X0.0000
G01 A3.2143 X0.0000
G01 A3.2143 X0.0000
G01 A3.2143 X0.0000
G01 A3.2143 X0.0000
G01 A3.2143 X0.0000
G01 A3.2143 X0.0000
G01 A3.2143 X0.0000
G01 A3.2142 X0.0000
G01 A3.2143 X0.0000
G01 A3.2143 X0.0000
G01 A3.2143 X0.0000
G01 A3.2143 X0.0000
G01 A3.2143 X0.0000
G01 A3.2143 X0.0000
G01 A3.2143 X0.0000
G01 A3.2143 X0.0000
G01 A3.2143 X0.0000
G01 A3.2142 X0.0000
G01 A3.2143 X0.0000
G01 A3.2143 X0.0000
G01 A3.2143 X0.0000
G01 A3.2143 X0.0000
G01 A3.2143 X0.0000
G94
G90
;End1 - End
G00 Z4.0000
M16
;End1->End2 Reposition
G91
G01 X20.0012 F#29001
G90
G00 A0.0000
G00 Z2.0000
(END2 FLAT: N)
G01 X-0.0010 F#29001
G01 X0.0002 F#29001
M15
;End2 - Start (cope)
(END GEOMETRY: angle=45.000 join_dia=0.000 od=3.000)
G00 Z4.0000
G00 Z2.0000
G91
G01 G93.1 F#29002
G01 A3.2143 X-0.0010
G01 A3.2143 X0.0000
G01 A3.2143 X0.0000
G01 A3.2143 X0.0000
G01 A3.2142 X0.0000
G01 A3.2143 X0.0000
G01 A3.2143 X0.0000
G01 A3.2143 X0.0000
G01 A3.2143 X0.0000
G01 A3.2143 X0.0000
G01 A3.2143 X0.0000
G01 A3.2143 X0.0000
G01 A3.2143 X0.0000
G01 A3.2143 X0.0000
G01 A3.2142 X0.0000
G01 A3.2143 X0.0000
G01 A3.2143 X0.0000
G01 A3.2143 X0.0000
G01 A3.2143 X0.0000
G01 A3.2143 X0.0000
G01 A3.2143 X0.0000
G01 A3.2143 X0.0000
G01 A3.2143 X0.0000
G01 A3.2143 X0.0000
G01 A3.2143 X0.0000
G01 A3.2142 X0.0000
G01 A3.2143 X0.0000
G01 A3.2143 X0.0000
G01 A3.2143 X0.0000
G01 A3.2143 X0.0000
G01 A3.2143 X0.0000
G01 A3.2143 X0.0000
G01 A3.2143 X0.0000
G01 A3.2143 X0.0000
G01 A3.2143 X0.0000
G01 A3.2142 X0.0000
G01 A3.2143 X0.0000
G01 A3.2143 X0.0000
G01 A3.2143 X0.0000
G01 A3.2143 X0.0000
G01 A3.2143 X0.0000
G01 A3.2143 X0.0000
G01 A3.2143 X0.0000
G01 A3.2143 X0.0000
G01 A3.2143 X0.0000
G01 A3.2142 X0.0000
G01 A3.2143 X0.0000
G01 A3.2143 X0.0000
G01 A3.2143 X0.0000
G01 A3.2143 X0.0000
G01 A3.2143 X0.0000
G01 A3.2143 X0.0000
G01 A3.2143 X0.0000
G01 A3.2143 X0.0000
G01 A3.2143 X0.0000
G01 A3.2142 X0.0010
G01 A3.2143 X-0.0010
G01 A3.2143 X0.0000
G01 A3.2143 X0.0000
G01 A3.2143 X0.0000
G01 A3.2143 X0.0000
G01 A3.2143 X0.0000
G01 A3.2143 X0.0000
G01 A3.2143 X0.0000
G01 A3.2143 X0.0000
G01 A3.2142 X0.0000
G01 A3.2143 X0.0000
G01 A3.2143 X0.0000
G01 A3.2143 X0.0000
G01 A3.2143 X0.0000
G01 A3.2143 X0.0000
G01 A3.2143 X0.0000
G01 A3.2143 X0.0000
G01 A3.2143 X0.0000
G01 A3.2143 X0.0000
G01 A3.2142 X0.0000
G01 A3.2143 X0.0000
G01 A3.2143 X0.0000
G01 A3.2143 X0.0000
G01 A3.2143 X0.0000
G01 A3.2143 X0.0000
G01 A3.2143 X0.0000
G01 A3.2143 X0.0000
G01 A3.2143 X0.0000
G01 A3.2143 X0.0000
G01 A3.2142 X0.0000
G01 A3.2143 X0.0000
G01 A3.2143 X0.0000
G01 A3.2143 X0.0000
G01 A3.2143 X0.0000
G01 A3.2143 X0.0000
G01 A3.2143 X0.0000
G01 A3.2143 X0.0000
G01 A3.2143 X0.0000
G01 A3.2143 X0.0000
G01 A3.2142 X0.0000
G01 A3.2143 X0.0000
G01 A3.2143 X0.0000
G01 A3.2143 X0.0000
G01 A3.2143 X0.0000
G01 A3.2143 X0.0000
G01 A3.2143 X0.0000
G01 A3.2143 X0.0000
G01 A3.2143 X0.0000
G01 A3.2143 X0.0000
G01 A3.2142 X0.0000
G01 A3.2143 X0.0000
G01 A3.2143 X0.0000
G01 A3.2143 X0.0000
G01 A3.2143 X0.0000
G01 A3.2143 X0.0000
G94
G90
;End2 - End
G00 Z4.0000
M16
G00 Z4.0000
(PIECE COMPLETE)
M25
(PIECE 10: A2001 START=180.000 LEN=20.000)
G90
G92 X0.0
G00 X180.0000
M00
(ROTATIONAL OFFSET: 0.000)
(END1 FLAT: N)
G01 X-0.0010 F#29001
G01 X0.0002 F#29001
M15
;End1 - Start (cope)
(END GEOMETRY: angle=0.000 join_dia=0.000 od=3.000)
G00 Z4.0000
G00 Z2.0000
G91
G01 G93.1 F#29002
G01 A3.2143 X-0.0010
G01 A3.2143 X0.0000
G01 A3.2143 X0.0000
G01 A3.2143 X0.0000
G01 A3.2142 X0.0000
G01 A3.2143 X0.0000
G01 A3.2143 X0.0000
G01 A3.2143 X0.0000
G01 A3.2143 X0.0000
G01 A3.2143 X0.0000
G01 A3.2143 X0.0000
G01 A3.2143 X0.0000
G01 A3.2143 X0.0000
G01 A3.2143 X0.0000
G01 A3.2142 X0.0000
G01 A3.2143 X0.0000
G01 A3.2143 X0.0000
G01 A3.2143 X0.0000
G01 A3.2143 X0.0000
G01 A3.2143 X0.0000
G01 A3.2143 X0.0000
G01 A3.2143 X0.0000
G01 A3.2143 X0.0000
G01 A3.2143 X0.0000
G01 A3.2143 X0.0000
G01 A3.2142 X0.0000
G01 A3.2143 X0.0000
G01 A3.2143 X0.0000
G01 A3.2143 X0.0000
G01 A3.2143 X0.0000
G01 A3.2143 X0.0000
G01 A3.2143 X0.0000
G01 A3.2143 X0.0000
G01 A3.2143 X0.0000
G01 A3.2143 X0.0000
G01 A3.2142 X0.0000
G01 A3.2143 X0.0000
G01 A3.2143 X0.0000
G01 A3.2143 X0.0000
G01 A3.2143 X0.0000
G01 A3.2143 X0.0000
G01 A3.2143 X0.0000
G01 A3.2143 X0.0000
G01 A3.2143 X0.0000
G01 A3.2143 X0.0000
G01 A3.2142 X0.0000
G01 A3.2143 X0.0000
G01 A3.2143 X0.0000
G01 A3.2143 X0.0000
G01 A3.2143 X0.0000
G01 A3.2143 X0.0000
G01 A3.2143 X0.0000
G01 A3.2143 X0.0000
G01 A3.2143 X0.0000
G01 A3.2143 X0.0000
G01 A3.2142 X0.0010
G01 A3.2143 X-0.0010
G01 A3.2143 X0.0000
G01 A3.2143 X0.0000
G01 A3.2143 X0.0000
G01 A3.2143 X0.0000
G01 A3.2143 X0.0000
G01 A3.2143 X0.0000
G01 A3.2143 X0.0000
G01 A3.2143 X0.0000
G01 A3.2142 X0.0000
G01 A3.2143 X0.0000
G01 A3.2143 X0.0000
G01 A3.2143 X0.0000
G01 A3.2143 X0.0000
G01 A3.2143 X0.0000
G01 A3.2143 X0.0000
G01 A3.2143 X0.0000
G01 A3.2143 X0.0000
G01 A3.2143 X0.0000
G01 A3.2142 X0.0000
G01 A3.2143 X0.0000
G01 A3.2143 X0.0000
G01 A3.2143 X0.0000
G01 A3.2143 X0.0000
G01 A3.2143 X0.0000
G01 A3.2143 X0.0000
G01 A3.2143 X0.0000
G01 A3.2143 X0.0000
G01 A3.2143 X0.0000
G01 A3.2142 X0.0000
G01 A3.2143 X0.0000
G01 A3.2143 X0.0000
G01 A3.2143 X0.0000
G01 A3.2143 X0.0000
G01 A3.2143 X0.0000
G01 A3.2143 X0.0000
G01 A3.2143 X0.0000
G01 A3.2143 X0.0000
G01 A3.2143 X0.0000
G01 A3.2142 X0.0000
G01 A3.2143 X0.0000
G01 A3.2143 X0.0000
G01 A3.2143 X0.0000
G01 A3.2143 X0.0000
G01 A3.2143 X0.0000
G01 A3.2143 X0.0000
G01 A3.2143 X0.0000
G01 A3.2143 X0.0000
G01 A3.2143 X0.0000
G01 A3.2142 X0.0000
G01 A3.2143 X0.0000
G01 A3.2143 X0.0000
G01 A3.2143 X0.0000
G01 A3.2143 X0.0000
G01 A3.2143 X0.0000
G94
G90
;End1 - End
G00 Z4.0000
M16
;End1->End2 Reposition
G91
G01 X20.0012 F#29001
G90
G00 A0.0000
G00 Z2.0000
(END2 FLAT: N)
G01 X-0.0010 F#29001
G01 X0.0002 F#29001
M15
;End2 - Start (cope)
(END GEOMETRY: angle=45.000 join_dia=0.000 od=3.000)
G00 Z4.0000
G00 Z2.0000
G91
G01 G93.1 F#29002
G01 A3.2143 X-0.0010
G01 A3.2143 X0.0000
G01 A3.2143 X0.0000
G01 A3.2143 X0.0000
G01 A3.2142 X0.0000
G01 A3.2143 X0.0000
G01 A3.2143 X0.0000
G01 A3.2143 X0.0000
G01 A3.2143 X0.0000
G01 A3.2143 X0.0000
G01 A3.2143 X0.0000
G01 A3.2143 X0.0000
G01 A3.2143 X0.0000
G01 A3.2143 X0.0000
G01 A3.2142 X0.0000
G01 A3.2143 X0.0000
G01 A3.2143 X0.0000
G01 A3.2143 X0.0000
G01 A3.2143 X0.0000
G01 A3.2143 X0.0000
G01 A3.2143 X0.0000
G01 A3.2143 X0.0000
G01 A3.2143 X0.0000
G01 A3.2143 X0.0000
G01 A3.2143 X0.0000
G01 A3.2142 X0.0000
G01 A3.2143 X0.0000
G01 A3.2143 X0.0000
G01 A3.2143 X0.0000
G01 A3.2143 X0.0000
G01 A3.2143 X0.0000
G01 A3.2143 X0.0000
G01 A3.2143 X0.0000
G01 A3.2143 X0.0000
G01 A3.2143 X0.0000
G01 A3.2142 X0.0000
G01 A3.2143 X0.0000
G01 A3.2143 X0.0000
G01 A3.2143 X0.0000
G01 A3.2143 X0.0000
G01 A3.2143 X0.0000
G01 A3.2143 X0.0000
G01 A3.2143 X0.0000
G01 A3.2143 X0.0000
G01 A3.2143 X0.0000
G01 A3.2142 X0.0000
G01 A3.2143 X0.0000
G01 A3.2143 X0.0000
G01 A3.2143 X0.0000
G01 A3.2143 X0.0000
G01 A3.2143 X0.0000
G01 A3.2143 X0.0000
G01 A3.2143 X0.0000
G01 A3.2143 X0.0000
G01 A3.2143 X0.0000
G01 A3.2142 X0.0010
G01 A3.2143 X-0.0010
G01 A3.2143 X0.0000
G01 A3.2143 X0.0000
G01 A3.2143 X0.0000
G01 A3.2143 X0.0000
G01 A3.2143 X0.0000
G01 A3.2143 X0.0000
G01 A3.2143 X0.0000
G01 A3.2143 X0.0000
G01 A3.2142 X0.0000
G01 A3.2143 X0.0000
G01 A3.2143 X0.0000
G01 A3.2143 X0.0000
G01 A3.2143 X0.0000
G01 A3.2143 X0.0000
G01 A3.2143 X0.0000
G01 A3.2143 X0.0000
G01 A3.2143 X0.0000
G01 A3.2143 X0.0000
G01 A3.2142 X0.0000
G01 A3.2143 X0.0000
G01 A3.2143 X0.0000
G01 A3.2143 X0.0000
G01 A3.2143 X0.0000
G01 A3.2143 X0.0000
G01 A3.2143 X0.0000
G01 A3.2143 X0.0000
G01 A3.2143 X0.0000
G01 A3.2143 X0.0000
G01 A3.2142 X0.0000
G01 A3.2143 X0.0000
G01 A3.2143 X0.0000
G01 A3.2143 X0.0000
G01 A3.2143 X0.0000
G01 A3.2143 X0.0000
G01 A3.2143 X0.0000
G01 A3.2143 X0.0000
G01 A3.2143 X0.0000
G01 A3.2143 X0.0000
G01 A3.2142 X0.0000
G01 A3.2143 X0.0000
G01 A3.2143 X0.0000
G01 A3.2143 X0.0000
G01 A3.2143 X0.0000
G01 A3.2143 X0.0000
G01 A3.2143 X0.0000
G01 A3.2143 X0.0000
G01 A3.2143 X0.0000
G01 A3.2143 X0.0000
G01 A3.2142 X0.0000
G01 A3.2143 X0.0000
G01 A3.2143 X0.0000
G01 A3.2143 X0.0000
G01 A3.2143 X0.0000
G01 A3.2143 X0.0000
G94
G90
;End2 - End
G00 Z4.0000
M16
G00 Z4.0000
(PIECE COMPLETE)
M25
(PIECE 11: A2001 START=200.000 LEN=20.000)
G90
G92 X0.0
G00 X200.0000
M00
(ROTATIONAL OFFSET: 0.000)
(END1 FLAT: N)
G01 X-0.0010 F#29001
G01 X0.0002 F#29001
M15
;End1 - Start (cope)
(END GEOMETRY: angle=0.000 join_dia=0.000 od=3.000)
G00 Z4.0000
G00 Z2.0000
G91
G01 G93.1 F#29002
G01 A3.2143 X-0.0010
G01 A3.2143 X0.0000
G01 A3.2143 X0.0000
G01 A3.2143 X0.0000
G01 A3.2142 X0.0000
G01 A3.2143 X0.0000
G01 A3.2143 X0.0000
G01 A3.2143 X0.0000
G01 A3.2143 X0.0000
G01 A3.2143 X0.0000
G01 A3.2143 X0.0000
G01 A3.2143 X0.0000
G01 A3.2143 X0.0000
G01 A3.2143 X0.0000
G01 A3.2142 X0.0000
G01 A3.2143 X0.0000
G01 A3.2143 X0.0000
G01 A3.2143 X0.0000
G01 A3.2143 X0.0000
G01 A3.2143 X0.0000
G01 A3.2143 X0.0000
G01 A3.2143 X0.0000
G01 A3.2143 X0.0000
G01 A3.2143 X0.0000
G01 A3.2143 X0.0000
G01 A3.2142 X0.0000
G01 A3.2143 X0.0000
G01 A3.2143 X0.0000
G01 A3.2143 X0.0000
G01 A3.2143 X0.0000
G01 A3.2143 X0.0000
G01 A3.2143 X0.0000
G01 A3.2143 X0.0000
G01 A3.2143 X0.0000
G01 A3.2143 X0.0000
G01 A3.2142 X0.0000
G01 A3.2143 X0.0000
G01 A3.2143 X0.0000
G01 A3.2143 X0.0000
G01 A3.2143 X0.0000
G01 A3.2143 X0.0000
G01 A3.2143 X0.0000
G01 A3.2143 X0.0000
G01 A3.2143 X0.0000
G01 A3.2143 X0.0000
G01 A3.2142 X0.0000
G01 A3.2143 X0.0000
G01 A3.2143 X0.0000
G01 A3.2143 X0.0000
G01 A3.2143 X0.0000
G01 A3.2143 X0.0000
G01 A3.2143 X0.0000
G01 A3.2143 X0.0000
G01 A3.2143 X0.0000
G01 A3.2143 X0.0000
G01 A3.2142 X0.0010
G01 A3.2143 X-0.0010
G01 A3.2143 X0.0000
G01 A3.2143 X0.0000
G01 A3.2143 X0.0000
G01 A3.2143 X0.0000
G01 A3.2143 X0.0000
G01 A3.2143 X0.0000
G01 A3.2143 X0.0000
G01 A3.2143 X0.0000
G01 A3.2142 X0.0000
G01 A3.2143 X0.0000
G01 A3.2143 X0.0000
G01 A3.2143 X0.0000
G01 A3.2143 X0.0000
G01 A3.2143 X0.0000
G01 A3.2143 X0.0000
G01 A3.2143 X0.0000
G01 A3.2143 X0.0000
G01 A3.2143 X0.0000
G01 A3.2142 X0.0000
G01 A3.2143 X0.0000
G01 A3.2143 X0.0000
G01 A3.2143 X0.0000
G01 A3.2143 X0.0000
G01 A3.2143 X0.0000
G01 A3.2143 X0.0000
G01 A3.2143 X0.0000
G01 A3.2143 X0.0000
G01 A3.2143 X0.0000
G01 A3.2142 X0.0000
G01 A3.2143 X0.0000
G01 A3.2143 X0.0000
G01 A3.2143 X0.0000
G01 A3.2143 X0.0000
G01 A3.2143 X0.0000
G01 A3.2143 X0.0000
G01 A3.2143 X0.0000
G01 A3.2143 X0.0000
G01 A3.2143 X0.0000
G01 A3.2142 X0.0000
G01 A3.2143 X0.0000
G01 A3.2143 X0.0000
G01 A3.2143 X0.0000
G01 A3.2143 X0.0000
G01 A3.2143 X0.0000
G01 A3.2143 X0.0000
G01 A3.2143 X0.0000
G01 A3.2143 X0.0000
G01 A3.2143 X0.0000
G01 A3.2142 X0.0000
G01 A3.2143 X0.0000
G01 A3.2143 X0.0000
G01 A3.2143 X0.0000
G01 A3.2143 X0.0000
G01 A3.2143 X0.0000
G94
G90
;End1 - End
G00 Z4.0000
M16
;End1->End2 Reposition
G91
G01 X20.0012 F#29001
G90
G00 A0.0000
G00 Z2.0000
(END2 FLAT: N)
G01 X-0.0010 F#29001
G01 X0.0002 F#29001
M15
;End2 - Start (cope)
(END GEOMETRY: angle=45.000 join_dia=0.000 od=3.000)
G00 Z4.0000
G00 Z2.0000
G91
G01 G93.1 F#29002
G01 A3.2143 X-0.0010
G01 A3.2143 X0.0000
G01 A3.2143 X0.0000
G01 A3.2143 X0.0000
G01 A3.2142 X0.0000
G01 A3.2143 X0.0000
G01 A3.2143 X0.0000
G01 A3.2143 X0.0000
G01 A3.2143 X0.0000
G01 A3.2143 X0.0000
G01 A3.2143 X0.0000
G01 A3.2143 X0.0000
G01 A3.2143 X0.0000
G01 A3.2143 X0.0000
G01 A3.2142 X0.0000
G01 A3.2143 X0.0000
G01 A3.2143 X0.0000
G01 A3.2143 X0.0000
G01 A3.2143 X0.0000
G01 A3.2143 X0.0000
G01 A3.2143 X0.0000
G01 A3.2143 X0.0000
G01 A3.2143 X0.0000
G01 A3.2143 X0.0000
G01 A3.2143 X0.0000
G01 A3.2142 X0.0000
G01 A3.2143 X0.0000
G01 A3.2143 X0.0000
G01 A3.2143 X0.0000
G01 A3.2143 X0.0000
G01 A3.2143 X0.0000
G01 A3.2143 X0.0000
G01 A3.2143 X0.0000
G01 A3.2143 X0.0000
G01 A3.2143 X0.0000
G01 A3.2142 X0.0000
G01 A3.2143 X0.0000
G01 A3.2143 X0.0000
G01 A3.2143 X0.0000
G01 A3.2143 X0.0000
G01 A3.2143 X0.0000
G01 A3.2143 X0.0000
G01 A3.2143 X0.0000
G01 A3.2143 X0.0000
G01 A3.2143 X0.0000
G01 A3.2142 X0.0000
G01 A3.2143 X0.0000
G01 A3.2143 X0.0000
G01 A3.2143 X0.0000
G01 A3.2143 X0.0000
G01 A3.2143 X0.0000
G01 A3.2143 X0.0000
G01 A3.2143 X0.0000
G01 A3.2143 X0.0000
G01 A3.2143 X0.0000
G01 A3.2142 X0.0010
G01 A3.2143 X-0.0010
G01 A3.2143 X0.0000
G01 A3.2143 X0.0000
G01 A3.2143 X0.0000
G01 A3.2143 X0.0000
G01 A3.2143 X0.0000
G01 A3.2143 X0.0000
G01 A3.2143 X0.0000
G01 A3.2143 X0.0000
G01 A3.2142 X0.0000
G01 A3.2143 X0.0000
G01 A3.2143 X0.0000
G01 A3.2143 X0.0000
G01 A3.2143 X0.0000
G01 A3.2143 X0.0000
G01 A3.2143 X0.0000
G01 A3.2143 X0.0000
G01 A3.2143 X0.0000
G01 A3.2143 X0.0000
G01 A3.2142 X0.0000
G01 A3.2143 X0.0000
G01 A3.2143 X0.0000
G01 A3.2143 X0.0000
G01 A3.2143 X0.0000
G01 A3.2143 X0.0000
G01 A3.2143 X0.0000
G01 A3.2143 X0.0000
G01 A3.2143 X0.0000
G01 A3.2143 X0.0000
G01 A3.2142 X0.0000
G01 A3.2143 X0.0000
G01 A3.2143 X0.0000
G01 A3.2143 X0.0000
G01 A3.2143 X0.0000
G01 A3.2143 X0.0000
G01 A3.2143 X0.0000
G01 A3.2143 X0.0000
G01 A3.2143 X0.0000
G01 A3.2143 X0.0000
G01 A3.2142 X0.0000
G01 A3.2143 X0.0000
G01 A3.2143 X0.0000
G01 A3.2143 X0.0000
G01 A3.2143 X0.0000
G01 A3.2143 X0.0000
G01 A3.2143 X0.0000
G01 A3.2143 X0.0000
G01 A3.2143 X0.0000
G01 A3.2143 X0.0000
G01 A3.2142 X0.0000
G01 A3.2143 X0.0000
G01 A3.2143 X0.0000
G01 A3.2143 X0.0000
G01 A3.2143 X0.0000
G01 A3.2143 X0.0000
G94
G90
;End2 - End
G00 Z4.0000
M16
G00 Z4.0000
(PIECE COMPLETE)
(PROMPT REMOVE NESTED STOCK)
M30
%
