; Batch Name:                           2472 batch 1 1/2
; Batch Description:                    
; Round                                 1.900 x 0.145
; Create Date:                          5/4/2026 12:42:35 PM
; Created with Version:                 5.5.49.0
; Machine Strategy:                     MachineStrategy_3
; Process Strategy:                     1.901 Diam
; This batch includes the tube load routine
; Piece Summary: 
;   Stick=1
;     Stick_1_1_ms2038
;     Stick_1_2_ms2038
;     Stick_1_3_ms2038
;     Stick_1_4_ms2039
;     Stick_1_5_ms2036
;   Stick=2
;     Stick_2_1_ms2036
G20 ; Imperial Units

G58
 T1
 G43 H1
G90
 M25 ; Torch Head Retract
 #29001 = 140
; Stick=1
;N9101
; Load Sequence
; Auto-Load Sequence
 M79
G90 
 G53 X-36.62  ; Load Position in Machine Coordinates
 G00 A0.00 ; Load Position-A
 M82 G04 P1.0
 M201 "Please Confirm the Material is Oriented Correctly. \n and then \n Press Cycle-Start."
G91 
 G01 X-6.0 F200.0; LoadStep-1
 M75
 G04 P1.0
 M69
 G01 X-7.0 F200.0; LoadStep-2
 M63
 G01 X-6.0 F200.0; LoadStep-3
 M10
G90;
 G00 A0.0
 G00 Y0.0 ; Burn Position
G91;


; Stick_1_1_ms2038
N93001
; Name:  ms2038
; Description: 1 1/2 sch 40
; Piece Type: Coped
; Material Diameter: 1.9000"   Wall Thickness: 0.1450"
; End-1 Joint Angle: 58.120  Join Diameter: 1.9000"
; Rotational Offset: 0   Length: 44.5625"
; End-2 Joint Angle: 90.000  Join Diameter: 50.0000"
 #300 = "ms2038" ; Assign Piece Name
#126=0 ; Init Bend Notch Counter
G90
 G00 Z[0.95000 + 0.08100]
 /M15
 G04 P0.01
 G00 Z0.95000
G91 
 ;End1 - Start
 G01 X-0.001 F140   ; Pierce Step
 G01 X-0.50068 F140 ; E1 Toe Step
 G01 G93.1 F140
 A3.21429 X0.02818
 A3.21429 X0.02330
 A3.21429 X0.01858
 A3.21429 X0.01415
 A3.21429 X0.01012
 A3.21429 X0.00653
 A3.21429 X0.00342
 A3.21429 X0.00078
 A3.21429 X-0.00141
 A3.21429 X-0.00320
 A3.21429 X-0.00461
 A3.21429 X-0.00570
 A3.21429 X-0.00649
 A3.21429 X-0.00702
 A3.21429 X-0.00733
 A3.21429 X-0.00745
 A3.21429 X-0.00739
 A3.21429 X-0.00718
 A3.21429 X-0.00685
 A3.21429 X-0.00640
 A3.21429 X-0.00586
 A3.21429 X-0.00523
 A3.21429 X-0.00454
 A3.21429 X-0.00379
 A3.21429 X-0.00299
 A3.21429 X-0.00216
 A3.21429 X-0.00131
 A3.21429 X-0.00044
 A3.21429 X0.00044
 A3.21429 X0.00131
 A3.21429 X0.00216
 A3.21429 X0.00299
 A3.21429 X0.00379
 A3.21429 X0.00454
 A3.21429 X0.00523
 A3.21429 X0.00586
 A3.21429 X0.00640
 A3.21429 X0.00685
 A3.21429 X0.00718
 A3.21429 X0.00739
 A3.21429 X0.00745
 A3.21429 X0.00733
 A3.21429 X0.00702
 A3.21429 X0.00649
 A3.21429 X0.00570
 A3.21429 X0.00461
 A3.21429 X0.00320
 A3.21429 X0.00141
 A3.21429 X-0.00078
 A3.21429 X-0.00342
 A3.21429 X-0.00653
 A3.21429 X-0.01012
 A3.21429 X-0.01415
 A3.21429 X-0.01858
 A3.21429 X-0.02330
 A3.21429 X-0.02818
 A3.21429 X-0.03305
 A3.21429 X-0.03774
 A3.21429 X-0.04207
 A3.21429 X-0.04592
 A3.21429 X-0.04919
 A3.21429 X-0.05183
 A3.21429 X-0.05380
 A3.21429 X-0.05513
 A3.21429 X-0.05583
 A3.21429 X-0.05596
 A3.21429 X-0.05554
 A3.21429 X-0.05464
 A3.21429 X-0.05329
 A3.21429 X-0.05154
 A3.21429 X-0.04942
 A3.21429 X-0.04697
 A3.21429 X-0.04422
 A3.21429 X-0.04122
 A3.21429 X-0.03797
 A3.21429 X-0.03452
 A3.21429 X-0.03088
 A3.21429 X-0.02708
 A3.21429 X-0.02314
 A3.21429 X-0.01909
 A3.21429 X-0.01494
 A3.21429 X-0.01072
 A3.21429 X-0.00646
 A3.21429 X-0.00216
 A3.21429 X0.00216
 A3.21429 X0.00646
 A3.21429 X0.01072
 A3.21429 X0.01494
 A3.21429 X0.01909
 A3.21429 X0.02314
 A3.21429 X0.02708
 A3.21429 X0.03088
 A3.21429 X0.03452
 A3.21429 X0.03797
 A3.21429 X0.04122
 A3.21429 X0.04422
 A3.21429 X0.04697
 A3.21429 X0.04942
 A3.21429 X0.05154
 A3.21429 X0.05329
 A3.21429 X0.05464
 A3.21429 X0.05554
 A3.21429 X0.05596
 A3.21429 X0.05583
 A3.21429 X0.05513
 A3.21429 X0.05380
 A3.21429 X0.05183
 A3.21429 X0.04919
 A3.21429 X0.04592
 A3.21429 X0.04207
 A3.21429 X0.03774
 A3.21429 X0.03305
 G94
 ;End1 - End

 G04 P0.01
M16
G91
 IF 50001
 G00 X0.00100 Z0.200; Reverse Pierce Step and Rapid Clearance Move
 G00 X-0.00100
 G00 X[-43.95404 + 0.00000]
 G00 A0.00000
 G00 X[0.145 * -0.4 * #126] ; Bend Notch Comp
G90
 G00 Y0.0 Z[0.95000 + 0.081]
/M15
 G04 P0.01
 G00 Z0.95000
G91
 G04 P0.01
 G01 X0.001 F140 ; Pierce Step
 G01 G93.1 F140
 ;End2 - Start
 A-3.21429
 A-3.21429
 A-3.21429
 A-3.21429
 A-3.21429
 A-3.21429
 A-3.21429
 A-3.21429
 A-3.21429
 A-3.21429
 A-3.21429
 A-3.21429
 A-3.21429
 A-3.21429
 A-3.21429
 A-3.21429
 A-3.21429
 A-3.21429
 A-3.21429
 A-3.21429
 A-3.21429
 A-3.21429
 A-3.21429
 A-3.21429
 A-3.21429
 A-3.21429
 A-3.21429
 A-3.21429
 A-3.21429
 A-3.21429
 A-3.21429
 A-3.21429
 A-3.21429
 A-3.21429
 A-3.21429
 A-3.21429
 A-3.21429
 A-3.21429
 A-3.21429
 A-3.21429
 A-3.21429
 A-3.21429
 A-3.21429
 A-3.21429
 A-3.21429
 A-3.21429
 A-3.21429
 A-3.21429
 A-3.21429
 A-3.21429
 A-3.21429
 A-3.21429
 A-3.21429
 A-3.21429
 A-3.21429
 A-3.21429
 A-3.21429
 A-3.21429
 A-3.21429
 A-3.21429
 A-3.21429
 A-3.21429
 A-3.21429
 A-3.21429
 A-3.21429
 A-3.21429
 A-3.21429
 A-3.21429
 A-3.21429
 A-3.21429
 A-3.21429
 A-3.21429
 A-3.21429
 A-3.21429
 A-3.21429
 A-3.21429
 A-3.21429
 A-3.21429
 A-3.21429
 A-3.21429
 A-3.21429
 A-3.21429
 A-3.21429
 A-3.21429
 A-3.21429
 A-3.21429
 A-3.21429
 A-3.21429
 A-3.21429
 A-3.21429
 A-3.21429
 A-3.21429
 A-3.21429
 A-3.21429
 A-3.21429
 A-3.21429
 A-3.21429
 A-3.21429
 A-3.21429
 A-3.21429
 A-3.21429
 A-3.21429
 A-3.21429
 A-3.21429
 A-3.21429
 A-3.21429
 A-3.21429
 A-3.21429
 A-3.21429
 A-3.21429
 A-3.21429
 A-3.21429
 G94
 ;End2 - End
 G01 X-0.00000 F140 ; E2 Toe Step



;N9102
;Between Piece Section
 G91 
 G01 X-0.100 F140
 M16 
 M200 "Mark Your Piece\n'%s'\nThen Press Cycle Start" #300
 ;G00 X-0.050
 ;G01 X-0.050 F140 ;Commented in all known cases
 G01 X-0.100 F140

; Stick_1_2_ms2038
N93002
; Name:  ms2038
; Description: 1 1/2 sch 40
; Piece Type: Coped
; Material Diameter: 1.9000"   Wall Thickness: 0.1450"
; End-1 Joint Angle: 58.120  Join Diameter: 1.9000"
; Rotational Offset: 0   Length: 44.5625"
; End-2 Joint Angle: 90.000  Join Diameter: 50.0000"
 #300 = "ms2038" ; Assign Piece Name
#126=0 ; Init Bend Notch Counter
G90
 G00 Z[0.95000 + 0.08100]
 /M15
 G04 P0.01
 G00 Z0.95000
G91 
 ;End1 - Start
 G01 X-0.001 F140   ; Pierce Step
 G01 X-0.50068 F140 ; E1 Toe Step
 G01 G93.1 F140
 A3.21429 X0.02818
 A3.21429 X0.02330
 A3.21429 X0.01858
 A3.21429 X0.01415
 A3.21429 X0.01012
 A3.21429 X0.00653
 A3.21429 X0.00342
 A3.21429 X0.00078
 A3.21429 X-0.00141
 A3.21429 X-0.00320
 A3.21429 X-0.00461
 A3.21429 X-0.00570
 A3.21429 X-0.00649
 A3.21429 X-0.00702
 A3.21429 X-0.00733
 A3.21429 X-0.00745
 A3.21429 X-0.00739
 A3.21429 X-0.00718
 A3.21429 X-0.00685
 A3.21429 X-0.00640
 A3.21429 X-0.00586
 A3.21429 X-0.00523
 A3.21429 X-0.00454
 A3.21429 X-0.00379
 A3.21429 X-0.00299
 A3.21429 X-0.00216
 A3.21429 X-0.00131
 A3.21429 X-0.00044
 A3.21429 X0.00044
 A3.21429 X0.00131
 A3.21429 X0.00216
 A3.21429 X0.00299
 A3.21429 X0.00379
 A3.21429 X0.00454
 A3.21429 X0.00523
 A3.21429 X0.00586
 A3.21429 X0.00640
 A3.21429 X0.00685
 A3.21429 X0.00718
 A3.21429 X0.00739
 A3.21429 X0.00745
 A3.21429 X0.00733
 A3.21429 X0.00702
 A3.21429 X0.00649
 A3.21429 X0.00570
 A3.21429 X0.00461
 A3.21429 X0.00320
 A3.21429 X0.00141
 A3.21429 X-0.00078
 A3.21429 X-0.00342
 A3.21429 X-0.00653
 A3.21429 X-0.01012
 A3.21429 X-0.01415
 A3.21429 X-0.01858
 A3.21429 X-0.02330
 A3.21429 X-0.02818
 A3.21429 X-0.03305
 A3.21429 X-0.03774
 A3.21429 X-0.04207
 A3.21429 X-0.04592
 A3.21429 X-0.04919
 A3.21429 X-0.05183
 A3.21429 X-0.05380
 A3.21429 X-0.05513
 A3.21429 X-0.05583
 A3.21429 X-0.05596
 A3.21429 X-0.05554
 A3.21429 X-0.05464
 A3.21429 X-0.05329
 A3.21429 X-0.05154
 A3.21429 X-0.04942
 A3.21429 X-0.04697
 A3.21429 X-0.04422
 A3.21429 X-0.04122
 A3.21429 X-0.03797
 A3.21429 X-0.03452
 A3.21429 X-0.03088
 A3.21429 X-0.02708
 A3.21429 X-0.02314
 A3.21429 X-0.01909
 A3.21429 X-0.01494
 A3.21429 X-0.01072
 A3.21429 X-0.00646
 A3.21429 X-0.00216
 A3.21429 X0.00216
 A3.21429 X0.00646
 A3.21429 X0.01072
 A3.21429 X0.01494
 A3.21429 X0.01909
 A3.21429 X0.02314
 A3.21429 X0.02708
 A3.21429 X0.03088
 A3.21429 X0.03452
 A3.21429 X0.03797
 A3.21429 X0.04122
 A3.21429 X0.04422
 A3.21429 X0.04697
 A3.21429 X0.04942
 A3.21429 X0.05154
 A3.21429 X0.05329
 A3.21429 X0.05464
 A3.21429 X0.05554
 A3.21429 X0.05596
 A3.21429 X0.05583
 A3.21429 X0.05513
 A3.21429 X0.05380
 A3.21429 X0.05183
 A3.21429 X0.04919
 A3.21429 X0.04592
 A3.21429 X0.04207
 A3.21429 X0.03774
 A3.21429 X0.03305
 G94
 ;End1 - End

 G04 P0.01
M16
G91
 IF 50001
 G00 X0.00100 Z0.200; Reverse Pierce Step and Rapid Clearance Move
 G00 X-0.00100
 G00 X[-43.95404 + 0.00000]
 G00 A0.00000
 G00 X[0.145 * -0.4 * #126] ; Bend Notch Comp
G90
 G00 Y0.0 Z[0.95000 + 0.081]
/M15
 G04 P0.01
 G00 Z0.95000
G91
 G04 P0.01
 G01 X0.001 F140 ; Pierce Step
 G01 G93.1 F140
 ;End2 - Start
 A-3.21429
 A-3.21429
 A-3.21429
 A-3.21429
 A-3.21429
 A-3.21429
 A-3.21429
 A-3.21429
 A-3.21429
 A-3.21429
 A-3.21429
 A-3.21429
 A-3.21429
 A-3.21429
 A-3.21429
 A-3.21429
 A-3.21429
 A-3.21429
 A-3.21429
 A-3.21429
 A-3.21429
 A-3.21429
 A-3.21429
 A-3.21429
 A-3.21429
 A-3.21429
 A-3.21429
 A-3.21429
 A-3.21429
 A-3.21429
 A-3.21429
 A-3.21429
 A-3.21429
 A-3.21429
 A-3.21429
 A-3.21429
 A-3.21429
 A-3.21429
 A-3.21429
 A-3.21429
 A-3.21429
 A-3.21429
 A-3.21429
 A-3.21429
 A-3.21429
 A-3.21429
 A-3.21429
 A-3.21429
 A-3.21429
 A-3.21429
 A-3.21429
 A-3.21429
 A-3.21429
 A-3.21429
 A-3.21429
 A-3.21429
 A-3.21429
 A-3.21429
 A-3.21429
 A-3.21429
 A-3.21429
 A-3.21429
 A-3.21429
 A-3.21429
 A-3.21429
 A-3.21429
 A-3.21429
 A-3.21429
 A-3.21429
 A-3.21429
 A-3.21429
 A-3.21429
 A-3.21429
 A-3.21429
 A-3.21429
 A-3.21429
 A-3.21429
 A-3.21429
 A-3.21429
 A-3.21429
 A-3.21429
 A-3.21429
 A-3.21429
 A-3.21429
 A-3.21429
 A-3.21429
 A-3.21429
 A-3.21429
 A-3.21429
 A-3.21429
 A-3.21429
 A-3.21429
 A-3.21429
 A-3.21429
 A-3.21429
 A-3.21429
 A-3.21429
 A-3.21429
 A-3.21429
 A-3.21429
 A-3.21429
 A-3.21429
 A-3.21429
 A-3.21429
 A-3.21429
 A-3.21429
 A-3.21429
 A-3.21429
 A-3.21429
 A-3.21429
 A-3.21429
 A-3.21429
 G94
 ;End2 - End
 G01 X-0.00000 F140 ; E2 Toe Step



;N9102
;Between Piece Section
 G91 
 G01 X-0.100 F140
 M16 
 M200 "Mark Your Piece\n'%s'\nThen Press Cycle Start" #300
 ;G00 X-0.050
 ;G01 X-0.050 F140 ;Commented in all known cases
 G01 X-0.100 F140

; Stick_1_3_ms2038
N93003
; Name:  ms2038
; Description: 1 1/2 sch 40
; Piece Type: Coped
; Material Diameter: 1.9000"   Wall Thickness: 0.1450"
; End-1 Joint Angle: 58.120  Join Diameter: 1.9000"
; Rotational Offset: 0   Length: 44.5625"
; End-2 Joint Angle: 90.000  Join Diameter: 50.0000"
 #300 = "ms2038" ; Assign Piece Name
#126=0 ; Init Bend Notch Counter
G90
 G00 Z[0.95000 + 0.08100]
 /M15
 G04 P0.01
 G00 Z0.95000
G91 
 ;End1 - Start
 G01 X-0.001 F140   ; Pierce Step
 G01 X-0.50068 F140 ; E1 Toe Step
 G01 G93.1 F140
 A3.21429 X0.02818
 A3.21429 X0.02330
 A3.21429 X0.01858
 A3.21429 X0.01415
 A3.21429 X0.01012
 A3.21429 X0.00653
 A3.21429 X0.00342
 A3.21429 X0.00078
 A3.21429 X-0.00141
 A3.21429 X-0.00320
 A3.21429 X-0.00461
 A3.21429 X-0.00570
 A3.21429 X-0.00649
 A3.21429 X-0.00702
 A3.21429 X-0.00733
 A3.21429 X-0.00745
 A3.21429 X-0.00739
 A3.21429 X-0.00718
 A3.21429 X-0.00685
 A3.21429 X-0.00640
 A3.21429 X-0.00586
 A3.21429 X-0.00523
 A3.21429 X-0.00454
 A3.21429 X-0.00379
 A3.21429 X-0.00299
 A3.21429 X-0.00216
 A3.21429 X-0.00131
 A3.21429 X-0.00044
 A3.21429 X0.00044
 A3.21429 X0.00131
 A3.21429 X0.00216
 A3.21429 X0.00299
 A3.21429 X0.00379
 A3.21429 X0.00454
 A3.21429 X0.00523
 A3.21429 X0.00586
 A3.21429 X0.00640
 A3.21429 X0.00685
 A3.21429 X0.00718
 A3.21429 X0.00739
 A3.21429 X0.00745
 A3.21429 X0.00733
 A3.21429 X0.00702
 A3.21429 X0.00649
 A3.21429 X0.00570
 A3.21429 X0.00461
 A3.21429 X0.00320
 A3.21429 X0.00141
 A3.21429 X-0.00078
 A3.21429 X-0.00342
 A3.21429 X-0.00653
 A3.21429 X-0.01012
 A3.21429 X-0.01415
 A3.21429 X-0.01858
 A3.21429 X-0.02330
 A3.21429 X-0.02818
 A3.21429 X-0.03305
 A3.21429 X-0.03774
 A3.21429 X-0.04207
 A3.21429 X-0.04592
 A3.21429 X-0.04919
 A3.21429 X-0.05183
 A3.21429 X-0.05380
 A3.21429 X-0.05513
 A3.21429 X-0.05583
 A3.21429 X-0.05596
 A3.21429 X-0.05554
 A3.21429 X-0.05464
 A3.21429 X-0.05329
 A3.21429 X-0.05154
 A3.21429 X-0.04942
 A3.21429 X-0.04697
 A3.21429 X-0.04422
 A3.21429 X-0.04122
 A3.21429 X-0.03797
 A3.21429 X-0.03452
 A3.21429 X-0.03088
 A3.21429 X-0.02708
 A3.21429 X-0.02314
 A3.21429 X-0.01909
 A3.21429 X-0.01494
 A3.21429 X-0.01072
 A3.21429 X-0.00646
 A3.21429 X-0.00216
 A3.21429 X0.00216
 A3.21429 X0.00646
 A3.21429 X0.01072
 A3.21429 X0.01494
 A3.21429 X0.01909
 A3.21429 X0.02314
 A3.21429 X0.02708
 A3.21429 X0.03088
 A3.21429 X0.03452
 A3.21429 X0.03797
 A3.21429 X0.04122
 A3.21429 X0.04422
 A3.21429 X0.04697
 A3.21429 X0.04942
 A3.21429 X0.05154
 A3.21429 X0.05329
 A3.21429 X0.05464
 A3.21429 X0.05554
 A3.21429 X0.05596
 A3.21429 X0.05583
 A3.21429 X0.05513
 A3.21429 X0.05380
 A3.21429 X0.05183
 A3.21429 X0.04919
 A3.21429 X0.04592
 A3.21429 X0.04207
 A3.21429 X0.03774
 A3.21429 X0.03305
 G94
 ;End1 - End

 G04 P0.01
M16
G91
 IF 50001
 G00 X0.00100 Z0.200; Reverse Pierce Step and Rapid Clearance Move
 G00 X-0.00100
 G00 X[-43.95404 + 0.00000]
 G00 A0.00000
 G00 X[0.145 * -0.4 * #126] ; Bend Notch Comp
G90
 G00 Y0.0 Z[0.95000 + 0.081]
/M15
 G04 P0.01
 G00 Z0.95000
G91
 G04 P0.01
 G01 X0.001 F140 ; Pierce Step
 G01 G93.1 F140
 ;End2 - Start
 A-3.21429
 A-3.21429
 A-3.21429
 A-3.21429
 A-3.21429
 A-3.21429
 A-3.21429
 A-3.21429
 A-3.21429
 A-3.21429
 A-3.21429
 A-3.21429
 A-3.21429
 A-3.21429
 A-3.21429
 A-3.21429
 A-3.21429
 A-3.21429
 A-3.21429
 A-3.21429
 A-3.21429
 A-3.21429
 A-3.21429
 A-3.21429
 A-3.21429
 A-3.21429
 A-3.21429
 A-3.21429
 A-3.21429
 A-3.21429
 A-3.21429
 A-3.21429
 A-3.21429
 A-3.21429
 A-3.21429
 A-3.21429
 A-3.21429
 A-3.21429
 A-3.21429
 A-3.21429
 A-3.21429
 A-3.21429
 A-3.21429
 A-3.21429
 A-3.21429
 A-3.21429
 A-3.21429
 A-3.21429
 A-3.21429
 A-3.21429
 A-3.21429
 A-3.21429
 A-3.21429
 A-3.21429
 A-3.21429
 A-3.21429
 A-3.21429
 A-3.21429
 A-3.21429
 A-3.21429
 A-3.21429
 A-3.21429
 A-3.21429
 A-3.21429
 A-3.21429
 A-3.21429
 A-3.21429
 A-3.21429
 A-3.21429
 A-3.21429
 A-3.21429
 A-3.21429
 A-3.21429
 A-3.21429
 A-3.21429
 A-3.21429
 A-3.21429
 A-3.21429
 A-3.21429
 A-3.21429
 A-3.21429
 A-3.21429
 A-3.21429
 A-3.21429
 A-3.21429
 A-3.21429
 A-3.21429
 A-3.21429
 A-3.21429
 A-3.21429
 A-3.21429
 A-3.21429
 A-3.21429
 A-3.21429
 A-3.21429
 A-3.21429
 A-3.21429
 A-3.21429
 A-3.21429
 A-3.21429
 A-3.21429
 A-3.21429
 A-3.21429
 A-3.21429
 A-3.21429
 A-3.21429
 A-3.21429
 A-3.21429
 A-3.21429
 A-3.21429
 A-3.21429
 A-3.21429
 G94
 ;End2 - End
 G01 X-0.00000 F140 ; E2 Toe Step



;N9102
;Between Piece Section
 G91 
 G01 X-0.100 F140
 M16 
 M200 "Mark Your Piece\n'%s'\nThen Press Cycle Start" #300
 ;G00 X-0.050
 ;G01 X-0.050 F140 ;Commented in all known cases
 G01 X-0.100 F140

; Stick_1_4_ms2039
N93004
; Name:  ms2039
; Description: 1 1/2 sch 40
; Piece Type: Coped
; Material Diameter: 1.9000"   Wall Thickness: 0.1450"
; End-1 Joint Angle: 90.000  Join Diameter: 50.0000"
; Rotational Offset: 0   Length: 40.7500"
; End-2 Joint Angle: 90.000  Join Diameter: 50.0000"
 #300 = "ms2039" ; Assign Piece Name
#126=0 ; Init Bend Notch Counter
G90
 G00 Z[0.95000 + 0.08100]
 /M15
 G04 P0.01
 G00 Z0.95000
G91 
 ;End1 - Start
 G01 X-0.001 F140   ; Pierce Step
 G01 X-0.00000 F140 ; E1 Toe Step
 G01 G93.1 F140
 A3.21429
 A3.21429
 A3.21429
 A3.21429
 A3.21429
 A3.21429
 A3.21429
 A3.21429
 A3.21429
 A3.21429
 A3.21429
 A3.21429
 A3.21429
 A3.21429
 A3.21429
 A3.21429
 A3.21429
 A3.21429
 A3.21429
 A3.21429
 A3.21429
 A3.21429
 A3.21429
 A3.21429
 A3.21429
 A3.21429
 A3.21429
 A3.21429
 A3.21429
 A3.21429
 A3.21429
 A3.21429
 A3.21429
 A3.21429
 A3.21429
 A3.21429
 A3.21429
 A3.21429
 A3.21429
 A3.21429
 A3.21429
 A3.21429
 A3.21429
 A3.21429
 A3.21429
 A3.21429
 A3.21429
 A3.21429
 A3.21429
 A3.21429
 A3.21429
 A3.21429
 A3.21429
 A3.21429
 A3.21429
 A3.21429
 A3.21429
 A3.21429
 A3.21429
 A3.21429
 A3.21429
 A3.21429
 A3.21429
 A3.21429
 A3.21429
 A3.21429
 A3.21429
 A3.21429
 A3.21429
 A3.21429
 A3.21429
 A3.21429
 A3.21429
 A3.21429
 A3.21429
 A3.21429
 A3.21429
 A3.21429
 A3.21429
 A3.21429
 A3.21429
 A3.21429
 A3.21429
 A3.21429
 A3.21429
 A3.21429
 A3.21429
 A3.21429
 A3.21429
 A3.21429
 A3.21429
 A3.21429
 A3.21429
 A3.21429
 A3.21429
 A3.21429
 A3.21429
 A3.21429
 A3.21429
 A3.21429
 A3.21429
 A3.21429
 A3.21429
 A3.21429
 A3.21429
 A3.21429
 A3.21429
 A3.21429
 A3.21429
 A3.21429
 A3.21429
 A3.21429
 G94
 ;End1 - End

 G04 P0.01
M16
G91
 IF 50001
 G00 X0.00100 Z0.200; Reverse Pierce Step and Rapid Clearance Move
 G00 X-0.00100
 G00 X[-40.75100 + 0.00000]
 G00 A0.00000
 G00 X[0.145 * -0.4 * #126] ; Bend Notch Comp
G90
 G00 Y0.0 Z[0.95000 + 0.081]
/M15
 G04 P0.01
 G00 Z0.95000
G91
 G04 P0.01
 G01 X0.001 F140 ; Pierce Step
 G01 G93.1 F140
 ;End2 - Start
 A-3.21429
 A-3.21429
 A-3.21429
 A-3.21429
 A-3.21429
 A-3.21429
 A-3.21429
 A-3.21429
 A-3.21429
 A-3.21429
 A-3.21429
 A-3.21429
 A-3.21429
 A-3.21429
 A-3.21429
 A-3.21429
 A-3.21429
 A-3.21429
 A-3.21429
 A-3.21429
 A-3.21429
 A-3.21429
 A-3.21429
 A-3.21429
 A-3.21429
 A-3.21429
 A-3.21429
 A-3.21429
 A-3.21429
 A-3.21429
 A-3.21429
 A-3.21429
 A-3.21429
 A-3.21429
 A-3.21429
 A-3.21429
 A-3.21429
 A-3.21429
 A-3.21429
 A-3.21429
 A-3.21429
 A-3.21429
 A-3.21429
 A-3.21429
 A-3.21429
 A-3.21429
 A-3.21429
 A-3.21429
 A-3.21429
 A-3.21429
 A-3.21429
 A-3.21429
 A-3.21429
 A-3.21429
 A-3.21429
 A-3.21429
 A-3.21429
 A-3.21429
 A-3.21429
 A-3.21429
 A-3.21429
 A-3.21429
 A-3.21429
 A-3.21429
 A-3.21429
 A-3.21429
 A-3.21429
 A-3.21429
 A-3.21429
 A-3.21429
 A-3.21429
 A-3.21429
 A-3.21429
 A-3.21429
 A-3.21429
 A-3.21429
 A-3.21429
 A-3.21429
 A-3.21429
 A-3.21429
 A-3.21429
 A-3.21429
 A-3.21429
 A-3.21429
 A-3.21429
 A-3.21429
 A-3.21429
 A-3.21429
 A-3.21429
 A-3.21429
 A-3.21429
 A-3.21429
 A-3.21429
 A-3.21429
 A-3.21429
 A-3.21429
 A-3.21429
 A-3.21429
 A-3.21429
 A-3.21429
 A-3.21429
 A-3.21429
 A-3.21429
 A-3.21429
 A-3.21429
 A-3.21429
 A-3.21429
 A-3.21429
 A-3.21429
 A-3.21429
 A-3.21429
 A-3.21429
 G94
 ;End2 - End
 G01 X-0.00000 F140 ; E2 Toe Step



;N9102
;Between Piece Section
 G91 
 G01 X-0.100 F140
 M16 
 M200 "Mark Your Piece\n'%s'\nThen Press Cycle Start" #300
 ;G00 X-0.050
 ;G01 X-0.050 F140 ;Commented in all known cases
 G01 X-0.100 F140

; Stick_1_5_ms2036
N93005
; Name:  ms2036
; Description: 1 1/2 sch 40
; Piece Type: Coped
; Material Diameter: 1.9000"   Wall Thickness: 0.1450"
; End-1 Joint Angle: 90.000  Join Diameter: 1.9000"
; Rotational Offset: 0   Length: 40.8130"
; End-2 Joint Angle: 90.000  Join Diameter: 50.0000"
 #300 = "ms2036" ; Assign Piece Name
#126=0 ; Init Bend Notch Counter
G90
 G00 Z[0.95000 + 0.08100]
 /M15
 G04 P0.01
 G00 Z0.95000
G91 
 ;End1 - Start
 G01 X-0.001 F140   ; Pierce Step
 G01 X-0.00000 F140 ; E1 Toe Step
 G01 G93.1 F140
 A3.21429 X-0.00201
 A3.21429 X-0.00596
 A3.21429 X-0.00971
 A3.21429 X-0.01314
 A3.21429 X-0.01616
 A3.21429 X-0.01874
 A3.21429 X-0.02084
 A3.21429 X-0.02248
 A3.21429 X-0.02368
 A3.21429 X-0.02447
 A3.21429 X-0.02489
 A3.21429 X-0.02496
 A3.21429 X-0.02473
 A3.21429 X-0.02423
 A3.21429 X-0.02348
 A3.21429 X-0.02251
 A3.21429 X-0.02136
 A3.21429 X-0.02003
 A3.21429 X-0.01854
 A3.21429 X-0.01693
 A3.21429 X-0.01520
 A3.21429 X-0.01337
 A3.21429 X-0.01145
 A3.21429 X-0.00947
 A3.21429 X-0.00742
 A3.21429 X-0.00533
 A3.21429 X-0.00321
 A3.21429 X-0.00107
 A3.21429 X0.00107
 A3.21429 X0.00321
 A3.21429 X0.00533
 A3.21429 X0.00742
 A3.21429 X0.00947
 A3.21429 X0.01145
 A3.21429 X0.01337
 A3.21429 X0.01520
 A3.21429 X0.01693
 A3.21429 X0.01854
 A3.21429 X0.02003
 A3.21429 X0.02136
 A3.21429 X0.02251
 A3.21429 X0.02348
 A3.21429 X0.02423
 A3.21429 X0.02473
 A3.21429 X0.02496
 A3.21429 X0.02489
 A3.21429 X0.02447
 A3.21429 X0.02368
 A3.21429 X0.02248
 A3.21429 X0.02084
 A3.21429 X0.01874
 A3.21429 X0.01616
 A3.21429 X0.01314
 A3.21429 X0.00971
 A3.21429 X0.00596
 A3.21429 X0.00201
 A3.21429 X-0.00202
 A3.21429 X-0.00598
 A3.21429 X-0.00973
 A3.21429 X-0.01316
 A3.21429 X-0.01618
 A3.21429 X-0.01875
 A3.21429 X-0.02086
 A3.21429 X-0.02250
 A3.21429 X-0.02370
 A3.21429 X-0.02449
 A3.21429 X-0.02490
 A3.21429 X-0.02498
 A3.21429 X-0.02475
 A3.21429 X-0.02424
 A3.21429 X-0.02349
 A3.21429 X-0.02253
 A3.21429 X-0.02137
 A3.21429 X-0.02004
 A3.21429 X-0.01855
 A3.21429 X-0.01694
 A3.21429 X-0.01521
 A3.21429 X-0.01337
 A3.21429 X-0.01146
 A3.21429 X-0.00947
 A3.21429 X-0.00742
 A3.21429 X-0.00533
 A3.21429 X-0.00321
 A3.21429 X-0.00107
 A3.21429 X0.00107
 A3.21429 X0.00321
 A3.21429 X0.00533
 A3.21429 X0.00742
 A3.21429 X0.00947
 A3.21429 X0.01146
 A3.21429 X0.01337
 A3.21429 X0.01521
 A3.21429 X0.01694
 A3.21429 X0.01855
 A3.21429 X0.02004
 A3.21429 X0.02137
 A3.21429 X0.02253
 A3.21429 X0.02349
 A3.21429 X0.02424
 A3.21429 X0.02475
 A3.21429 X0.02498
 A3.21429 X0.02490
 A3.21429 X0.02449
 A3.21429 X0.02370
 A3.21429 X0.02250
 A3.21429 X0.02086
 A3.21429 X0.01875
 A3.21429 X0.01618
 A3.21429 X0.01316
 A3.21429 X0.00973
 A3.21429 X0.00598
 A3.21429 X0.00202
 G94
 ;End1 - End

 G04 P0.01
M16
G91
 IF 50001
 G00 X0.00100 Z0.200; Reverse Pierce Step and Rapid Clearance Move
 G00 X-0.00100
 G00 X[-40.30954 + 0.00000]
 G00 A0.00000
 G00 X[0.145 * -0.4 * #126] ; Bend Notch Comp
G90
 G00 Y0.0 Z[0.95000 + 0.081]
/M15
 G04 P0.01
 G00 Z0.95000
G91
 G04 P0.01
 G01 X0.001 F140 ; Pierce Step
 G01 G93.1 F140
 ;End2 - Start
 A-3.21429
 A-3.21429
 A-3.21429
 A-3.21429
 A-3.21429
 A-3.21429
 A-3.21429
 A-3.21429
 A-3.21429
 A-3.21429
 A-3.21429
 A-3.21429
 A-3.21429
 A-3.21429
 A-3.21429
 A-3.21429
 A-3.21429
 A-3.21429
 A-3.21429
 A-3.21429
 A-3.21429
 A-3.21429
 A-3.21429
 A-3.21429
 A-3.21429
 A-3.21429
 A-3.21429
 A-3.21429
 A-3.21429
 A-3.21429
 A-3.21429
 A-3.21429
 A-3.21429
 A-3.21429
 A-3.21429
 A-3.21429
 A-3.21429
 A-3.21429
 A-3.21429
 A-3.21429
 A-3.21429
 A-3.21429
 A-3.21429
 A-3.21429
 A-3.21429
 A-3.21429
 A-3.21429
 A-3.21429
 A-3.21429
 A-3.21429
 A-3.21429
 A-3.21429
 A-3.21429
 A-3.21429
 A-3.21429
 A-3.21429
 A-3.21429
 A-3.21429
 A-3.21429
 A-3.21429
 A-3.21429
 A-3.21429
 A-3.21429
 A-3.21429
 A-3.21429
 A-3.21429
 A-3.21429
 A-3.21429
 A-3.21429
 A-3.21429
 A-3.21429
 A-3.21429
 A-3.21429
 A-3.21429
 A-3.21429
 A-3.21429
 A-3.21429
 A-3.21429
 A-3.21429
 A-3.21429
 A-3.21429
 A-3.21429
 A-3.21429
 A-3.21429
 A-3.21429
 A-3.21429
 A-3.21429
 A-3.21429
 A-3.21429
 A-3.21429
 A-3.21429
 A-3.21429
 A-3.21429
 A-3.21429
 A-3.21429
 A-3.21429
 A-3.21429
 A-3.21429
 A-3.21429
 A-3.21429
 A-3.21429
 A-3.21429
 A-3.21429
 A-3.21429
 A-3.21429
 A-3.21429
 A-3.21429
 A-3.21429
 A-3.21429
 A-3.21429
 A-3.21429
 A-3.21429
 G94
 ;End2 - End
 G01 X-0.00000 F140 ; E2 Toe Step



;N9103
;End Of Sequence Manual Unload
 G91
 M16 
 M200 "Mark Your Piece\n'%s'\nThen Press Cycle Start" #300
 G01 X-0.001; Pierce Step
 M16
 IF 50001
 M25 ; Raises Torch
 M11
 M201 "Open the Jaws And Remove the Scrap\n Press Cycle Start To Continue"



; Stick=2
;N9101
; Load Sequence
; Auto-Load Sequence
 M79
G90 
 G53 X-36.62  ; Load Position in Machine Coordinates
 G00 A0.00 ; Load Position-A
 M82 G04 P1.0
 M201 "Please Confirm the Material is Oriented Correctly. \n and then \n Press Cycle-Start."
G91 
 G01 X-6.0 F200.0; LoadStep-1
 M75
 G04 P1.0
 M69
 G01 X-7.0 F200.0; LoadStep-2
 M63
 G01 X-6.0 F200.0; LoadStep-3
 M10
G90;
 G00 A0.0
 G00 Y0.0 ; Burn Position
G91;


; Stick_2_1_ms2036
N93006
; Name:  ms2036
; Description: 1 1/2 sch 40
; Piece Type: Coped
; Material Diameter: 1.9000"   Wall Thickness: 0.1450"
; End-1 Joint Angle: 90.000  Join Diameter: 1.9000"
; Rotational Offset: 0   Length: 40.8130"
; End-2 Joint Angle: 90.000  Join Diameter: 50.0000"
 #300 = "ms2036" ; Assign Piece Name
#126=0 ; Init Bend Notch Counter
G90
 G00 Z[0.95000 + 0.08100]
 /M15
 G04 P0.01
 G00 Z0.95000
G91 
 ;End1 - Start
 G01 X-0.001 F140   ; Pierce Step
 G01 X-0.00000 F140 ; E1 Toe Step
 G01 G93.1 F140
 A3.21429 X-0.00201
 A3.21429 X-0.00596
 A3.21429 X-0.00971
 A3.21429 X-0.01314
 A3.21429 X-0.01616
 A3.21429 X-0.01874
 A3.21429 X-0.02084
 A3.21429 X-0.02248
 A3.21429 X-0.02368
 A3.21429 X-0.02447
 A3.21429 X-0.02489
 A3.21429 X-0.02496
 A3.21429 X-0.02473
 A3.21429 X-0.02423
 A3.21429 X-0.02348
 A3.21429 X-0.02251
 A3.21429 X-0.02136
 A3.21429 X-0.02003
 A3.21429 X-0.01854
 A3.21429 X-0.01693
 A3.21429 X-0.01520
 A3.21429 X-0.01337
 A3.21429 X-0.01145
 A3.21429 X-0.00947
 A3.21429 X-0.00742
 A3.21429 X-0.00533
 A3.21429 X-0.00321
 A3.21429 X-0.00107
 A3.21429 X0.00107
 A3.21429 X0.00321
 A3.21429 X0.00533
 A3.21429 X0.00742
 A3.21429 X0.00947
 A3.21429 X0.01145
 A3.21429 X0.01337
 A3.21429 X0.01520
 A3.21429 X0.01693
 A3.21429 X0.01854
 A3.21429 X0.02003
 A3.21429 X0.02136
 A3.21429 X0.02251
 A3.21429 X0.02348
 A3.21429 X0.02423
 A3.21429 X0.02473
 A3.21429 X0.02496
 A3.21429 X0.02489
 A3.21429 X0.02447
 A3.21429 X0.02368
 A3.21429 X0.02248
 A3.21429 X0.02084
 A3.21429 X0.01874
 A3.21429 X0.01616
 A3.21429 X0.01314
 A3.21429 X0.00971
 A3.21429 X0.00596
 A3.21429 X0.00201
 A3.21429 X-0.00202
 A3.21429 X-0.00598
 A3.21429 X-0.00973
 A3.21429 X-0.01316
 A3.21429 X-0.01618
 A3.21429 X-0.01875
 A3.21429 X-0.02086
 A3.21429 X-0.02250
 A3.21429 X-0.02370
 A3.21429 X-0.02449
 A3.21429 X-0.02490
 A3.21429 X-0.02498
 A3.21429 X-0.02475
 A3.21429 X-0.02424
 A3.21429 X-0.02349
 A3.21429 X-0.02253
 A3.21429 X-0.02137
 A3.21429 X-0.02004
 A3.21429 X-0.01855
 A3.21429 X-0.01694
 A3.21429 X-0.01521
 A3.21429 X-0.01337
 A3.21429 X-0.01146
 A3.21429 X-0.00947
 A3.21429 X-0.00742
 A3.21429 X-0.00533
 A3.21429 X-0.00321
 A3.21429 X-0.00107
 A3.21429 X0.00107
 A3.21429 X0.00321
 A3.21429 X0.00533
 A3.21429 X0.00742
 A3.21429 X0.00947
 A3.21429 X0.01146
 A3.21429 X0.01337
 A3.21429 X0.01521
 A3.21429 X0.01694
 A3.21429 X0.01855
 A3.21429 X0.02004
 A3.21429 X0.02137
 A3.21429 X0.02253
 A3.21429 X0.02349
 A3.21429 X0.02424
 A3.21429 X0.02475
 A3.21429 X0.02498
 A3.21429 X0.02490
 A3.21429 X0.02449
 A3.21429 X0.02370
 A3.21429 X0.02250
 A3.21429 X0.02086
 A3.21429 X0.01875
 A3.21429 X0.01618
 A3.21429 X0.01316
 A3.21429 X0.00973
 A3.21429 X0.00598
 A3.21429 X0.00202
 G94
 ;End1 - End

 G04 P0.01
M16
G91
 IF 50001
 G00 X0.00100 Z0.200; Reverse Pierce Step and Rapid Clearance Move
 G00 X-0.00100
 G00 X[-40.30954 + 0.00000]
 G00 A0.00000
 G00 X[0.145 * -0.4 * #126] ; Bend Notch Comp
G90
 G00 Y0.0 Z[0.95000 + 0.081]
/M15
 G04 P0.01
 G00 Z0.95000
G91
 G04 P0.01
 G01 X0.001 F140 ; Pierce Step
 G01 G93.1 F140
 ;End2 - Start
 A-3.21429
 A-3.21429
 A-3.21429
 A-3.21429
 A-3.21429
 A-3.21429
 A-3.21429
 A-3.21429
 A-3.21429
 A-3.21429
 A-3.21429
 A-3.21429
 A-3.21429
 A-3.21429
 A-3.21429
 A-3.21429
 A-3.21429
 A-3.21429
 A-3.21429
 A-3.21429
 A-3.21429
 A-3.21429
 A-3.21429
 A-3.21429
 A-3.21429
 A-3.21429
 A-3.21429
 A-3.21429
 A-3.21429
 A-3.21429
 A-3.21429
 A-3.21429
 A-3.21429
 A-3.21429
 A-3.21429
 A-3.21429
 A-3.21429
 A-3.21429
 A-3.21429
 A-3.21429
 A-3.21429
 A-3.21429
 A-3.21429
 A-3.21429
 A-3.21429
 A-3.21429
 A-3.21429
 A-3.21429
 A-3.21429
 A-3.21429
 A-3.21429
 A-3.21429
 A-3.21429
 A-3.21429
 A-3.21429
 A-3.21429
 A-3.21429
 A-3.21429
 A-3.21429
 A-3.21429
 A-3.21429
 A-3.21429
 A-3.21429
 A-3.21429
 A-3.21429
 A-3.21429
 A-3.21429
 A-3.21429
 A-3.21429
 A-3.21429
 A-3.21429
 A-3.21429
 A-3.21429
 A-3.21429
 A-3.21429
 A-3.21429
 A-3.21429
 A-3.21429
 A-3.21429
 A-3.21429
 A-3.21429
 A-3.21429
 A-3.21429
 A-3.21429
 A-3.21429
 A-3.21429
 A-3.21429
 A-3.21429
 A-3.21429
 A-3.21429
 A-3.21429
 A-3.21429
 A-3.21429
 A-3.21429
 A-3.21429
 A-3.21429
 A-3.21429
 A-3.21429
 A-3.21429
 A-3.21429
 A-3.21429
 A-3.21429
 A-3.21429
 A-3.21429
 A-3.21429
 A-3.21429
 A-3.21429
 A-3.21429
 A-3.21429
 A-3.21429
 A-3.21429
 A-3.21429
 G94
 ;End2 - End
 G01 X-0.00000 F140 ; E2 Toe Step



;N9103
;End Of Sequence Manual Unload
 G91
 M16 
 M200 "Mark Your Piece\n'%s'\nThen Press Cycle Start" #300
 G01 X-0.001; Pierce Step
 M16
 IF 50001
 M25 ; Raises Torch
 M11
 M201 "Open the Jaws And Remove the Scrap\n Press Cycle Start To Continue"



;N9108
;End Of Batch
 M16
 IF 50001
 M25 ; Raises Torch
 M11
 G90 



 M30 ;End Of Program

