; Batch Name:                           pp1007-QC
; Batch Description:                    
; Round                                 1.900 x 0.145
; Create Date:                          3/24/2026 11:24:47 AM
; Created with Version:                 5.5.49.0
; Machine Strategy:                     MachineStrategy_3
; Process Strategy:                     1.901 Diam
; Piece Summary: 
;   Stick=1
;     Stick_1_1_pp1007
G20 ; Imperial Units

G58
 T1
 G43 H1
G90
 M25 ; Torch Head Retract
 #29001 = 140
; Stick=1
;N9101
; Load Sequence
; Manual-Load Sequence
G90
 M63
 G00 Y0.0 A0.0
 G01 Z0.95000 F140 ; Testing Torch/Part Z-axis Setup
 M10
 M00 ; double check that it all looks good
 G00 Z1.15000 ; 


; Stick_1_1_pp1007
N93001
; Name:  pp1007
; Description: 1 1/2 sch 40
; Piece Type: Coped
; Material Diameter: 1.9000"   Wall Thickness: 0.1450"
; End-1 Joint Angle: 90.000  Join Diameter: 50.0000"
; Rotational Offset: 0   Length: 35.0000"
; End-2 Joint Angle: 90.000  Join Diameter: 50.0000"
 #300 = "pp1007" ; Assign Piece Name
#126=0 ; Init Bend Notch Counter
G90
 G00 Z[0.95000 + 0.08100]
 /M15
 G04 P0.01
 G00 Z0.95000
G91 
 ;End1 - Start
 G01 X-0.001 F140   ; Pierce Step
 G01 X-0.00000 F140 ; E1 Toe Step
 G01 G93.1 F140
 A3.21429
 A3.21429
 A3.21429
 A3.21429
 A3.21429
 A3.21429
 A3.21429
 A3.21429
 A3.21429
 A3.21429
 A3.21429
 A3.21429
 A3.21429
 A3.21429
 A3.21429
 A3.21429
 A3.21429
 A3.21429
 A3.21429
 A3.21429
 A3.21429
 A3.21429
 A3.21429
 A3.21429
 A3.21429
 A3.21429
 A3.21429
 A3.21429
 A3.21429
 A3.21429
 A3.21429
 A3.21429
 A3.21429
 A3.21429
 A3.21429
 A3.21429
 A3.21429
 A3.21429
 A3.21429
 A3.21429
 A3.21429
 A3.21429
 A3.21429
 A3.21429
 A3.21429
 A3.21429
 A3.21429
 A3.21429
 A3.21429
 A3.21429
 A3.21429
 A3.21429
 A3.21429
 A3.21429
 A3.21429
 A3.21429
 A3.21429
 A3.21429
 A3.21429
 A3.21429
 A3.21429
 A3.21429
 A3.21429
 A3.21429
 A3.21429
 A3.21429
 A3.21429
 A3.21429
 A3.21429
 A3.21429
 A3.21429
 A3.21429
 A3.21429
 A3.21429
 A3.21429
 A3.21429
 A3.21429
 A3.21429
 A3.21429
 A3.21429
 A3.21429
 A3.21429
 A3.21429
 A3.21429
 A3.21429
 A3.21429
 A3.21429
 A3.21429
 A3.21429
 A3.21429
 A3.21429
 A3.21429
 A3.21429
 A3.21429
 A3.21429
 A3.21429
 A3.21429
 A3.21429
 A3.21429
 A3.21429
 A3.21429
 A3.21429
 A3.21429
 A3.21429
 A3.21429
 A3.21429
 A3.21429
 A3.21429
 A3.21429
 A3.21429
 A3.21429
 A3.21429
 G94
 ;End1 - End

 G04 P0.01
M16
G91
 IF 50001
 G00 X0.00100 Z0.200; Reverse Pierce Step and Rapid Clearance Move
 G00 X-0.00100

 ;Feature Section Start - 1
 G00 X-12.00000 A90.00000 ; Setup move for following feature
 #100 = 0.950 ; 0.5 * Tube Diameter

;N9201
; Description:          C D 0.750
; Description Type:     CIRCLE
; Diameter:             0.750
; Feed Rate Multiplier: 0.85

 G90
 G00 Z[0.950 + 0.081]
/M15
 G04 P0.01
 G00 Z0.950
 G91
 G01 A-27.76450 F[8444]
 G01 X0.00005 F[140 * 0.85]
 G01 G93.1 F[140 * 0.85]
 X0.01963 A0.04133 
 X0.01957 A0.12378 
 X0.01946 A0.20562 
 X0.01930 A0.28644 
 X0.01909 A0.36586 
 X0.01882 A0.44354 
 X0.01851 A0.51914 
 X0.01814 A0.59238 
 X0.01772 A0.66299 
 X0.01725 A0.73077 
 X0.01674 A0.79552 
 X0.01618 A0.85712 
 X0.01558 A0.91544 
 X0.01493 A0.97040 
 X0.01424 A1.02196 
 X0.01351 A1.07009 
 X0.01275 A1.11478 
 X0.01195 A1.15605 
 X0.01112 A1.19390 
 X0.01026 A1.22839 
 X0.00937 A1.25954 
 X0.00845 A1.28740 
 X0.00751 A1.31202 
 X0.00655 A1.33345 
 X0.00558 A1.35172 
 X0.00458 A1.36688 
 X0.00358 A1.37897 
 X0.00256 A1.38800 
 X0.00154 A1.39401 
 X0.00051 A1.39702 
 X-0.00051 A1.39702 
 X-0.00154 A1.39401 
 X-0.00256 A1.38800 
 X-0.00358 A1.37897 
 X-0.00458 A1.36688 
 X-0.00558 A1.35172 
 X-0.00655 A1.33345 
 X-0.00751 A1.31202 
 X-0.00845 A1.28740 
 X-0.00937 A1.25954 
 X-0.01026 A1.22839 
 X-0.01112 A1.19390 
 X-0.01195 A1.15605 
 X-0.01275 A1.11478 
 X-0.01351 A1.07009 
 X-0.01424 A1.02196 
 X-0.01493 A0.97040 
 X-0.01558 A0.91544 
 X-0.01618 A0.85712 
 X-0.01674 A0.79552 
 X-0.01725 A0.73077 
 X-0.01772 A0.66299 
 X-0.01814 A0.59238 
 X-0.01851 A0.51914 
 X-0.01882 A0.44354 
 X-0.01909 A0.36586 
 X-0.01930 A0.28644 
 X-0.01946 A0.20562 
 X-0.01957 A0.12378 
 X-0.01963 A0.04133 
 ;Middle of Circle
 X-0.01963 A-0.04133 
 X-0.01957 A-0.12378 
 X-0.01946 A-0.20562 
 X-0.01930 A-0.28644 
 X-0.01909 A-0.36586 
 X-0.01882 A-0.44354 
 X-0.01851 A-0.51914 
 X-0.01814 A-0.59238 
 X-0.01772 A-0.66299 
 X-0.01725 A-0.73077 
 X-0.01674 A-0.79552 
 X-0.01618 A-0.85712 
 X-0.01558 A-0.91544 
 X-0.01493 A-0.97040 
 X-0.01424 A-1.02196 
 X-0.01351 A-1.07009 
 X-0.01275 A-1.11478 
 X-0.01195 A-1.15605 
 X-0.01112 A-1.19390 
 X-0.01026 A-1.22839 
 X-0.00937 A-1.25954 
 X-0.00845 A-1.28740 
 X-0.00751 A-1.31202 
 X-0.00655 A-1.33345 
 X-0.00558 A-1.35172 
 X-0.00458 A-1.36688 
 X-0.00358 A-1.37897 
 X-0.00256 A-1.38800 
 X-0.00154 A-1.39401 
 X-0.00051 A-1.39702 
 X0.00051 A-1.39702 
 X0.00154 A-1.39401 
 X0.00256 A-1.38800 
 X0.00358 A-1.37897 
 X0.00458 A-1.36688 
 X0.00558 A-1.35172 
 X0.00655 A-1.33345 
 X0.00751 A-1.31202 
 X0.00845 A-1.28740 
 X0.00937 A-1.25954 
 X0.01026 A-1.22839 
 X0.01112 A-1.19390 
 X0.01195 A-1.15605 
 X0.01275 A-1.11478 
 X0.01351 A-1.07009 
 X0.01424 A-1.02196 
 X0.01493 A-0.97040 
 X0.01558 A-0.91544 
 X0.01618 A-0.85712 
 X0.01674 A-0.79552 
 X0.01725 A-0.73077 
 X0.01772 A-0.66299 
 X0.01814 A-0.59238 
 X0.01851 A-0.51914 
 X0.01882 A-0.44354 
 X0.01909 A-0.36586 
 X0.01930 A-0.28644 
 X0.01946 A-0.20562 
 X0.01957 A-0.12378 
 X0.01963 A-0.04133 
M16
 IF 50001
 G00 Z0.200
 G94
 G00 A27.76450 F[8444]
 ;End of Circle


 ;Feature Section End - 1

 ;Feature Section Start - 2
 G00 X0.00000 A90.00000 ; Setup move for following feature
 #100 = 0.950 ; 0.5 * Tube Diameter

;N9201
; Description:          C D 0.750
; Description Type:     CIRCLE
; Diameter:             0.750
; Feed Rate Multiplier: 0.85

 G90
 G00 Z[0.950 + 0.081]
/M15
 G04 P0.01
 G00 Z0.950
 G91
 G01 A-27.76450 F[8444]
 G01 X0.00005 F[140 * 0.85]
 G01 G93.1 F[140 * 0.85]
 X0.01963 A0.04133 
 X0.01957 A0.12378 
 X0.01946 A0.20562 
 X0.01930 A0.28644 
 X0.01909 A0.36586 
 X0.01882 A0.44354 
 X0.01851 A0.51914 
 X0.01814 A0.59238 
 X0.01772 A0.66299 
 X0.01725 A0.73077 
 X0.01674 A0.79552 
 X0.01618 A0.85712 
 X0.01558 A0.91544 
 X0.01493 A0.97040 
 X0.01424 A1.02196 
 X0.01351 A1.07009 
 X0.01275 A1.11478 
 X0.01195 A1.15605 
 X0.01112 A1.19390 
 X0.01026 A1.22839 
 X0.00937 A1.25954 
 X0.00845 A1.28740 
 X0.00751 A1.31202 
 X0.00655 A1.33345 
 X0.00558 A1.35172 
 X0.00458 A1.36688 
 X0.00358 A1.37897 
 X0.00256 A1.38800 
 X0.00154 A1.39401 
 X0.00051 A1.39702 
 X-0.00051 A1.39702 
 X-0.00154 A1.39401 
 X-0.00256 A1.38800 
 X-0.00358 A1.37897 
 X-0.00458 A1.36688 
 X-0.00558 A1.35172 
 X-0.00655 A1.33345 
 X-0.00751 A1.31202 
 X-0.00845 A1.28740 
 X-0.00937 A1.25954 
 X-0.01026 A1.22839 
 X-0.01112 A1.19390 
 X-0.01195 A1.15605 
 X-0.01275 A1.11478 
 X-0.01351 A1.07009 
 X-0.01424 A1.02196 
 X-0.01493 A0.97040 
 X-0.01558 A0.91544 
 X-0.01618 A0.85712 
 X-0.01674 A0.79552 
 X-0.01725 A0.73077 
 X-0.01772 A0.66299 
 X-0.01814 A0.59238 
 X-0.01851 A0.51914 
 X-0.01882 A0.44354 
 X-0.01909 A0.36586 
 X-0.01930 A0.28644 
 X-0.01946 A0.20562 
 X-0.01957 A0.12378 
 X-0.01963 A0.04133 
 ;Middle of Circle
 X-0.01963 A-0.04133 
 X-0.01957 A-0.12378 
 X-0.01946 A-0.20562 
 X-0.01930 A-0.28644 
 X-0.01909 A-0.36586 
 X-0.01882 A-0.44354 
 X-0.01851 A-0.51914 
 X-0.01814 A-0.59238 
 X-0.01772 A-0.66299 
 X-0.01725 A-0.73077 
 X-0.01674 A-0.79552 
 X-0.01618 A-0.85712 
 X-0.01558 A-0.91544 
 X-0.01493 A-0.97040 
 X-0.01424 A-1.02196 
 X-0.01351 A-1.07009 
 X-0.01275 A-1.11478 
 X-0.01195 A-1.15605 
 X-0.01112 A-1.19390 
 X-0.01026 A-1.22839 
 X-0.00937 A-1.25954 
 X-0.00845 A-1.28740 
 X-0.00751 A-1.31202 
 X-0.00655 A-1.33345 
 X-0.00558 A-1.35172 
 X-0.00458 A-1.36688 
 X-0.00358 A-1.37897 
 X-0.00256 A-1.38800 
 X-0.00154 A-1.39401 
 X-0.00051 A-1.39702 
 X0.00051 A-1.39702 
 X0.00154 A-1.39401 
 X0.00256 A-1.38800 
 X0.00358 A-1.37897 
 X0.00458 A-1.36688 
 X0.00558 A-1.35172 
 X0.00655 A-1.33345 
 X0.00751 A-1.31202 
 X0.00845 A-1.28740 
 X0.00937 A-1.25954 
 X0.01026 A-1.22839 
 X0.01112 A-1.19390 
 X0.01195 A-1.15605 
 X0.01275 A-1.11478 
 X0.01351 A-1.07009 
 X0.01424 A-1.02196 
 X0.01493 A-0.97040 
 X0.01558 A-0.91544 
 X0.01618 A-0.85712 
 X0.01674 A-0.79552 
 X0.01725 A-0.73077 
 X0.01772 A-0.66299 
 X0.01814 A-0.59238 
 X0.01851 A-0.51914 
 X0.01882 A-0.44354 
 X0.01909 A-0.36586 
 X0.01930 A-0.28644 
 X0.01946 A-0.20562 
 X0.01957 A-0.12378 
 X0.01963 A-0.04133 
M16
 IF 50001
 G00 Z0.200
 G94
 G00 A27.76450 F[8444]
 ;End of Circle


 ;Feature Section End - 2

 ;Feature Section Start - 3
 G00 X-12.00000 A-90.00000 ; Setup move for following feature
 #100 = 0.950 ; 0.5 * Tube Diameter

;N9201
; Description:          C D 0.750
; Description Type:     CIRCLE
; Diameter:             0.750
; Feed Rate Multiplier: 0.85

 G90
 G00 Z[0.950 + 0.081]
/M15
 G04 P0.01
 G00 Z0.950
 G91
 G01 A-27.76450 F[8444]
 G01 X0.00005 F[140 * 0.85]
 G01 G93.1 F[140 * 0.85]
 X0.01963 A0.04133 
 X0.01957 A0.12378 
 X0.01946 A0.20562 
 X0.01930 A0.28644 
 X0.01909 A0.36586 
 X0.01882 A0.44354 
 X0.01851 A0.51914 
 X0.01814 A0.59238 
 X0.01772 A0.66299 
 X0.01725 A0.73077 
 X0.01674 A0.79552 
 X0.01618 A0.85712 
 X0.01558 A0.91544 
 X0.01493 A0.97040 
 X0.01424 A1.02196 
 X0.01351 A1.07009 
 X0.01275 A1.11478 
 X0.01195 A1.15605 
 X0.01112 A1.19390 
 X0.01026 A1.22839 
 X0.00937 A1.25954 
 X0.00845 A1.28740 
 X0.00751 A1.31202 
 X0.00655 A1.33345 
 X0.00558 A1.35172 
 X0.00458 A1.36688 
 X0.00358 A1.37897 
 X0.00256 A1.38800 
 X0.00154 A1.39401 
 X0.00051 A1.39702 
 X-0.00051 A1.39702 
 X-0.00154 A1.39401 
 X-0.00256 A1.38800 
 X-0.00358 A1.37897 
 X-0.00458 A1.36688 
 X-0.00558 A1.35172 
 X-0.00655 A1.33345 
 X-0.00751 A1.31202 
 X-0.00845 A1.28740 
 X-0.00937 A1.25954 
 X-0.01026 A1.22839 
 X-0.01112 A1.19390 
 X-0.01195 A1.15605 
 X-0.01275 A1.11478 
 X-0.01351 A1.07009 
 X-0.01424 A1.02196 
 X-0.01493 A0.97040 
 X-0.01558 A0.91544 
 X-0.01618 A0.85712 
 X-0.01674 A0.79552 
 X-0.01725 A0.73077 
 X-0.01772 A0.66299 
 X-0.01814 A0.59238 
 X-0.01851 A0.51914 
 X-0.01882 A0.44354 
 X-0.01909 A0.36586 
 X-0.01930 A0.28644 
 X-0.01946 A0.20562 
 X-0.01957 A0.12378 
 X-0.01963 A0.04133 
 ;Middle of Circle
 X-0.01963 A-0.04133 
 X-0.01957 A-0.12378 
 X-0.01946 A-0.20562 
 X-0.01930 A-0.28644 
 X-0.01909 A-0.36586 
 X-0.01882 A-0.44354 
 X-0.01851 A-0.51914 
 X-0.01814 A-0.59238 
 X-0.01772 A-0.66299 
 X-0.01725 A-0.73077 
 X-0.01674 A-0.79552 
 X-0.01618 A-0.85712 
 X-0.01558 A-0.91544 
 X-0.01493 A-0.97040 
 X-0.01424 A-1.02196 
 X-0.01351 A-1.07009 
 X-0.01275 A-1.11478 
 X-0.01195 A-1.15605 
 X-0.01112 A-1.19390 
 X-0.01026 A-1.22839 
 X-0.00937 A-1.25954 
 X-0.00845 A-1.28740 
 X-0.00751 A-1.31202 
 X-0.00655 A-1.33345 
 X-0.00558 A-1.35172 
 X-0.00458 A-1.36688 
 X-0.00358 A-1.37897 
 X-0.00256 A-1.38800 
 X-0.00154 A-1.39401 
 X-0.00051 A-1.39702 
 X0.00051 A-1.39702 
 X0.00154 A-1.39401 
 X0.00256 A-1.38800 
 X0.00358 A-1.37897 
 X0.00458 A-1.36688 
 X0.00558 A-1.35172 
 X0.00655 A-1.33345 
 X0.00751 A-1.31202 
 X0.00845 A-1.28740 
 X0.00937 A-1.25954 
 X0.01026 A-1.22839 
 X0.01112 A-1.19390 
 X0.01195 A-1.15605 
 X0.01275 A-1.11478 
 X0.01351 A-1.07009 
 X0.01424 A-1.02196 
 X0.01493 A-0.97040 
 X0.01558 A-0.91544 
 X0.01618 A-0.85712 
 X0.01674 A-0.79552 
 X0.01725 A-0.73077 
 X0.01772 A-0.66299 
 X0.01814 A-0.59238 
 X0.01851 A-0.51914 
 X0.01882 A-0.44354 
 X0.01909 A-0.36586 
 X0.01930 A-0.28644 
 X0.01946 A-0.20562 
 X0.01957 A-0.12378 
 X0.01963 A-0.04133 
M16
 IF 50001
 G00 Z0.200
 G94
 G00 A27.76450 F[8444]
 ;End of Circle


 ;Feature Section End - 3

 ;Feature Section Start - 4
 G00 X0.00000 A90.00000 ; Setup move for following feature
 #100 = 0.950 ; 0.5 * Tube Diameter

;N9201
; Description:          C D 0.750
; Description Type:     CIRCLE
; Diameter:             0.750
; Feed Rate Multiplier: 0.85

 G90
 G00 Z[0.950 + 0.081]
/M15
 G04 P0.01
 G00 Z0.950
 G91
 G01 A-27.76450 F[8444]
 G01 X0.00005 F[140 * 0.85]
 G01 G93.1 F[140 * 0.85]
 X0.01963 A0.04133 
 X0.01957 A0.12378 
 X0.01946 A0.20562 
 X0.01930 A0.28644 
 X0.01909 A0.36586 
 X0.01882 A0.44354 
 X0.01851 A0.51914 
 X0.01814 A0.59238 
 X0.01772 A0.66299 
 X0.01725 A0.73077 
 X0.01674 A0.79552 
 X0.01618 A0.85712 
 X0.01558 A0.91544 
 X0.01493 A0.97040 
 X0.01424 A1.02196 
 X0.01351 A1.07009 
 X0.01275 A1.11478 
 X0.01195 A1.15605 
 X0.01112 A1.19390 
 X0.01026 A1.22839 
 X0.00937 A1.25954 
 X0.00845 A1.28740 
 X0.00751 A1.31202 
 X0.00655 A1.33345 
 X0.00558 A1.35172 
 X0.00458 A1.36688 
 X0.00358 A1.37897 
 X0.00256 A1.38800 
 X0.00154 A1.39401 
 X0.00051 A1.39702 
 X-0.00051 A1.39702 
 X-0.00154 A1.39401 
 X-0.00256 A1.38800 
 X-0.00358 A1.37897 
 X-0.00458 A1.36688 
 X-0.00558 A1.35172 
 X-0.00655 A1.33345 
 X-0.00751 A1.31202 
 X-0.00845 A1.28740 
 X-0.00937 A1.25954 
 X-0.01026 A1.22839 
 X-0.01112 A1.19390 
 X-0.01195 A1.15605 
 X-0.01275 A1.11478 
 X-0.01351 A1.07009 
 X-0.01424 A1.02196 
 X-0.01493 A0.97040 
 X-0.01558 A0.91544 
 X-0.01618 A0.85712 
 X-0.01674 A0.79552 
 X-0.01725 A0.73077 
 X-0.01772 A0.66299 
 X-0.01814 A0.59238 
 X-0.01851 A0.51914 
 X-0.01882 A0.44354 
 X-0.01909 A0.36586 
 X-0.01930 A0.28644 
 X-0.01946 A0.20562 
 X-0.01957 A0.12378 
 X-0.01963 A0.04133 
 ;Middle of Circle
 X-0.01963 A-0.04133 
 X-0.01957 A-0.12378 
 X-0.01946 A-0.20562 
 X-0.01930 A-0.28644 
 X-0.01909 A-0.36586 
 X-0.01882 A-0.44354 
 X-0.01851 A-0.51914 
 X-0.01814 A-0.59238 
 X-0.01772 A-0.66299 
 X-0.01725 A-0.73077 
 X-0.01674 A-0.79552 
 X-0.01618 A-0.85712 
 X-0.01558 A-0.91544 
 X-0.01493 A-0.97040 
 X-0.01424 A-1.02196 
 X-0.01351 A-1.07009 
 X-0.01275 A-1.11478 
 X-0.01195 A-1.15605 
 X-0.01112 A-1.19390 
 X-0.01026 A-1.22839 
 X-0.00937 A-1.25954 
 X-0.00845 A-1.28740 
 X-0.00751 A-1.31202 
 X-0.00655 A-1.33345 
 X-0.00558 A-1.35172 
 X-0.00458 A-1.36688 
 X-0.00358 A-1.37897 
 X-0.00256 A-1.38800 
 X-0.00154 A-1.39401 
 X-0.00051 A-1.39702 
 X0.00051 A-1.39702 
 X0.00154 A-1.39401 
 X0.00256 A-1.38800 
 X0.00358 A-1.37897 
 X0.00458 A-1.36688 
 X0.00558 A-1.35172 
 X0.00655 A-1.33345 
 X0.00751 A-1.31202 
 X0.00845 A-1.28740 
 X0.00937 A-1.25954 
 X0.01026 A-1.22839 
 X0.01112 A-1.19390 
 X0.01195 A-1.15605 
 X0.01275 A-1.11478 
 X0.01351 A-1.07009 
 X0.01424 A-1.02196 
 X0.01493 A-0.97040 
 X0.01558 A-0.91544 
 X0.01618 A-0.85712 
 X0.01674 A-0.79552 
 X0.01725 A-0.73077 
 X0.01772 A-0.66299 
 X0.01814 A-0.59238 
 X0.01851 A-0.51914 
 X0.01882 A-0.44354 
 X0.01909 A-0.36586 
 X0.01930 A-0.28644 
 X0.01946 A-0.20562 
 X0.01957 A-0.12378 
 X0.01963 A-0.04133 
M16
 IF 50001
 G00 Z0.200
 G94
 G00 A27.76450 F[8444]
 ;End of Circle


 ;Feature Section End - 4
 G00 X[-35.00100 + 24.00000]
 G00 A-180.00000
 G00 X[0.145 * -0.4 * #126] ; Bend Notch Comp
G90
 G00 Y0.0 Z[0.95000 + 0.081]
/M15
 G04 P0.01
 G00 Z0.95000
G91
 G04 P0.01
 G01 X0.001 F140 ; Pierce Step
 G01 G93.1 F140
 ;End2 - Start
 A-3.21429
 A-3.21429
 A-3.21429
 A-3.21429
 A-3.21429
 A-3.21429
 A-3.21429
 A-3.21429
 A-3.21429
 A-3.21429
 A-3.21429
 A-3.21429
 A-3.21429
 A-3.21429
 A-3.21429
 A-3.21429
 A-3.21429
 A-3.21429
 A-3.21429
 A-3.21429
 A-3.21429
 A-3.21429
 A-3.21429
 A-3.21429
 A-3.21429
 A-3.21429
 A-3.21429
 A-3.21429
 A-3.21429
 A-3.21429
 A-3.21429
 A-3.21429
 A-3.21429
 A-3.21429
 A-3.21429
 A-3.21429
 A-3.21429
 A-3.21429
 A-3.21429
 A-3.21429
 A-3.21429
 A-3.21429
 A-3.21429
 A-3.21429
 A-3.21429
 A-3.21429
 A-3.21429
 A-3.21429
 A-3.21429
 A-3.21429
 A-3.21429
 A-3.21429
 A-3.21429
 A-3.21429
 A-3.21429
 A-3.21429
 A-3.21429
 A-3.21429
 A-3.21429
 A-3.21429
 A-3.21429
 A-3.21429
 A-3.21429
 A-3.21429
 A-3.21429
 A-3.21429
 A-3.21429
 A-3.21429
 A-3.21429
 A-3.21429
 A-3.21429
 A-3.21429
 A-3.21429
 A-3.21429
 A-3.21429
 A-3.21429
 A-3.21429
 A-3.21429
 A-3.21429
 A-3.21429
 A-3.21429
 A-3.21429
 A-3.21429
 A-3.21429
 A-3.21429
 A-3.21429
 A-3.21429
 A-3.21429
 A-3.21429
 A-3.21429
 A-3.21429
 A-3.21429
 A-3.21429
 A-3.21429
 A-3.21429
 A-3.21429
 A-3.21429
 A-3.21429
 A-3.21429
 A-3.21429
 A-3.21429
 A-3.21429
 A-3.21429
 A-3.21429
 A-3.21429
 A-3.21429
 A-3.21429
 A-3.21429
 A-3.21429
 A-3.21429
 A-3.21429
 A-3.21429
 G94
 ;End2 - End
 G01 X-0.00000 F140 ; E2 Toe Step



;N9109
; Quick Code Material Advance
G91
 G01 X-0.00100; Pierce Step
M16
 IF 50001
 M25 ; Raises Torch
 G00 X-0.30000 ; Quick Code Advance

 M30 ;End Of Program

